; generated by Slic3r 0.9.3 on 2013-06-15 at 18:14:43

; layer_height = .25
; perimeters = 3
; solid_layers = 2
; fill_density = 0.3
; perimeter_speed = 30
; infill_speed = 60
; travel_speed = 75
; scale = 1
; nozzle_diameter = 0.35
; filament_diameter = 1.8
; extrusion_multiplier = 1
; single wall width = 0.39mm

M107
G92 E0	;reset extruder location
G1 E5	;Prime extruder
G28	;Go Home
;G1 E20	Prime extruder
G90 ; use absolute coordinates
G21 ; set units to millimeters
G92 E0
M82 ; use absolute distances for extrusion
G1 F1080.000 E-1.00000
G92 E0
G1 Z0.250 F4500.000
G1 X26.150 Y44.030
G1 F1080.000 E1.00000
G1 X51.540 Y24.700 F1200.000 E2.20651
G1 X51.730 Y24.580 E2.21500
G1 X52.130 Y24.380 E2.23191
G1 X52.550 Y24.220 E2.24890
G1 X52.980 Y24.120 E2.26559
G1 X53.430 Y24.070 E2.28271
G1 X53.650 Y24.060 E2.29104
G1 X72.570 Y24.070 E3.00638
G1 X73.020 Y24.120 E3.02350
G1 X73.240 Y24.170 E3.03203
G1 X73.660 Y24.300 E3.04865
G1 X73.870 Y24.380 E3.05715
G1 X74.270 Y24.580 E3.07406
G1 X74.460 Y24.700 E3.08255
G1 X100.010 Y44.170 E4.29708
G1 X100.320 Y44.470 E4.31339
G1 X100.470 Y44.640 E4.32196
G1 X100.600 Y44.810 E4.33005
G1 X100.940 Y45.360 E4.35450
G1 X101.110 Y45.760 E4.37093
G1 X101.230 Y46.180 E4.38745
G1 X101.270 Y46.390 E4.39553
G1 X101.320 Y46.820 E4.41190
G1 X101.310 Y98.550 E6.36774
G1 X101.240 Y98.950 E6.38309
G1 X101.130 Y99.350 E6.39877
G1 X100.980 Y99.730 E6.41422
G1 X100.790 Y100.090 E6.42961
G1 X100.560 Y100.430 E6.44513
G1 X100.430 Y100.590 E6.45293
G1 X100.000 Y101.020 E6.47592
G1 X99.840 Y101.150 E6.48371
G1 X99.500 Y101.380 E6.49923
G1 X99.140 Y101.570 E6.51462
G1 X98.760 Y101.720 E6.53007
G1 X98.360 Y101.830 E6.54575
G1 X97.960 Y101.900 E6.56111
G1 X97.550 Y101.920 E6.57663
G1 X28.030 Y101.900 E9.20508
G1 X27.630 Y101.830 E9.22044
G1 X27.230 Y101.720 E9.23612
G1 X26.850 Y101.570 E9.25157
G1 X26.490 Y101.380 E9.26696
G1 X26.150 Y101.150 E9.28248
G1 X25.990 Y101.020 E9.29027
G1 X25.560 Y100.590 E9.31326
G1 X25.430 Y100.430 E9.32106
G1 X25.200 Y100.090 E9.33658
G1 X25.010 Y99.730 E9.35197
G1 X24.860 Y99.350 E9.36742
G1 X24.750 Y98.950 E9.38310
G1 X24.680 Y98.550 E9.39845
G1 X24.670 Y46.820 E11.35430
G1 X24.720 Y46.390 E11.37066
G1 X24.760 Y46.180 E11.37874
G1 X24.880 Y45.760 E11.39526
G1 X25.050 Y45.360 E11.41169
G1 X25.270 Y44.980 E11.42829
G1 X25.530 Y44.630 E11.44478
G1 X25.670 Y44.470 E11.45282
G1 X25.853 Y44.289 E11.46254
G1 X26.070 Y44.610 F4500.000
G1 X26.220 Y44.470 F1200.000 E11.47030
G1 X51.600 Y25.140 E12.67651
G1 X51.960 Y24.900 E12.69287
G1 X52.360 Y24.710 E12.70961
G1 X52.780 Y24.560 E12.72647
G1 X52.990 Y24.510 E12.73463
G1 X53.430 Y24.460 E12.75137
G1 X53.650 Y24.450 E12.75970
G1 X72.570 Y24.460 E13.47504
G1 X73.010 Y24.510 E13.49178
G1 X73.220 Y24.560 E13.49995
G1 X73.640 Y24.710 E13.51681
G1 X74.040 Y24.900 E13.53355
G1 X74.400 Y25.140 E13.54991
G1 X99.770 Y44.470 E14.75581
G1 X100.200 Y44.920 E14.77934
G1 X100.440 Y45.260 E14.79508
G1 X100.540 Y45.440 E14.80287
G1 X100.710 Y45.820 E14.81860
G1 X100.840 Y46.220 E14.83451
G1 X100.880 Y46.420 E14.84222
G1 X100.930 Y46.830 E14.85783
G1 X100.930 Y98.340 E16.80536
G1 X100.920 Y98.530 E16.81255
G1 X100.890 Y98.730 E16.82020
G1 X100.800 Y99.110 E16.83496
G1 X100.740 Y99.300 E16.84250
G1 X100.580 Y99.660 E16.85739
G1 X100.490 Y99.830 E16.86466
G1 X100.270 Y100.160 E16.87966
G1 X100.150 Y100.320 E16.88722
G1 X100.020 Y100.470 E16.89473
G1 X99.880 Y100.610 E16.90221
G1 X99.730 Y100.740 E16.90972
G1 X99.240 Y101.080 E16.93226
G1 X99.070 Y101.170 E16.93954
G1 X98.710 Y101.330 E16.95443
G1 X98.330 Y101.440 E16.96939
G1 X98.140 Y101.480 E16.97673
G1 X97.940 Y101.510 E16.98438
G1 X97.550 Y101.530 E16.99914
G1 X28.240 Y101.520 E19.61966
G1 X28.050 Y101.510 E19.62685
G1 X27.850 Y101.480 E19.63450
G1 X27.470 Y101.390 E19.64926
G1 X27.280 Y101.330 E19.65680
G1 X26.920 Y101.170 E19.67169
G1 X26.750 Y101.080 E19.67896
G1 X26.420 Y100.860 E19.69396
G1 X26.260 Y100.740 E19.70152
G1 X26.110 Y100.610 E19.70903
G1 X25.970 Y100.470 E19.71651
G1 X25.840 Y100.320 E19.72402
G1 X25.500 Y99.830 E19.74657
G1 X25.410 Y99.660 E19.75384
G1 X25.250 Y99.300 E19.76873
G1 X25.140 Y98.920 E19.78369
G1 X25.100 Y98.730 E19.79103
G1 X25.070 Y98.530 E19.79868
G1 X25.060 Y46.830 E21.75338
G1 X25.110 Y46.420 E21.76900
G1 X25.150 Y46.220 E21.77671
G1 X25.280 Y45.820 E21.79261
G1 X25.450 Y45.440 E21.80835
G1 X25.550 Y45.260 E21.81614
G1 X25.790 Y44.920 E21.83187
G1 X25.805 Y44.902 E21.83276
G1 F1080.000 E20.83276
G92 E0
G1 X60.546 Y74.383 F4500.000
G1 F1080.000 E1.00000
G1 X59.728 Y72.778 F1200.000 E1.08280
G1 X59.939 Y72.778 E1.09247
G1 X60.115 Y71.663 E1.14435
G1 X60.546 Y70.817 E1.18796
G1 X61.217 Y70.146 E1.23157
G1 X62.063 Y69.715 E1.27519
G1 X63.178 Y69.539 E1.32706
G1 X63.178 Y69.328 E1.33674
G1 X64.783 Y70.146 E1.41953
G1 X65.868 Y71.232 E1.49008
G1 X65.777 Y71.452 E1.50103
G1 X65.885 Y71.663 E1.51192
G1 X65.998 Y72.381 E1.54531
G1 X65.998 Y72.381 E1.54531
G1 X66.033 Y72.600 E1.55553
G1 X65.998 Y72.819 E1.56574
G1 X65.998 Y72.819 E1.56574
G1 X65.885 Y73.537 E1.59914
G1 X65.454 Y74.383 E1.64275
G1 X64.783 Y75.054 E1.68636
G1 X63.178 Y75.872 E1.76916
G1 X63.178 Y75.661 E1.77884
G1 X62.063 Y75.485 E1.83071
G1 X61.217 Y75.054 E1.87432
G1 X60.825 Y74.662 E1.89981
G1 X60.943 Y74.095 F4500.000
G1 X60.518 Y73.261 F1200.000 E1.94279
G1 X60.562 Y73.261 E1.94480
G1 X60.457 Y72.600 E1.97558
G1 X60.581 Y71.814 E2.01215
G1 X60.943 Y71.105 E2.04872
G1 X61.505 Y70.543 E2.08528
G1 X62.214 Y70.181 E2.12185
G1 X62.576 Y70.124 E2.13871
G1 X62.576 Y70.124 E2.13871
G1 X63.000 Y70.057 E2.15842
G1 X63.661 Y70.162 E2.18920
G1 X63.661 Y70.118 E2.19120
G1 X64.495 Y70.543 E2.23419
G1 X64.954 Y71.002 E2.26406
G1 X64.954 Y71.002 E2.26406
G1 X65.057 Y71.105 E2.27076
G1 X65.419 Y71.814 E2.30732
G1 X65.543 Y72.600 E2.34389
G1 X65.419 Y73.386 E2.38045
G1 X65.057 Y74.095 E2.41702
G1 X64.495 Y74.657 E2.45359
G1 X63.661 Y75.082 E2.49657
G1 X63.661 Y75.038 E2.49858
G1 X63.000 Y75.143 E2.52936
G1 X62.576 Y75.076 E2.54907
G1 X62.576 Y75.076 E2.54907
G1 X62.214 Y75.019 E2.56593
G1 X61.505 Y74.657 E2.60250
G1 X61.221 Y74.374 E2.62094
G1 X61.339 Y73.807 F4500.000
G1 X61.308 Y73.745 F1200.000 E2.62410
G1 X61.308 Y73.745 E2.62410
G1 X61.047 Y73.234 E2.65046
G1 X60.947 Y72.600 E2.67998
G1 X61.047 Y71.966 E2.70950
G1 X61.339 Y71.393 E2.73903
G1 X61.793 Y70.939 E2.76855
G1 X62.366 Y70.647 E2.79807
G1 X63.000 Y70.547 E2.82759
G1 X63.634 Y70.647 E2.85712
G1 X64.145 Y70.908 E2.88347
G1 X64.145 Y70.908 E2.88347
G1 X64.207 Y70.939 E2.88664
G1 X64.661 Y71.393 E2.91616
G1 X64.953 Y71.966 E2.94568
G1 X65.053 Y72.600 E2.97520
G1 X64.953 Y73.234 E3.00473
G1 X64.661 Y73.807 E3.03425
G1 X64.207 Y74.261 E3.06377
G1 X64.145 Y74.292 E3.06694
G1 X64.145 Y74.292 E3.06694
G1 X63.634 Y74.553 E3.09329
G1 X63.000 Y74.653 E3.12282
G1 X62.366 Y74.553 E3.15234
G1 X61.793 Y74.261 E3.18186
G1 X61.618 Y74.086 E3.19326
G1 F1080.000 E2.19326
G92 E0
G1 X54.618 Y67.218 F4500.000
G1 F1080.000 E1.00000
G1 X71.382 Y67.218 F1200.000 E1.77048
G1 X71.382 Y67.782 E1.79642
G1 X67.782 Y67.782 E1.96187
G1 X67.782 Y77.418 E2.40472
G1 X71.382 Y77.418 E2.57017
G1 X71.382 Y77.982 E2.59611
G1 X54.618 Y77.982 E3.36659
G1 X54.618 Y77.418 E3.39253
G1 X58.218 Y77.418 E3.55799
G1 X58.218 Y67.782 E4.00083
G1 X54.618 Y67.782 E4.16629
G1 X54.618 Y67.612 E4.17410
G1 X54.134 Y68.266 F4500.000
G1 X54.134 Y66.734 F1200.000 E4.24452
G1 X71.866 Y66.734 E5.05948
G1 X71.866 Y68.266 E5.12990
G1 X68.266 Y68.266 E5.29535
G1 X68.266 Y76.934 E5.69372
G1 X71.866 Y76.934 E5.85917
G1 X71.866 Y78.466 E5.92959
G1 X54.134 Y78.466 E6.74455
G1 X54.134 Y76.934 E6.81497
G1 X57.734 Y76.934 E6.98043
G1 X57.734 Y68.266 E7.37879
G1 X54.528 Y68.266 E7.52612
G1 X53.650 Y68.750 F4500.000
G1 X53.650 Y66.250 F1200.000 E7.64102
G1 X72.350 Y66.250 E8.50046
G1 X72.350 Y68.750 E8.61536
G1 X68.750 Y68.750 E8.78081
G1 X68.750 Y76.450 E9.13470
G1 X72.350 Y76.450 E9.30016
G1 X72.350 Y78.950 E9.41505
G1 X53.650 Y78.950 E10.27449
G1 X53.650 Y76.450 E10.38939
G1 X57.250 Y76.450 E10.55485
G1 X57.250 Y68.750 E10.90873
G1 X54.044 Y68.750 E11.05606
G1 F1080.000 E10.05606
G92 E0
G1 X58.702 Y67.307 F4500.000
G1 F1080.000 E1.00000
G1 X58.702 Y72.688 F1200.000 E1.25743
G1 F1080.000 E0.25743
G92 E0
G1 X60.219 Y74.345 F4500.000
G1 F1080.000 E1.00000
G1 X60.219 Y77.893 F1200.000 E1.16972
G1 X59.713 Y77.893 F4500.000
G1 X59.713 Y73.419 F1200.000 E1.38376
G1 X59.207 Y72.688 E1.42627
G1 X59.207 Y67.307 E1.68370
G1 X59.713 Y67.307 F4500.000
G1 X59.713 Y71.781 F1200.000 E1.89774
G1 X60.219 Y70.855 E1.94822
G1 X60.219 Y67.307 E2.11795
G1 X60.724 Y67.307 F4500.000
G1 X60.724 Y70.349 F1200.000 E2.26348
G1 X61.230 Y69.991 F4500.000
G1 X61.230 Y67.307 F1200.000 E2.39188
G1 X61.736 Y67.307 F4500.000
G1 X61.736 Y69.733 F1200.000 E2.50794
G1 X62.241 Y69.592 F4500.000
G1 X62.241 Y67.307 F1200.000 E2.61723
G1 X62.747 Y67.307 F4500.000
G1 X62.747 Y68.960 F1200.000 E2.69632
G1 X63.253 Y69.218 F4500.000
G1 X63.253 Y67.307 F1200.000 E2.78773
G1 X63.758 Y67.307 F4500.000
G1 X63.758 Y69.476 F1200.000 E2.89148
G1 X64.264 Y69.733 F4500.000
G1 X64.264 Y67.307 F1200.000 E3.00754
G1 X64.770 Y67.307 F4500.000
G1 X64.770 Y69.991 F1200.000 E3.13594
G1 X65.276 Y70.349 F4500.000
G1 X65.276 Y67.307 F1200.000 E3.28147
G1 X65.781 Y67.307 F4500.000
G1 X65.781 Y70.855 F1200.000 E3.45120
G1 X66.287 Y71.361 F4500.000
G1 X66.287 Y67.307 F1200.000 E3.64511
G1 X66.793 Y67.307 F4500.000
G1 X66.793 Y77.893 F1200.000 E4.15154
G1 X66.287 Y77.893 F4500.000
G1 X66.287 Y73.419 F1200.000 E4.36558
G1 X65.781 Y74.345 E4.41606
G1 X65.781 Y77.893 E4.58579
G1 X65.276 Y77.893 F4500.000
G1 X65.276 Y74.851 F1200.000 E4.73132
G1 X64.770 Y75.209 F4500.000
G1 X64.770 Y77.893 F1200.000 E4.85972
G1 X64.264 Y77.893 F4500.000
G1 X64.264 Y75.467 F1200.000 E4.97579
G1 X63.758 Y75.724 F4500.000
G1 X63.758 Y77.893 F1200.000 E5.07953
G1 X63.253 Y77.893 F4500.000
G1 X63.253 Y75.982 F1200.000 E5.17094
G1 X62.747 Y76.240 F4500.000
G1 X62.747 Y77.893 F1200.000 E5.25003
G1 X62.241 Y77.893 F4500.000
G1 X62.241 Y75.608 F1200.000 E5.35932
G1 X61.736 Y75.467 F4500.000
G1 X61.736 Y77.893 F1200.000 E5.47539
G1 X61.230 Y77.893 F4500.000
G1 X61.230 Y75.209 F1200.000 E5.60378
G1 X60.724 Y74.851 F4500.000
G1 X60.724 Y77.893 F1200.000 E5.74931
G1 X59.207 Y77.893 F4500.000
G1 X59.207 Y72.426 F1200.000 E6.01083
G1 X58.702 Y72.060 E6.04069
G1 X58.702 Y77.893 E6.31972
G1 F1080.000 E5.31972
G92 E0
G1 X67.298 Y77.893 F4500.000
G1 F1080.000 E1.00000
G1 X67.298 Y67.307 F1200.000 E1.50642
G1 F1080.000 E0.50642
G92 E0
G1 X64.783 Y50.946 F4500.000
G1 F1080.000 E1.00000
G1 X65.868 Y52.032 F1200.000 E1.07055
G1 X65.777 Y52.252 E1.08150
G1 X65.885 Y52.463 E1.09238
G1 X65.998 Y53.181 E1.12578
G1 X65.998 Y53.181 E1.12578
G1 X66.033 Y53.400 E1.13599
G1 X65.998 Y53.619 E1.14620
G1 X65.998 Y53.619 E1.14620
G1 X65.885 Y54.337 E1.17960
G1 X65.454 Y55.183 E1.22321
G1 X64.783 Y55.854 E1.26683
G1 X63.178 Y56.672 E1.34963
G1 X63.178 Y56.461 E1.35930
G1 X62.063 Y56.285 E1.41118
G1 X61.217 Y55.854 E1.45479
G1 X60.546 Y55.183 E1.49840
G1 X59.728 Y53.578 E1.58120
G1 X59.939 Y53.578 E1.59087
G1 X60.115 Y52.463 E1.64275
G1 X60.546 Y51.617 E1.68636
G1 X61.217 Y50.946 E1.72997
G1 X62.063 Y50.515 E1.77359
G1 X63.178 Y50.339 E1.82546
G1 X63.178 Y50.128 E1.83514
G1 X64.431 Y50.767 E1.89981
G1 X64.495 Y51.343 F4500.000
G1 X64.954 Y51.802 F1200.000 E1.92969
G1 X64.954 Y51.802 E1.92969
G1 X65.057 Y51.905 E1.93638
G1 X65.419 Y52.614 E1.97294
G1 X65.543 Y53.400 E2.00951
G1 X65.419 Y54.186 E2.04608
G1 X65.057 Y54.895 E2.08264
G1 X64.495 Y55.457 E2.11921
G1 X63.661 Y55.882 E2.16220
G1 X63.661 Y55.838 E2.16420
G1 X63.000 Y55.943 E2.19498
G1 X62.576 Y55.876 E2.21469
G1 X62.576 Y55.876 E2.21469
G1 X62.214 Y55.819 E2.23155
G1 X61.505 Y55.457 E2.26812
G1 X60.943 Y54.895 E2.30468
G1 X60.518 Y54.061 E2.34767
G1 X60.562 Y54.061 E2.34968
G1 X60.457 Y53.400 E2.38046
G1 X60.581 Y52.614 E2.41702
G1 X60.943 Y51.905 E2.45359
G1 X61.505 Y51.343 E2.49016
G1 X62.214 Y50.981 E2.52672
G1 X62.576 Y50.924 E2.54358
G1 X62.576 Y50.924 E2.54358
G1 X63.000 Y50.857 E2.56329
G1 X63.661 Y50.962 E2.59407
G1 X63.661 Y50.918 E2.59608
G1 X64.143 Y51.164 E2.62094
G1 X64.145 Y51.708 F4500.000
G1 X64.207 Y51.739 F1200.000 E2.62410
G1 X64.661 Y52.193 E2.65363
G1 X64.953 Y52.766 E2.68315
G1 X65.053 Y53.400 E2.71267
G1 X64.953 Y54.034 E2.74219
G1 X64.661 Y54.607 E2.77172
G1 X64.207 Y55.061 E2.80124
G1 X64.145 Y55.092 E2.80441
G1 X64.145 Y55.092 E2.80441
G1 X63.634 Y55.353 E2.83076
G1 X63.000 Y55.453 E2.86028
G1 X62.366 Y55.353 E2.88981
G1 X61.793 Y55.061 E2.91933
G1 X61.339 Y54.607 E2.94885
G1 X61.308 Y54.545 E2.95202
G1 X61.308 Y54.545 E2.95202
G1 X61.047 Y54.034 E2.97837
G1 X60.947 Y53.400 E3.00789
G1 X61.047 Y52.766 E3.03742
G1 X61.339 Y52.193 E3.06694
G1 X61.793 Y51.739 E3.09646
G1 X62.366 Y51.447 E3.12598
G1 X63.000 Y51.347 E3.15551
G1 X63.634 Y51.447 E3.18503
G1 X63.794 Y51.529 E3.19326
G1 F1080.000 E2.19326
G92 E0
G1 X71.382 Y58.782 F4500.000
G1 F1080.000 E1.00000
G1 X54.618 Y58.782 F1200.000 E1.77048
G1 X54.618 Y58.218 E1.79642
G1 X58.218 Y58.218 E1.96187
G1 X58.218 Y48.582 E2.40472
G1 X54.618 Y48.582 E2.57017
G1 X54.618 Y48.018 E2.59611
G1 X71.382 Y48.018 E3.36659
G1 X71.382 Y48.582 E3.39253
G1 X67.782 Y48.582 E3.55799
G1 X67.782 Y58.218 E4.00083
G1 X71.382 Y58.218 E4.16629
G1 X71.382 Y58.388 E4.17410
G1 X71.866 Y57.734 F4500.000
G1 X71.866 Y59.266 F1200.000 E4.24452
G1 X54.134 Y59.266 E5.05948
G1 X54.134 Y57.734 E5.12990
G1 X57.734 Y57.734 E5.29535
G1 X57.734 Y49.066 E5.69372
G1 X54.134 Y49.066 E5.85917
G1 X54.134 Y47.534 E5.92959
G1 X71.866 Y47.534 E6.74455
G1 X71.866 Y49.066 E6.81497
G1 X68.266 Y49.066 E6.98043
G1 X68.266 Y57.734 E7.37879
G1 X71.472 Y57.734 E7.52612
G1 X72.350 Y57.250 F4500.000
G1 X72.350 Y59.750 F1200.000 E7.64102
G1 X53.650 Y59.750 E8.50046
G1 X53.650 Y57.250 E8.61536
G1 X57.250 Y57.250 E8.78081
G1 X57.250 Y49.550 E9.13470
G1 X53.650 Y49.550 E9.30016
G1 X53.650 Y47.050 E9.41505
G1 X72.350 Y47.050 E10.27449
G1 X72.350 Y49.550 E10.38939
G1 X68.750 Y49.550 E10.55485
G1 X68.750 Y57.250 E10.90873
G1 X71.956 Y57.250 E11.05606
G1 F1080.000 E10.05606
G92 E0
G1 X67.298 Y58.693 F4500.000
G1 F1080.000 E1.00000
G1 X67.298 Y48.107 F1200.000 E1.50642
G1 X66.793 Y48.107 F4500.000
G1 X66.793 Y58.693 F1200.000 E2.01284
G1 X66.287 Y58.693 F4500.000
G1 X66.287 Y54.219 F1200.000 E2.22688
G1 X65.781 Y55.145 E2.27737
G1 X65.781 Y58.693 E2.44710
G1 X65.276 Y58.693 F4500.000
G1 X65.276 Y55.651 F1200.000 E2.59263
G1 X64.770 Y56.009 F4500.000
G1 X64.770 Y58.693 F1200.000 E2.72102
G1 X64.264 Y58.693 F4500.000
G1 X64.264 Y56.267 F1200.000 E2.83709
G1 X63.758 Y56.524 F4500.000
G1 X63.758 Y58.693 F1200.000 E2.94083
G1 X63.253 Y58.693 F4500.000
G1 X63.253 Y56.782 F1200.000 E3.03225
G1 X62.747 Y57.040 F4500.000
G1 X62.747 Y58.693 F1200.000 E3.11134
G1 X62.241 Y58.693 F4500.000
G1 X62.241 Y56.408 F1200.000 E3.22062
G1 X61.736 Y56.267 F4500.000
G1 X61.736 Y58.693 F1200.000 E3.33669
G1 X61.230 Y58.693 F4500.000
G1 X61.230 Y56.009 F1200.000 E3.46509
G1 X60.724 Y55.651 F4500.000
G1 X60.724 Y58.693 F1200.000 E3.61062
G1 X60.219 Y58.693 F4500.000
G1 X60.219 Y55.145 F1200.000 E3.78034
G1 F1080.000 E2.78034
G92 E0
G1 X58.702 Y53.488 F4500.000
G1 F1080.000 E1.00000
G1 X58.702 Y48.107 F1200.000 E1.25743
G1 X59.207 Y48.107 F4500.000
G1 X59.207 Y53.488 F1200.000 E1.51485
G1 X59.713 Y54.219 E1.55737
G1 X59.713 Y58.693 E1.77140
G1 X59.207 Y58.693 F4500.000
G1 X59.207 Y53.226 F1200.000 E2.03292
G1 X58.702 Y52.860 E2.06278
G1 X58.702 Y58.693 E2.34181
G1 F1080.000 E1.34181
G92 E0
G1 X60.724 Y51.149 F4500.000
G1 F1080.000 E1.00000
G1 X60.724 Y48.107 F1200.000 E1.14553
G1 X60.219 Y48.107 F4500.000
G1 X60.219 Y51.655 F1200.000 E1.31525
G1 X59.713 Y52.581 E1.36574
G1 X59.713 Y48.107 E1.57978
G1 X61.230 Y48.107 F4500.000
G1 X61.230 Y50.791 F1200.000 E1.70818
G1 X61.736 Y50.533 F4500.000
G1 X61.736 Y48.107 F1200.000 E1.82425
G1 X62.241 Y48.107 F4500.000
G1 X62.241 Y50.392 F1200.000 E1.93353
G1 X62.747 Y49.760 F4500.000
G1 X62.747 Y48.107 F1200.000 E2.01262
G1 X63.253 Y48.107 F4500.000
G1 X63.253 Y50.018 F1200.000 E2.10403
G1 X63.758 Y50.276 F4500.000
G1 X63.758 Y48.107 F1200.000 E2.20778
