; generated by Slic3r 0.9.3 on 2013-06-02 at 14:19:14

; layer_height = .25
; perimeters = 3
; solid_layers = 2
; fill_density = 0.3
; perimeter_speed = 30
; infill_speed = 60
; travel_speed = 75
; scale = 1
; nozzle_diameter = 0.35
; filament_diameter = 1.8
; extrusion_multiplier = 1
; single wall width = 0.39mm

M107
G92 E0	;reset extruder location
G1 E5	;Prime extruder
G28	;Go Home
;G1 E20	Prime extruder
G90 ; use absolute coordinates
G21 ; set units to millimeters
G92 E0
M82 ; use absolute distances for extrusion
G1 F1080.000 E-1.00000
G92 E0
G1 Z0.250 F4500.000
G1 X32.800 Y38.830
G1 F1080.000 E1.00000
G1 X33.410 Y38.290 F1200.000 E1.03080
G1 X34.080 Y37.780 E1.06264
G1 X34.720 Y37.400 E1.09078
G1 X35.370 Y37.070 E1.11834
G1 X35.870 Y36.850 E1.13899
G1 X36.420 Y36.650 E1.16112
G1 X36.750 Y36.550 E1.17416
G1 X37.870 Y36.320 E1.21739
G1 X38.760 Y36.230 E1.25121
G1 X39.100 Y36.220 E1.26407
G1 X39.560 Y36.220 E1.28146
G1 X40.560 Y36.310 E1.31942
G1 X60.590 Y39.560 E2.08663
G1 X60.830 Y39.620 E2.09599
G1 X61.070 Y39.700 E2.10555
G1 X61.310 Y39.800 E2.11538
G1 X94.220 Y57.520 E3.52857
G1 X94.570 Y57.760 E3.54461
G1 X95.040 Y58.200 E3.56896
G1 X95.180 Y58.360 E3.57699
G1 X95.310 Y58.530 E3.58509
G1 X95.540 Y58.890 E3.60124
G1 X95.640 Y59.080 E3.60936
G1 X95.730 Y59.280 E3.61765
G1 X95.870 Y59.680 E3.63367
G1 X95.960 Y60.100 E3.64991
G1 X96.010 Y60.530 E3.66628
G1 X96.010 Y65.450 E3.85230
G1 X95.960 Y65.880 E3.86866
G1 X95.870 Y66.300 E3.88490
G1 X95.730 Y66.700 E3.90093
G1 X95.640 Y66.900 E3.90922
G1 X95.540 Y67.090 E3.91734
G1 X95.310 Y67.450 E3.93349
G1 X95.180 Y67.620 E3.94158
G1 X95.040 Y67.780 E3.94962
G1 X94.570 Y68.220 E3.97396
G1 X94.220 Y68.460 E3.99001
G1 X61.310 Y86.180 E5.40319
G1 X61.070 Y86.280 E5.41302
G1 X60.840 Y86.360 E5.42223
G1 X60.340 Y86.470 E5.44159
G1 X40.230 Y89.720 E6.21178
G1 X39.560 Y89.770 E6.23719
G1 X38.760 Y89.760 E6.26743
G1 X37.870 Y89.670 E6.30126
G1 X36.860 Y89.460 E6.34026
G1 X36.190 Y89.260 E6.36670
G1 X35.870 Y89.140 E6.37962
G1 X35.100 Y88.790 E6.41160
G1 X34.420 Y88.420 E6.44087
G1 X34.080 Y88.210 E6.45597
G1 X33.800 Y88.010 E6.46898
G1 X32.970 Y87.320 E6.50979
G1 X32.400 Y86.750 E6.54027
G1 X31.810 Y86.040 E6.57517
G1 X31.210 Y85.130 E6.61639
G1 X30.900 Y84.560 E6.64092
G1 X30.470 Y83.520 E6.68347
G1 X30.160 Y82.390 E6.72777
G1 X30.050 Y81.730 E6.75307
G1 X29.980 Y80.950 E6.78268
G1 X29.980 Y45.040 E8.14038
G1 X30.050 Y44.260 E8.16999
G1 X30.160 Y43.600 E8.19529
G1 X30.360 Y42.810 E8.22610
G1 X30.590 Y42.150 E8.25253
G1 X30.900 Y41.430 E8.28217
G1 X31.210 Y40.860 E8.30670
G1 X31.630 Y40.200 E8.33628
G1 X32.170 Y39.500 E8.36970
G1 X32.522 Y39.110 E8.38957
G1 X32.830 Y39.340 F4500.000
G1 X33.480 Y38.730 F1200.000 E8.42328
G1 X34.310 Y38.100 E8.46267
G1 X35.280 Y37.540 E8.50502
G1 X35.840 Y37.280 E8.52836
G1 X36.870 Y36.930 E8.56949
G1 X37.170 Y36.850 E8.58123
G1 X37.940 Y36.700 E8.61089
G1 X38.570 Y36.630 E8.63486
G1 X39.110 Y36.610 E8.65529
G1 X39.860 Y36.620 E8.68365
G1 X40.490 Y36.690 E8.70761
G1 X60.280 Y39.890 E9.46557
G1 X60.720 Y40.000 E9.48271
G1 X60.940 Y40.070 E9.49144
G1 X61.140 Y40.150 E9.49959
G1 X94.020 Y57.860 E10.91160
G1 X94.190 Y57.970 E10.91925
G1 X94.510 Y58.220 E10.93461
G1 X94.660 Y58.360 E10.94236
G1 X94.920 Y58.670 E10.95766
G1 X95.040 Y58.830 E10.96522
G1 X95.150 Y59.000 E10.97288
G1 X95.340 Y59.360 E10.98827
G1 X95.480 Y59.740 E11.00358
G1 X95.580 Y60.130 E11.01880
G1 X95.610 Y60.340 E11.02682
G1 X95.630 Y65.240 E11.21209
G1 X95.610 Y65.640 E11.22723
G1 X95.580 Y65.850 E11.23525
G1 X95.480 Y66.240 E11.25047
G1 X95.340 Y66.620 E11.26578
G1 X95.150 Y66.980 E11.28117
G1 X95.040 Y67.150 E11.28883
G1 X94.660 Y67.620 E11.31168
G1 X94.510 Y67.760 E11.31944
G1 X94.190 Y68.010 E11.33479
G1 X93.850 Y68.220 E11.34990
G1 X61.140 Y85.820 E12.75428
G1 X60.940 Y85.910 E12.76257
G1 X60.500 Y86.040 E12.77992
G1 X60.280 Y86.090 E12.78845
G1 X40.200 Y89.340 E13.55752
G1 X39.860 Y89.370 E13.57043
G1 X39.560 Y89.380 E13.58178
G1 X38.570 Y89.360 E13.61922
G1 X37.940 Y89.290 E13.64318
G1 X37.070 Y89.110 E13.67677
G1 X36.630 Y88.990 E13.69402
G1 X35.840 Y88.710 E13.72571
G1 X35.280 Y88.450 E13.74905
G1 X34.610 Y88.080 E13.77799
G1 X34.310 Y87.890 E13.79141
G1 X33.480 Y87.260 E13.83081
G1 X32.830 Y86.650 E13.86451
G1 X32.320 Y86.070 E13.89371
G1 X31.950 Y85.580 E13.91693
G1 X31.760 Y85.290 E13.93004
G1 X31.250 Y84.380 E13.96948
G1 X31.120 Y84.110 E13.98081
G1 X30.990 Y83.790 E13.99387
G1 X30.740 Y83.080 E14.02233
G1 X30.540 Y82.300 E14.05277
G1 X30.410 Y81.480 E14.08416
G1 X30.360 Y80.590 E14.11786
G1 X30.380 Y44.850 E15.46915
G1 X30.410 Y44.510 E15.48205
G1 X30.540 Y43.690 E15.51344
G1 X30.740 Y42.910 E15.54389
G1 X31.120 Y41.880 E15.58539
G1 X31.540 Y41.060 E15.62023
G1 X31.950 Y40.410 E15.64928
G1 X32.460 Y39.750 E15.68082
G1 X32.565 Y39.632 E15.68679
G1 F1080.000 E14.68679
G92 E0
G1 X36.626 Y60.707 F4500.000
G1 F1080.000 E1.00000
G1 X36.842 Y60.481 F1200.000 E1.01437
G1 X37.077 Y60.276 E1.02874
G1 X37.330 Y60.092 E1.04311
G1 X37.599 Y59.931 E1.05748
G1 X37.881 Y59.796 E1.07185
G1 X38.173 Y59.686 E1.08622
G1 X38.475 Y59.603 E1.10059
G1 X38.782 Y59.547 E1.11496
G1 X39.094 Y59.519 E1.12933
G1 X39.406 Y59.519 E1.14370
G1 X39.718 Y59.547 E1.15808
G1 X40.026 Y59.603 E1.17245
G1 X40.285 Y59.674 E1.18483
G1 X40.285 Y59.674 E1.18483
G1 X40.327 Y59.686 E1.18682
G1 X40.457 Y59.735 E1.19319
G1 X40.516 Y59.701 E1.19631
G1 X40.901 Y59.931 E1.21694
G1 X40.902 Y59.932 E1.21696
G1 X41.170 Y60.092 E1.23132
G1 X41.388 Y60.250 E1.24370
G1 X41.388 Y60.250 E1.24370
G1 X41.423 Y60.276 E1.24569
G1 X41.658 Y60.481 E1.26006
G1 X41.874 Y60.707 E1.27443
G1 X42.069 Y60.952 E1.28880
G1 X42.242 Y61.213 E1.30317
G1 X42.390 Y61.488 E1.31754
G1 X42.513 Y61.776 E1.33191
G1 X42.609 Y62.073 E1.34629
G1 X42.679 Y62.377 E1.36064
G1 X42.721 Y62.688 E1.37502
G1 X42.742 Y63.157 E1.39660
G1 X42.721 Y63.313 E1.40385
G1 X42.721 Y63.313 E1.40385
G1 X42.679 Y63.622 E1.41819
G1 X42.609 Y63.927 E1.43256
G1 X42.526 Y64.183 E1.44495
G1 X42.526 Y64.183 E1.44495
G1 X42.513 Y64.224 E1.44694
G1 X42.390 Y64.512 E1.46131
G1 X42.241 Y64.787 E1.47568
G1 X42.069 Y65.048 E1.49005
G1 X41.874 Y65.293 E1.50442
G1 X41.658 Y65.519 E1.51879
G1 X41.447 Y65.703 E1.53168
G1 X41.472 Y65.728 E1.53328
G1 X40.901 Y66.069 E1.56381
G1 X40.620 Y66.204 E1.57818
G1 X40.327 Y66.314 E1.59255
G1 X40.026 Y66.397 E1.60692
G1 X39.718 Y66.453 E1.62129
G1 X39.406 Y66.481 E1.63566
G1 X39.094 Y66.481 E1.65003
G1 X38.782 Y66.453 E1.66440
G1 X38.332 Y66.371 E1.68545
G1 X38.332 Y66.422 E1.68776
G1 X37.599 Y66.069 E1.72515
G1 X37.330 Y65.908 E1.73951
G1 X37.077 Y65.724 E1.75388
G1 X36.842 Y65.519 E1.76826
G1 X36.626 Y65.293 E1.78263
G1 X36.431 Y65.048 E1.79700
G1 X36.258 Y64.787 E1.81139
G1 X36.258 Y64.787 E1.81139
G1 X35.876 Y64.208 E1.84326
G1 X35.912 Y64.142 E1.84669
G1 X35.549 Y63.468 E1.88187
G1 X35.787 Y63.468 E1.89279
G1 X35.765 Y63.000 E1.91433
G1 X35.779 Y62.707 E1.92783
G1 X35.746 Y62.707 E1.92931
G1 X35.832 Y62.333 E1.94695
G1 X35.656 Y62.333 E1.95502
G1 X36.110 Y61.488 E1.99907
G1 X36.111 Y61.488 E1.99909
G1 X36.259 Y61.213 E2.01346
G1 X36.386 Y61.020 E2.02407
G1 X36.811 Y61.254 F4500.000
G1 X36.823 Y61.236 F1200.000 E2.02506
G1 X36.991 Y61.026 E2.03744
G1 X37.177 Y60.831 E2.04981
G1 X37.379 Y60.654 E2.06218
G1 X37.597 Y60.496 E2.07456
G1 X37.828 Y60.358 E2.08693
G1 X38.071 Y60.241 E2.09930
G1 X38.323 Y60.147 E2.11167
G1 X38.583 Y60.075 E2.12405
G1 X38.847 Y60.027 E2.13641
G1 X39.116 Y60.003 E2.14879
G1 X39.385 Y60.003 E2.16117
G1 X39.653 Y60.027 E2.17354
G1 X39.918 Y60.075 E2.18591
G1 X40.177 Y60.147 E2.19828
G1 X40.499 Y60.267 E2.21406
G1 X40.510 Y60.261 E2.21463
G1 X40.671 Y60.358 E2.22330
G1 X40.672 Y60.358 E2.22332
G1 X40.903 Y60.496 E2.23570
G1 X41.121 Y60.654 E2.24807
G1 X41.323 Y60.831 E2.26044
G1 X41.510 Y61.026 E2.27282
G1 X41.677 Y61.237 E2.28519
G1 X41.826 Y61.461 E2.29756
G1 X41.953 Y61.698 E2.30993
G1 X42.059 Y61.946 E2.32231
G1 X42.142 Y62.202 E2.33468
G1 X42.202 Y62.464 E2.34705
G1 X42.238 Y62.731 E2.35942
G1 X42.256 Y63.135 E2.37800
G1 X42.238 Y63.269 E2.38423
G1 X42.238 Y63.269 E2.38423
G1 X42.202 Y63.536 E2.39659
G1 X42.142 Y63.798 E2.40897
G1 X42.059 Y64.054 E2.42134
G1 X41.953 Y64.302 E2.43371
G1 X41.826 Y64.539 E2.44609
G1 X41.677 Y64.764 E2.45846
G1 X41.510 Y64.974 E2.47083
G1 X41.323 Y65.169 E2.48320
G1 X41.121 Y65.346 E2.49558
G1 X40.903 Y65.504 E2.50795
G1 X40.690 Y65.631 E2.51933
G1 X40.690 Y65.631 E2.51933
G1 X40.672 Y65.642 E2.52032
G1 X40.429 Y65.759 E2.53269
G1 X40.177 Y65.853 E2.54507
G1 X39.918 Y65.925 E2.55744
G1 X39.653 Y65.973 E2.56981
G1 X39.385 Y65.997 E2.58219
G1 X39.116 Y65.997 E2.59456
G1 X38.847 Y65.973 E2.60693
G1 X38.582 Y65.925 E2.61931
G1 X38.323 Y65.853 E2.63168
G1 X38.071 Y65.759 E2.64405
G1 X37.848 Y65.651 E2.65543
G1 X37.848 Y65.651 E2.65543
G1 X37.828 Y65.642 E2.65642
G1 X37.597 Y65.504 E2.66880
G1 X37.379 Y65.346 E2.68117
G1 X37.177 Y65.169 E2.69354
G1 X36.991 Y64.974 E2.70591
G1 X36.823 Y64.763 E2.71829
G1 X36.674 Y64.538 E2.73068
G1 X36.674 Y64.538 E2.73068
G1 X36.440 Y64.183 E2.75027
G1 X36.461 Y64.142 E2.75237
G1 X36.359 Y63.952 E2.76230
G1 X36.393 Y63.952 E2.76387
G1 X36.298 Y63.536 E2.78350
G1 X36.262 Y63.269 E2.79587
G1 X36.250 Y63.000 E2.80825
G1 X36.250 Y62.991 E2.80865
G1 X36.250 Y62.991 E2.80865
G1 X36.262 Y62.731 E2.82063
G1 X36.298 Y62.464 E2.83300
G1 X36.353 Y62.223 E2.84438
G1 X36.353 Y62.223 E2.84438
G1 X36.358 Y62.202 E2.84537
G1 X36.473 Y61.849 E2.86244
G1 X36.466 Y61.849 E2.86275
G1 X36.547 Y61.698 E2.87059
G1 X36.547 Y61.698 E2.87060
G1 X36.605 Y61.590 E2.87622
G1 F1080.000 E1.87622
G92 E0
G1 X38.816 Y66.942 F4500.000
G1 F1080.000 E1.00000
G1 X39.072 Y66.965 F1200.000 E1.01184
G1 X39.428 Y66.965 E1.02820
G1 X39.783 Y66.933 E1.04457
G1 X40.133 Y66.870 E1.06094
G1 X40.477 Y66.775 E1.07730
G1 X40.810 Y66.650 E1.09368
G1 X41.131 Y66.495 E1.11004
G1 X42.377 Y65.751 E1.17677
G1 X42.614 Y66.078 E1.19535
G1 X42.109 Y66.516 E1.22605
G1 X41.884 Y66.688 E1.23909
G1 X41.648 Y66.845 E1.25212
G1 X41.403 Y66.988 E1.26516
G1 X41.149 Y67.115 E1.27819
G1 X40.888 Y67.225 E1.29123
G1 X40.620 Y67.319 E1.30426
G1 X40.348 Y67.397 E1.31730
G1 X40.070 Y67.457 E1.33033
G1 X39.790 Y67.499 E1.34337
G1 X39.507 Y67.524 E1.35640
G1 X39.224 Y67.532 E1.36944
G1 X38.816 Y67.516 E1.38822
G1 X38.816 Y67.336 E1.39649
G1 X38.672 Y67.122 F4500.000
G1 X38.545 Y67.485 F1200.000 E1.41415
G1 X38.102 Y67.384 E1.43503
G1 X37.830 Y67.303 E1.44806
G1 X37.563 Y67.206 E1.46110
G1 X37.304 Y67.092 E1.47413
G1 X37.051 Y66.962 E1.48717
G1 X36.808 Y66.817 E1.50021
G1 X36.574 Y66.657 E1.51324
G1 X36.350 Y66.482 E1.52628
G1 X36.138 Y66.294 E1.53931
G1 X35.938 Y66.093 E1.55235
G1 X35.751 Y65.880 E1.56538
G1 X35.578 Y65.655 E1.57842
G1 X35.419 Y65.420 E1.59145
G1 X35.275 Y65.176 E1.60449
G1 X35.147 Y64.923 E1.61753
G1 X34.884 Y64.314 E1.64802
G1 X35.240 Y64.122 E1.66658
G1 X35.841 Y65.033 E1.71679
G1 X35.841 Y65.033 E1.71679
G1 X36.039 Y65.333 E1.73328
G1 X36.261 Y65.611 E1.74966
G1 X36.507 Y65.869 E1.76602
G1 X36.775 Y66.103 E1.78239
G1 X37.064 Y66.312 E1.79876
G1 X37.369 Y66.495 E1.81513
G1 X38.316 Y66.951 E1.86343
G1 F1080.000 E0.86343
G92 E0
G1 X42.150 Y65.722 F4500.000
G1 F1080.000 E1.00000
G1 X42.461 Y65.333 F1200.000 E1.02290
G1 X42.657 Y65.036 E1.03926
G1 X42.826 Y64.722 E1.05563
G1 X42.966 Y64.395 E1.07200
G1 X43.192 Y63.699 E1.10560
G1 X43.157 Y63.699 E1.10723
G1 X43.203 Y63.356 E1.12314
G1 X43.203 Y63.356 E1.12315
G1 X43.227 Y63.178 E1.13139
G1 X43.203 Y62.644 E1.15597
G1 X43.155 Y62.291 E1.17235
G1 X43.076 Y61.944 E1.18870
G1 X42.966 Y61.605 E1.20507
G1 X42.826 Y61.278 E1.22144
G1 X42.657 Y60.964 E1.23780
G1 X42.461 Y60.667 E1.25417
G1 X42.239 Y60.389 E1.27054
G1 X41.993 Y60.131 E1.28691
G1 X41.872 Y60.025 E1.29431
G1 X41.872 Y60.004 E1.29531
G1 X41.437 Y59.688 E1.32002
G1 X41.132 Y59.505 E1.33634
G1 X41.131 Y59.505 E1.33636
G1 X40.822 Y59.321 E1.35290
G1 X40.822 Y59.321 E1.35290
G1 X40.198 Y58.947 E1.38636
G1 X40.365 Y58.591 E1.40447
G1 X40.888 Y58.775 E1.42996
G1 X41.149 Y58.885 E1.44299
G1 X41.403 Y59.012 E1.45603
G1 X41.648 Y59.155 E1.46907
G1 X41.884 Y59.312 E1.48210
G1 X42.109 Y59.484 E1.49514
G1 X42.324 Y59.670 E1.50817
G1 X42.526 Y59.869 E1.52121
G1 X42.715 Y60.080 E1.53424
G1 X42.891 Y60.303 E1.54728
G1 X43.053 Y60.536 E1.56031
G1 X43.200 Y60.778 E1.57335
G1 X43.690 Y61.718 E1.62206
G1 X58.782 Y61.718 E2.31568
G1 X58.782 Y64.282 E2.43353
G1 X43.690 Y64.282 E3.12716
G1 X43.200 Y65.222 E3.17586
G1 X43.053 Y65.464 E3.18890
G1 X42.891 Y65.698 E3.20193
G1 X42.553 Y66.125 E3.22699
G1 X42.429 Y66.001 E3.23505
G1 F1080.000 E2.23505
G92 E0
G1 X40.408 Y59.206 F4500.000
G1 F1080.000 E1.00000
G1 X40.133 Y59.130 F1200.000 E1.01307
G1 X40.069 Y59.119 E1.01606
G1 X40.069 Y59.119 E1.01606
G1 X39.783 Y59.067 E1.02944
G1 X39.428 Y59.035 E1.04581
G1 X39.072 Y59.035 E1.06218
G1 X38.717 Y59.067 E1.07855
G1 X38.367 Y59.130 E1.09491
G1 X38.024 Y59.225 E1.11128
G1 X37.690 Y59.350 E1.12765
G1 X37.369 Y59.505 E1.14402
G1 X37.064 Y59.688 E1.16038
G1 X36.775 Y59.897 E1.17675
G1 X36.507 Y60.131 E1.19312
G1 X36.261 Y60.389 E1.20949
G1 X36.039 Y60.667 E1.22586
G1 X35.843 Y60.964 E1.24223
G1 X35.674 Y61.279 E1.25864
G1 X35.674 Y61.279 E1.25865
G1 X35.159 Y62.235 E1.30856
G1 X34.799 Y62.088 E1.32645
G1 X34.939 Y61.605 E1.34959
G1 X35.034 Y61.338 E1.36263
G1 X35.147 Y61.077 E1.37566
G1 X35.275 Y60.824 E1.38870
G1 X35.419 Y60.580 E1.40173
G1 X35.578 Y60.345 E1.41477
G1 X35.751 Y60.120 E1.42780
G1 X35.938 Y59.907 E1.44084
G1 X36.138 Y59.706 E1.45388
G1 X36.350 Y59.518 E1.46691
G1 X36.574 Y59.343 E1.47995
G1 X36.808 Y59.183 E1.49298
G1 X37.051 Y59.038 E1.50602
G1 X37.304 Y58.908 E1.51905
G1 X37.563 Y58.794 E1.53209
G1 X37.830 Y58.697 E1.54512
G1 X38.102 Y58.616 E1.55816
G1 X38.378 Y58.553 E1.57119
G1 X38.658 Y58.507 E1.58422
G1 X38.940 Y58.479 E1.59726
G1 X39.224 Y58.468 E1.61030
G1 X39.507 Y58.476 E1.62334
G1 X39.790 Y58.501 E1.63637
G1 X40.070 Y58.543 E1.64941
G1 X40.348 Y58.603 E1.66244
G1 X40.850 Y58.745 E1.68642
G1 X40.873 Y58.942 E1.69551
G1 X40.751 Y59.012 E1.70200
G1 X41.063 Y58.323 F4500.000
G1 X41.352 Y58.446 F1200.000 E1.71643
G1 X41.633 Y58.586 E1.73085
G1 X41.904 Y58.744 E1.74528
G1 X42.165 Y58.918 E1.75971
G1 X42.415 Y59.109 E1.77414
G1 X42.652 Y59.314 E1.78857
G1 X42.876 Y59.534 E1.80300
G1 X43.086 Y59.768 E1.81742
G1 X43.280 Y60.014 E1.83185
G1 X43.459 Y60.272 E1.84628
G1 X43.622 Y60.541 E1.86071
G1 X43.983 Y61.234 E1.89663
G1 X59.266 Y61.234 E2.59902
G1 X59.266 Y64.766 E2.76135
G1 X43.983 Y64.766 E3.46374
G1 X43.622 Y65.459 E3.49966
G1 X43.459 Y65.728 E3.51409
G1 X43.280 Y65.986 E3.52852
G1 X43.086 Y66.232 E3.54295
G1 X42.876 Y66.466 E3.55738
G1 X42.652 Y66.686 E3.57180
G1 X42.415 Y66.891 E3.58623
G1 X42.165 Y67.082 E3.60066
G1 X41.904 Y67.256 E3.61509
G1 X41.633 Y67.414 E3.62952
G1 X41.352 Y67.554 E3.64394
G1 X41.063 Y67.677 E3.65837
G1 X40.767 Y67.781 E3.67280
G1 X40.465 Y67.866 E3.68723
G1 X40.158 Y67.933 E3.70166
G1 X39.848 Y67.980 E3.71609
G1 X39.535 Y68.008 E3.73051
G1 X39.221 Y68.016 E3.74494
G1 X38.907 Y68.004 E3.75937
G1 X38.595 Y67.973 E3.77380
G1 X38.285 Y67.922 E3.78823
G1 X37.979 Y67.852 E3.80265
G1 X37.678 Y67.763 E3.81708
G1 X37.383 Y67.655 E3.83151
G1 X37.096 Y67.529 E3.84594
G1 X36.816 Y67.386 E3.86037
G1 X36.547 Y67.225 E3.87479
G1 X36.288 Y67.048 E3.88922
G1 X36.040 Y66.854 E3.90365
G1 X35.806 Y66.646 E3.91808
G1 X35.584 Y66.423 E3.93251
G1 X35.377 Y66.187 E3.94693
G1 X35.185 Y65.939 E3.96136
G1 X35.010 Y65.679 E3.97579
G1 X34.850 Y65.408 E3.99022
G1 X34.708 Y65.128 E4.00465
G1 X34.584 Y64.840 E4.01908
G1 X34.478 Y64.544 E4.03351
G1 X34.391 Y64.243 E4.04793
G1 X34.323 Y63.936 E4.06236
G1 X34.274 Y63.626 E4.07679
G1 X34.244 Y63.314 E4.09122
G1 X34.234 Y63.000 E4.10565
G1 X34.244 Y62.686 E4.12007
G1 X34.274 Y62.374 E4.13450
G1 X34.323 Y62.064 E4.14893
G1 X34.391 Y61.757 E4.16336
G1 X34.478 Y61.456 E4.17779
G1 X34.584 Y61.160 E4.19221
G1 X34.708 Y60.872 E4.20664
G1 X34.850 Y60.592 E4.22107
G1 X35.010 Y60.321 E4.23550
G1 X35.185 Y60.061 E4.24993
G1 X35.377 Y59.813 E4.26436
G1 X35.584 Y59.577 E4.27878
G1 X35.806 Y59.354 E4.29321
G1 X36.040 Y59.146 E4.30764
G1 X36.288 Y58.952 E4.32207
