; generated by Slic3r 0.9.10b on 2013-06-30 at 17:30:44

; layer_height = .25
; perimeters = 3
; top_solid_layers = 2
; bottom_solid_layers = 2
; fill_density = 0.3
; perimeter_speed = 20
; infill_speed = 60
; travel_speed = 75
; nozzle_diameter = 0.35
; filament_diameter = 1.8
; extrusion_multiplier = 1
; perimeters extrusion width = 0.39mm
; infill extrusion width = 0.39mm
; solid infill extrusion width = 0.39mm
; top infill extrusion width = 0.39mm

G21 ; set units to millimeters
M107
G92 E0	;reset extruder location
G1 E5	;Prime extruder
G28	;Go Home
;G1 E20	Prime extruder
G90 ; use absolute coordinates
G92 E0
M82 ; use absolute distances for extrusion
G1 F1080.000 E-1.00000
G92 E0
G1 Z0.250 F4500.000
G1 X44.984 Y14.642
G1 F1080.000 E1.00000
G1 X45.544 Y13.662 F600.000 E1.04268
G1 X46.374 Y12.892 E1.08548
G1 X47.384 Y12.402 E1.12792
G1 X48.504 Y12.232 E1.17076
G1 X77.494 Y12.232 E2.26683
G1 X78.614 Y12.402 E2.30966
G1 X79.624 Y12.892 E2.35210
G1 X80.454 Y13.662 E2.39491
G1 X81.014 Y14.642 E2.43758
G1 X81.254 Y15.742 E2.48015
G1 X83.754 Y52.562 E3.87547
G1 X83.764 Y103.142 E5.78783
G1 X83.744 Y103.692 E5.80864
G1 X83.644 Y104.572 E5.84213
G1 X83.484 Y105.382 E5.87334
G1 X83.424 Y105.662 E5.88417
G1 X83.174 Y106.482 E5.91658
G1 X82.874 Y107.252 E5.94783
G1 X82.534 Y107.972 E5.97793
G1 X82.094 Y108.762 E6.01212
G1 X81.614 Y109.452 E6.04390
G1 X81.044 Y110.142 E6.07774
G1 X80.534 Y110.672 E6.10555
G1 X79.874 Y111.282 E6.13953
G1 X79.164 Y111.822 E6.17325
G1 X78.524 Y112.232 E6.20199
G1 X77.754 Y112.652 E6.23515
G1 X76.964 Y113.002 E6.26782
G1 X76.184 Y113.282 E6.29915
G1 X75.654 Y113.432 E6.31998
G1 X74.494 Y113.662 E6.36469
G1 X73.674 Y113.742 E6.39584
G1 X73.134 Y113.762 E6.41627
G1 X52.854 Y113.762 E7.18303
G1 X52.024 Y113.722 E7.21445
G1 X51.484 Y113.662 E7.23499
G1 X50.614 Y113.492 E7.26851
G1 X49.804 Y113.282 E7.30014
G1 X49.024 Y113.002 E7.33148
G1 X47.964 Y112.522 E7.37547
G1 X47.484 Y112.252 E7.39629
G1 X46.794 Y111.802 E7.42744
G1 X46.114 Y111.282 E7.45980
G1 X45.894 Y111.082 E7.47105
G1 X45.274 Y110.502 E7.50315
G1 X44.714 Y109.882 E7.53473
G1 X44.204 Y109.222 E7.56627
G1 X43.894 Y108.762 E7.58724
G1 X43.454 Y107.972 E7.62143
G1 X43.114 Y107.252 E7.65154
G1 X42.714 Y106.192 E7.69437
G1 X42.564 Y105.662 E7.71520
G1 X42.344 Y104.572 E7.75724
G1 X42.274 Y104.022 E7.77820
G1 X42.244 Y103.612 E7.79375
G1 X42.234 Y103.062 E7.81454
G1 X42.244 Y52.382 E9.73069
G1 X44.744 Y15.742 E11.11922
G1 X44.972 Y14.698 E11.15960
G1 X45.344 Y14.782 F4500.000
G1 X45.854 Y13.902 F600.000 E11.19806
G1 X46.594 Y13.212 E11.23631
G1 X47.504 Y12.772 E11.27453
G1 X48.504 Y12.622 E11.31276
G1 X77.494 Y12.622 E12.40883
G1 X78.494 Y12.772 E12.44706
G1 X79.404 Y13.212 E12.48528
G1 X80.154 Y13.902 E12.52381
G1 X80.654 Y14.782 E12.56208
G1 X80.874 Y15.772 E12.60042
G1 X83.364 Y52.442 E13.99006
G1 X83.374 Y103.122 E15.90620
G1 X83.354 Y103.672 E15.92701
G1 X83.334 Y103.992 E15.93913
G1 X83.224 Y104.772 E15.96891
G1 X83.054 Y105.552 E15.99910
G1 X82.814 Y106.342 E16.03031
G1 X82.534 Y107.082 E16.06023
G1 X82.204 Y107.782 E16.08949
G1 X81.774 Y108.542 E16.12250
G1 X81.314 Y109.212 E16.15323
G1 X80.974 Y109.642 E16.17395
G1 X80.264 Y110.392 E16.21300
G1 X79.634 Y110.982 E16.24564
G1 X78.954 Y111.502 E16.27800
G1 X78.334 Y111.902 E16.30590
G1 X77.584 Y112.312 E16.33821
G1 X76.834 Y112.642 E16.36919
G1 X76.074 Y112.912 E16.39969
G1 X75.304 Y113.122 E16.42986
G1 X74.764 Y113.232 E16.45070
G1 X73.904 Y113.332 E16.48344
G1 X73.124 Y113.372 E16.51296
G1 X52.874 Y113.372 E17.27859
G1 X52.324 Y113.352 E17.29940
G1 X51.534 Y113.272 E17.32942
G1 X51.224 Y113.232 E17.34124
G1 X50.684 Y113.122 E17.36207
G1 X49.674 Y112.832 E17.40180
G1 X48.904 Y112.542 E17.43291
G1 X48.404 Y112.312 E17.45372
G1 X47.454 Y111.782 E17.49485
G1 X47.004 Y111.482 E17.51530
G1 X46.354 Y110.982 E17.54630
G1 X46.154 Y110.802 E17.55648
G1 X45.564 Y110.242 E17.58723
G1 X45.014 Y109.642 E17.61801
G1 X44.674 Y109.212 E17.63873
G1 X44.214 Y108.542 E17.66946
G1 X43.784 Y107.782 E17.70247
G1 X43.454 Y107.082 E17.73173
G1 X43.084 Y106.082 E17.77205
G1 X42.874 Y105.312 E17.80222
G1 X42.724 Y104.522 E17.83263
G1 X42.654 Y103.972 E17.85359
G1 X42.624 Y103.052 E17.88839
G1 X42.634 Y52.222 E19.81020
G1 X45.124 Y15.772 E21.19154
G1 X45.331 Y14.838 E21.22770
G1 F1080.000 E20.22770
G92 E0
G1 X52.690 Y99.050 F4500.000
G1 F1080.000 E1.00000
G1 X53.004 Y99.037 F600.000 E1.01187
G1 X53.316 Y99.050 E1.02367
G1 X53.929 Y99.148 E1.04714
G1 X54.225 Y99.231 E1.05876
G1 X54.519 Y99.338 E1.07060
G1 X55.076 Y99.622 E1.09424
G1 X55.578 Y99.988 E1.11772
G1 X56.016 Y100.426 E1.14115
G1 X56.382 Y100.927 E1.16462
G1 X56.534 Y101.201 E1.17644
G1 X56.666 Y101.484 E1.18827
G1 X56.856 Y102.075 E1.21173
G1 X56.954 Y102.688 E1.23520
G1 X56.967 Y103.000 E1.24700
G1 X56.954 Y103.314 E1.25887
G1 X56.917 Y103.622 E1.27060
G1 X56.773 Y104.223 E1.29398
G1 X56.666 Y104.517 E1.30580
G1 X56.384 Y105.071 E1.32930
G1 X56.016 Y105.573 E1.35285
G1 X55.578 Y106.014 E1.37634
G1 X55.077 Y106.378 E1.39976
G1 X54.803 Y106.532 E1.41163
G1 X54.228 Y106.770 E1.43515
G1 X53.929 Y106.854 E1.44690
G1 X53.312 Y106.952 E1.47053
G1 X52.694 Y106.952 E1.49387
G1 X52.382 Y106.915 E1.50576
G1 X51.777 Y106.769 E1.52928
G1 X51.205 Y106.532 E1.55271
G1 X50.674 Y106.207 E1.57625
G1 X50.430 Y106.014 E1.58800
G1 X50.201 Y105.803 E1.59978
G1 X49.797 Y105.330 E1.62331
G1 X49.472 Y104.799 E1.64684
G1 X49.235 Y104.227 E1.67027
G1 X49.089 Y103.622 E1.69379
G1 X49.052 Y103.310 E1.70568
G1 X49.052 Y102.692 E1.72902
G1 X49.150 Y102.075 E1.75265
G1 X49.235 Y101.776 E1.76441
G1 X49.472 Y101.201 E1.78792
G1 X49.626 Y100.927 E1.79979
G1 X49.990 Y100.426 E1.82322
G1 X50.203 Y100.197 E1.83504
G1 X50.671 Y99.797 E1.85833
G1 X50.933 Y99.621 E1.87027
G1 X51.205 Y99.470 E1.88201
G1 X51.487 Y99.338 E1.89378
G1 X51.781 Y99.231 E1.90562
G1 X52.079 Y99.148 E1.91732
G1 X52.633 Y99.057 E1.93854
G1 X52.690 Y99.438 F4500.000
G1 X53.004 Y99.422 F600.000 E1.95044
G1 X53.285 Y99.434 E1.96106
G1 X53.839 Y99.522 E1.98228
G1 X54.107 Y99.598 E1.99280
G1 X54.372 Y99.694 E2.00348
G1 X54.875 Y99.950 E2.02479
G1 X55.327 Y100.281 E2.04600
G1 X55.723 Y100.677 E2.06715
G1 X56.054 Y101.129 E2.08836
G1 X56.191 Y101.376 E2.09901
G1 X56.310 Y101.631 E2.10968
G1 X56.482 Y102.165 E2.13087
G1 X56.570 Y102.719 E2.15209
G1 X56.570 Y103.283 E2.17339
G1 X56.536 Y103.561 E2.18399
G1 X56.406 Y104.105 E2.20514
G1 X56.310 Y104.369 E2.21577
G1 X56.055 Y104.870 E2.23700
G1 X55.723 Y105.323 E2.25825
G1 X55.327 Y105.721 E2.27947
G1 X54.875 Y106.050 E2.30062
G1 X54.628 Y106.189 E2.31132
G1 X54.109 Y106.403 E2.33257
G1 X53.839 Y106.480 E2.34317
G1 X53.282 Y106.568 E2.36449
G1 X52.724 Y106.568 E2.38560
G1 X52.443 Y106.534 E2.39630
G1 X51.897 Y106.403 E2.41753
G1 X51.380 Y106.189 E2.43870
G1 X50.900 Y105.895 E2.45994
G1 X50.681 Y105.721 E2.47055
G1 X50.473 Y105.531 E2.48119
G1 X50.108 Y105.104 E2.50243
G1 X49.815 Y104.624 E2.52368
G1 X49.601 Y104.107 E2.54484
G1 X49.470 Y103.561 E2.56608
G1 X49.436 Y103.280 E2.57677
G1 X49.436 Y102.722 E2.59788
G1 X49.524 Y102.165 E2.61920
G1 X49.601 Y101.895 E2.62981
G1 X49.815 Y101.376 E2.65105
G1 X49.954 Y101.129 E2.66175
G1 X50.283 Y100.676 E2.68290
G1 X50.475 Y100.470 E2.69355
G1 X50.899 Y100.108 E2.71465
G1 X51.380 Y99.813 E2.73597
G1 X51.899 Y99.598 E2.75722
G1 X52.169 Y99.522 E2.76783
G1 X52.632 Y99.445 E2.78558
G1 X52.735 Y99.820 F4500.000
G1 X53.254 Y99.818 F600.000 E2.80518
G1 X53.749 Y99.897 E2.82414
G1 X53.989 Y99.965 E2.83357
G1 X54.225 Y100.050 E2.84308
G1 X54.673 Y100.278 E2.86206
G1 X55.077 Y100.574 E2.88100
G1 X55.430 Y100.927 E2.89989
G1 X55.726 Y101.331 E2.91882
G1 X55.848 Y101.551 E2.92831
G1 X55.954 Y101.778 E2.93782
G1 X56.107 Y102.255 E2.95674
G1 X56.186 Y102.750 E2.97571
G1 X56.186 Y103.252 E2.99466
G1 X56.156 Y103.500 E3.00413
G1 X56.039 Y103.987 E3.02305
G1 X55.954 Y104.222 E3.03250
G1 X55.726 Y104.669 E3.05145
G1 X55.430 Y105.073 E3.07041
G1 X55.077 Y105.428 E3.08935
G1 X54.673 Y105.722 E3.10824
G1 X54.453 Y105.846 E3.11776
G1 X53.990 Y106.037 E3.13673
G1 X53.749 Y106.105 E3.14619
G1 X53.253 Y106.184 E3.16519
G1 X52.753 Y106.184 E3.18407
G1 X52.504 Y106.154 E3.19358
G1 X52.016 Y106.037 E3.21253
G1 X51.555 Y105.846 E3.23143
G1 X51.127 Y105.584 E3.25039
G1 X50.931 Y105.428 E3.25984
G1 X50.746 Y105.258 E3.26935
G1 X50.420 Y104.877 E3.28830
G1 X50.158 Y104.449 E3.30726
G1 X49.967 Y103.988 E3.32616
G1 X49.850 Y103.500 E3.34511
G1 X49.820 Y103.251 E3.35462
G1 X49.820 Y102.751 E3.37350
G1 X49.899 Y102.255 E3.39250
G1 X49.967 Y102.014 E3.40195
G1 X50.158 Y101.551 E3.42092
G1 X50.282 Y101.331 E3.43045
G1 X50.576 Y100.927 E3.44934
G1 X50.746 Y100.743 E3.45881
G1 X51.126 Y100.419 E3.47771
G1 X51.555 Y100.156 E3.49670
G1 X52.017 Y99.965 E3.51563
G1 X52.259 Y99.897 E3.52513
G1 X52.678 Y99.827 E3.54119
G1 X52.946 Y100.142 F4500.000
G1 F1080.000 E2.54119
G92 E0
G1 X53.004 Y96.969 F4500.000
G1 F1080.000 E1.00000
G1 X53.476 Y96.982 F600.000 E1.01784
G1 X54.643 Y97.119 E1.06226
G1 X55.223 Y95.775 E1.11760
G1 X54.765 Y95.390 E1.14022
G1 X55.606 Y95.083 E1.17406
G1 X55.606 Y66.962 E2.23728
G1 X56.542 Y66.962 E2.27266
G1 X56.542 Y81.005 E2.80359
G1 X56.560 Y82.868 E2.87405
G1 X56.613 Y84.734 E2.94462
G1 X56.699 Y86.598 E3.01518
G1 X56.823 Y88.463 E3.08584
G1 X56.982 Y90.323 E3.15642
G1 X57.174 Y92.179 E3.22698
G1 X57.402 Y94.033 E3.29761
G1 X57.667 Y95.881 E3.36816
G1 X57.964 Y97.724 E3.43877
G1 X58.477 Y100.457 E3.54388
G1 X58.628 Y100.816 E3.55862
G1 X58.765 Y101.211 E3.57441
G1 X58.934 Y101.890 E3.60090
G1 X58.996 Y102.307 E3.61682
G1 X59.031 Y102.725 E3.63270
G1 X59.018 Y103.477 E3.66111
G1 X58.963 Y103.947 E3.67901
G1 X58.870 Y104.410 E3.69685
G1 X58.741 Y104.866 E3.71479
G1 X58.576 Y105.312 E3.73277
G1 X58.378 Y105.743 E3.75070
G1 X58.147 Y106.155 E3.76854
G1 X57.883 Y106.549 E3.78649
G1 X57.591 Y106.920 E3.80435
G1 X57.266 Y107.270 E3.82239
G1 X56.920 Y107.593 E3.84029
G1 X56.550 Y107.884 E3.85810
G1 X56.154 Y108.146 E3.87605
G1 X55.741 Y108.378 E3.89395
G1 X55.310 Y108.576 E3.91188
G1 X54.864 Y108.741 E3.92986
G1 X54.408 Y108.870 E3.94779
G1 X53.943 Y108.963 E3.96569
G1 X53.474 Y109.018 E3.98355
G1 X53.000 Y109.035 E4.00150
G1 X52.526 Y109.018 E4.01945
G1 X52.057 Y108.961 E4.03730
G1 X51.591 Y108.870 E4.05526
G1 X51.136 Y108.741 E4.07312
G1 X50.691 Y108.576 E4.09108
G1 X50.261 Y108.378 E4.10897
G1 X49.847 Y108.147 E4.12691
G1 X49.453 Y107.883 E4.14483
G1 X49.082 Y107.591 E4.16268
G1 X48.734 Y107.268 E4.18063
G1 X48.411 Y106.918 E4.19863
G1 X48.117 Y106.547 E4.21652
G1 X47.856 Y106.155 E4.23435
G1 X47.624 Y105.739 E4.25234
G1 X47.426 Y105.309 E4.27023
G1 X47.261 Y104.864 E4.28819
G1 X47.132 Y104.409 E4.30605
G1 X47.041 Y103.943 E4.32401
G1 X46.984 Y103.473 E4.34194
G1 X46.967 Y103.000 E4.35982
G1 X46.984 Y102.525 E4.37777
G1 X47.041 Y102.055 E4.39569
G1 X47.132 Y101.591 E4.41357
G1 X47.261 Y101.136 E4.43145
G1 X47.425 Y100.693 E4.44931
G1 X47.529 Y100.471 E4.45857
G1 X48.042 Y97.724 E4.56421
G1 X48.341 Y95.881 E4.63482
G1 X48.604 Y94.033 E4.70538
G1 X48.832 Y92.178 E4.77605
G1 X49.026 Y90.325 E4.84649
G1 X49.183 Y88.463 E4.91715
G1 X49.307 Y86.598 E4.98780
G1 X49.395 Y84.734 E5.05835
G1 X49.448 Y82.868 E5.12894
G1 X49.466 Y81.005 E5.19940
G1 X49.466 Y66.962 E5.73033
G1 X50.402 Y66.962 E5.76571
G1 X50.402 Y95.083 E6.82894
G1 X51.540 Y95.499 E6.87474
G1 X51.540 Y95.737 E6.88375
G1 X51.656 Y96.098 E6.89809
G1 X51.825 Y96.379 E6.91050
G1 X52.054 Y96.625 E6.92319
G1 X52.352 Y96.820 E6.93666
G1 X52.542 Y96.885 E6.94425
G1 X52.542 Y96.943 E6.94644
G1 X52.947 Y96.962 E6.96177
G1 F1080.000 E5.96177
G92 E0
G1 X57.170 Y107.885 F4500.000
G1 F1080.000 E1.00000
G1 X56.775 Y108.196 F600.000 E1.01900
G1 X56.355 Y108.475 E1.03808
G1 X55.916 Y108.721 E1.05711
G1 X55.457 Y108.932 E1.07619
G1 X54.983 Y109.107 E1.09530
G1 X54.498 Y109.244 E1.11435
G1 X54.004 Y109.343 E1.13343
G1 X53.504 Y109.402 E1.15245
G1 X53.000 Y109.420 E1.17152
G1 X52.495 Y109.402 E1.19061
G1 X51.997 Y109.341 E1.20961
G1 X51.501 Y109.244 E1.22871
G1 X51.017 Y109.107 E1.24773
G1 X50.543 Y108.932 E1.26682
G1 X50.086 Y108.721 E1.28585
G1 X49.646 Y108.475 E1.30493
G1 X49.226 Y108.195 E1.32401
G1 X48.832 Y107.883 E1.34301
G1 X48.461 Y107.540 E1.36210
G1 X48.119 Y107.168 E1.38121
G1 X47.805 Y106.774 E1.40025
G1 X47.527 Y106.355 E1.41926
G1 X47.281 Y105.914 E1.43837
G1 X47.070 Y105.457 E1.45740
G1 X46.895 Y104.983 E1.47649
G1 X46.758 Y104.499 E1.49551
G1 X46.661 Y104.004 E1.51461
G1 X46.600 Y103.503 E1.53368
G1 X46.582 Y103.000 E1.55270
G1 X46.600 Y102.495 E1.57180
G1 X46.661 Y101.995 E1.59087
G1 X46.758 Y101.501 E1.60989
G1 X46.895 Y101.017 E1.62892
G1 X47.069 Y100.544 E1.64795
G1 X47.160 Y100.350 E1.65608
G1 X47.333 Y99.488 E1.68931
G1 X47.663 Y97.659 E1.75956
G1 X47.961 Y95.823 E1.82990
G1 X48.222 Y93.982 E1.90019
G1 X48.450 Y92.136 E1.97054
G1 X48.643 Y90.288 E2.04078
G1 X48.800 Y88.434 E2.11113
G1 X48.922 Y86.577 E2.18150
G1 X49.011 Y84.720 E2.25178
G1 X49.063 Y82.861 E2.32210
G1 X49.081 Y81.003 E2.39235
G1 X49.081 Y66.577 E2.93776
G1 X51.747 Y66.577 E3.03857
G1 X51.784 Y66.785 E3.04654
G1 X50.787 Y67.148 E3.08666
G1 X50.787 Y68.398 E3.13392
G1 X51.859 Y68.790 E3.17709
G1 X50.787 Y69.180 E3.22023
G1 X50.787 Y70.430 E3.26749
G1 X51.859 Y70.822 E3.31066
G1 X50.787 Y71.212 E3.35380
G1 X50.787 Y72.462 E3.40106
G1 X51.859 Y72.854 E3.44422
G1 X50.787 Y73.244 E3.48737
G1 X50.787 Y74.494 E3.53462
G1 X51.859 Y74.886 E3.57779
G1 X50.787 Y75.276 E3.62094
G1 X50.787 Y76.526 E3.66819
G1 X51.859 Y76.918 E3.71136
G1 X50.787 Y77.308 E3.75450
G1 X50.787 Y78.558 E3.80176
G1 X51.859 Y78.950 E3.84493
G1 X50.787 Y79.340 E3.88807
G1 X50.787 Y80.590 E3.93533
G1 X51.859 Y80.982 E3.97850
G1 X50.787 Y81.372 E4.02164
G1 X50.787 Y82.622 E4.06890
G1 X51.859 Y83.014 E4.11207
G1 X50.787 Y83.404 E4.15521
G1 X50.787 Y84.654 E4.20247
G1 X51.859 Y85.046 E4.24563
G1 X50.787 Y85.436 E4.28878
G1 X50.787 Y86.686 E4.33603
G1 X51.859 Y87.078 E4.37920
G1 X50.787 Y87.468 E4.42235
G1 X50.787 Y88.718 E4.46960
G1 X51.859 Y89.110 E4.51277
G1 X50.787 Y89.500 E4.55591
G1 X50.787 Y90.750 E4.60317
G1 X51.859 Y91.142 E4.64634
G1 X50.787 Y91.532 E4.68948
G1 X50.787 Y92.782 E4.73674
G1 X51.859 Y93.174 E4.77991
G1 X50.787 Y93.564 E4.82305
G1 X50.787 Y94.814 E4.87032
G1 X51.925 Y95.230 E4.91613
G1 X51.925 Y95.676 E4.93302
G1 X52.009 Y95.938 E4.94341
G1 X52.134 Y96.147 E4.95262
G1 X52.303 Y96.329 E4.96201
G1 X52.521 Y96.471 E4.97186
G1 X52.759 Y96.552 E4.98136
G1 X52.927 Y96.574 E4.98774
G1 X53.506 Y96.598 E5.00967
G1 X54.403 Y96.703 E5.04380
G1 X54.756 Y95.885 E5.07749
G1 X54.008 Y95.256 E5.11443
G1 X55.221 Y94.814 E5.16325
G1 X55.221 Y93.563 E5.21054
G1 X54.148 Y93.174 E5.25372
G1 X55.221 Y92.782 E5.29693
G1 X55.221 Y91.529 E5.34430
G1 X54.148 Y91.142 E5.38745
G1 X55.221 Y90.750 E5.43066
G1 X55.221 Y89.499 E5.47793
G1 X54.148 Y89.110 E5.52111
G1 X55.221 Y88.718 E5.56432
G1 X55.221 Y87.467 E5.61160
G1 X54.148 Y87.078 E5.65478
G1 X55.221 Y86.686 E5.69799
G1 X55.221 Y85.435 E5.74526
G1 X54.148 Y85.046 E5.78845
G1 X55.221 Y84.654 E5.83166
G1 X55.221 Y83.403 E5.87893
G1 X54.148 Y83.014 E5.92211
G1 X55.221 Y82.622 E5.96532
G1 X55.221 Y81.371 E6.01260
G1 X54.148 Y80.982 E6.05578
G1 X55.221 Y80.590 E6.09899
G1 X55.221 Y79.339 E6.14626
G1 X54.148 Y78.950 E6.18945
G1 X55.221 Y78.558 E6.23266
G1 X55.221 Y77.307 E6.27993
G1 X54.148 Y76.918 E6.32312
G1 X55.221 Y76.526 E6.36632
G1 X55.221 Y75.275 E6.41360
G1 X54.148 Y74.886 E6.45678
G1 X55.221 Y74.494 E6.49999
G1 X55.221 Y73.243 E6.54727
G1 X54.148 Y72.854 E6.59045
G1 X55.221 Y72.462 E6.63366
G1 X55.221 Y71.211 E6.68093
G1 X54.148 Y70.822 E6.72412
G1 X55.221 Y70.430 E6.76733
G1 X55.221 Y69.179 E6.81460
G1 X54.148 Y68.790 E6.85778
G1 X55.221 Y68.398 E6.90099
G1 X55.221 Y67.147 E6.94827
G1 X54.224 Y66.785 E6.98840
G1 X54.260 Y66.577 E6.99638
G1 X56.927 Y66.577 E7.09720
G1 X56.927 Y81.003 E7.64261
G1 X56.945 Y82.861 E7.71287
G1 X56.997 Y84.720 E7.78317
G1 X57.084 Y86.576 E7.85345
G1 X57.206 Y88.434 E7.92383
G1 X57.365 Y90.287 E7.99414
G1 X57.556 Y92.136 E8.06445
G1 X57.784 Y93.982 E8.13477
G1 X58.047 Y95.823 E8.20506
G1 X58.343 Y97.659 E8.27540
G1 X58.846 Y100.341 E8.37856
G1 X59.039 Y100.813 E8.39784
