; generated by Slic3r 0.9.10b on 2013-06-30 at 10:43:26

; layer_height = .25
; perimeters = 3
; top_solid_layers = 2
; bottom_solid_layers = 2
; fill_density = 0.3
; perimeter_speed = 30
; infill_speed = 60
; travel_speed = 75
; nozzle_diameter = 0.35
; filament_diameter = 1.8
; extrusion_multiplier = 1
; perimeters extrusion width = 0.39mm
; infill extrusion width = 0.39mm
; solid infill extrusion width = 0.39mm
; top infill extrusion width = 0.39mm

G21 ; set units to millimeters
M107
G92 E0	;reset extruder location
G1 E5	;Prime extruder
G28	;Go Home
;G1 E20	Prime extruder
G90 ; use absolute coordinates
G92 E0
M82 ; use absolute distances for extrusion
G1 F1080.000 E-1.00000
G92 E0
G1 Z0.250 F4500.000
G1 X38.489 Y34.541
G1 F1080.000 E1.00000
G1 X39.349 Y33.951 F1800.000 E1.03943
G1 X40.329 Y33.621 E1.07853
G1 X74.139 Y27.131 E2.38018
G1 X76.449 Y26.731 E2.46881
G1 X77.879 Y26.731 E2.52288
G1 X80.139 Y27.121 E2.60959
G1 X80.769 Y27.281 E2.63417
G1 X81.489 Y27.541 E2.66311
G1 X81.789 Y27.671 E2.67547
G1 X83.789 Y28.801 E2.76232
G1 X84.099 Y28.991 E2.77607
G1 X84.379 Y29.211 E2.78953
G1 X84.959 Y29.711 E2.81849
G1 X85.379 Y30.131 E2.84094
G1 X86.649 Y31.631 E2.91525
G1 X86.859 Y31.911 E2.92849
G1 X87.429 Y32.881 E2.97102
G1 X87.689 Y33.441 E2.99437
G1 X88.369 Y35.291 E3.06889
G1 X88.469 Y35.611 E3.08156
G1 X88.539 Y35.951 E3.09469
G1 X88.669 Y36.701 E3.12347
G1 X88.729 Y37.341 E3.14777
G1 X88.729 Y39.381 E3.22490
G1 X87.769 Y88.741 E5.09149
G1 X87.689 Y89.561 E5.12264
G1 X87.459 Y90.711 E5.16698
G1 X87.309 Y91.241 E5.18781
G1 X87.029 Y92.021 E5.21914
G1 X86.549 Y93.081 E5.26313
G1 X86.279 Y93.561 E5.28396
G1 X85.779 Y94.301 E5.31772
G1 X85.639 Y94.501 E5.32695
G1 X85.139 Y95.121 E5.35707
G1 X84.769 Y95.531 E5.37795
G1 X84.129 Y96.141 E5.41138
G1 X83.249 Y96.841 E5.45389
G1 X82.789 Y97.151 E5.47486
G1 X81.999 Y97.591 E5.50905
G1 X80.989 Y98.051 E5.55101
G1 X80.219 Y98.321 E5.58186
G1 X79.409 Y98.541 E5.61360
G1 X78.529 Y98.711 E5.64748
G1 X77.979 Y98.771 E5.66840
G1 X77.099 Y98.821 E5.70173
G1 X56.579 Y99.271 E6.47775
G1 X47.499 Y99.271 E6.82105
G1 X46.509 Y99.141 E6.85880
G1 X45.589 Y98.751 E6.89658
G1 X44.799 Y98.131 E6.93455
G1 X44.199 Y97.321 E6.97266
G1 X43.839 Y96.391 E7.01037
G1 X37.379 Y69.851 E8.04311
G1 X37.299 Y69.411 E8.06002
G1 X37.269 Y68.961 E8.07707
G1 X37.269 Y37.321 E9.27333
G1 X37.409 Y36.291 E9.31263
G1 X37.829 Y35.341 E9.35191
G1 X38.452 Y34.586 E9.38893
G1 X38.749 Y34.831 F4500.000
G1 X39.519 Y34.301 F1800.000 E9.42428
G1 X40.399 Y34.001 E9.45943
G1 X74.259 Y27.501 E10.76300
G1 X76.489 Y27.121 E10.84853
G1 X77.549 Y27.111 E10.88861
G1 X77.839 Y27.121 E10.89958
G1 X78.129 Y27.161 E10.91065
G1 X80.069 Y27.501 E10.98512
G1 X80.639 Y27.651 E11.00740
G1 X81.629 Y28.021 E11.04736
G1 X81.889 Y28.151 E11.05835
G1 X83.599 Y29.131 E11.13287
G1 X83.879 Y29.311 E11.14546
G1 X84.129 Y29.511 E11.15756
G1 X84.709 Y30.011 E11.18651
G1 X85.079 Y30.381 E11.20630
G1 X86.549 Y32.131 E11.29271
G1 X87.089 Y33.071 E11.33369
G1 X87.329 Y33.571 E11.35466
G1 X88.009 Y35.421 E11.42919
G1 X88.169 Y36.011 E11.45230
G1 X88.299 Y36.761 E11.48108
G1 X88.339 Y37.341 E11.50306
G1 X88.339 Y39.381 E11.58019
G1 X87.379 Y88.721 E13.44602
G1 X87.259 Y89.821 E13.48786
G1 X87.089 Y90.601 E13.51804
G1 X86.939 Y91.131 E13.53886
G1 X86.669 Y91.891 E13.56936
G1 X86.569 Y92.141 E13.57954
G1 X86.209 Y92.891 E13.61099
G1 X85.779 Y93.631 E13.64335
G1 X85.339 Y94.261 E13.67241
G1 X84.999 Y94.691 E13.69313
G1 X84.269 Y95.481 E13.73380
G1 X83.669 Y96.031 E13.76457
G1 X83.239 Y96.371 E13.78530
G1 X82.569 Y96.831 E13.81603
G1 X81.809 Y97.261 E13.84904
G1 X81.109 Y97.591 E13.87830
G1 X80.339 Y97.881 E13.90941
G1 X79.339 Y98.171 E13.94878
G1 X78.799 Y98.281 E13.96961
G1 X77.749 Y98.401 E14.00957
G1 X77.199 Y98.431 E14.03040
G1 X56.569 Y98.881 E14.81057
G1 X47.499 Y98.881 E15.15350
G1 X46.389 Y98.701 E15.19601
G1 X45.409 Y98.161 E15.23832
G1 X44.649 Y97.331 E15.28087
G1 X44.209 Y96.301 E15.32322
G1 X37.749 Y69.761 E16.35596
G1 X37.679 Y69.361 E16.37131
G1 X37.659 Y68.961 E16.38645
G1 X37.659 Y37.321 E17.58272
G1 X37.779 Y36.401 E17.61779
G1 X38.159 Y35.541 E17.65334
G1 X38.712 Y34.875 E17.68606
G1 F1080.000 E16.68606
G92 E0
G1 X43.394 Y41.611 F4500.000
G1 F1080.000 E1.00000
G1 X45.640 Y39.365 F1800.000 E1.12010
G1 X58.366 Y39.365 E1.60121
G1 X60.929 Y41.928 E1.73829
G1 X60.929 Y65.450 E2.62759
G1 X58.366 Y68.013 E2.76466
G1 X45.640 Y68.013 E3.24578
G1 X43.077 Y65.450 E3.38285
G1 X43.077 Y41.928 E4.27215
G1 X43.354 Y41.652 E4.28694
G1 X43.667 Y41.883 F4500.000
G1 X45.800 Y39.750 F1800.000 E4.40101
G1 X58.206 Y39.750 E4.87008
G1 X60.544 Y42.088 E4.99510
G1 X60.544 Y65.290 E5.87234
G1 X58.206 Y67.628 E5.99736
G1 X45.800 Y67.628 E6.46643
G1 X43.462 Y65.290 E6.59145
G1 X43.462 Y42.088 E7.46869
G1 X43.626 Y41.924 E7.47746
G1 X43.939 Y42.155 F4500.000
G1 X45.959 Y40.135 F1800.000 E7.58550
G1 X58.047 Y40.135 E8.04251
G1 X60.159 Y42.247 E8.15547
G1 X60.159 Y65.131 E9.02067
G1 X58.047 Y67.243 E9.13363
G1 X45.959 Y67.243 E9.59064
G1 X43.847 Y65.131 E9.70361
G1 X43.847 Y42.247 E10.56880
G1 X43.898 Y42.196 E10.57154
G1 X44.310 Y42.255 F4500.000
G1 F1080.000 E9.57154
G92 E0
G1 X74.243 Y38.791 F4500.000
G1 F1080.000 E1.00000
G1 X74.210 Y38.285 F1800.000 E1.01919
G1 X74.243 Y37.879 E1.03456
G1 X74.289 Y37.642 E1.04372
G1 X74.435 Y37.196 E1.06145
G1 X74.644 Y36.789 E1.07875
G1 X74.773 Y36.594 E1.08760
G1 X75.107 Y36.212 E1.10677
G1 X75.427 Y35.940 E1.12266
G1 X75.618 Y35.811 E1.13137
G1 X76.035 Y35.598 E1.14909
G1 X76.261 Y35.516 E1.15818
G1 X76.704 Y35.408 E1.17539
G1 X76.936 Y35.381 E1.18423
G1 X77.401 Y35.381 E1.20181
G1 X77.866 Y35.456 E1.21961
G1 X78.305 Y35.597 E1.23705
G1 X78.716 Y35.807 E1.25451
G1 X78.921 Y35.943 E1.26381
G1 X79.267 Y36.241 E1.28107
G1 X79.569 Y36.594 E1.29866
G1 X79.694 Y36.786 E1.30731
G1 X79.811 Y36.991 E1.31624
G1 X79.985 Y37.404 E1.33318
G1 X80.096 Y37.873 E1.35139
G1 X80.126 Y38.108 E1.36035
G1 X80.125 Y38.571 E1.37786
G1 X80.052 Y39.023 E1.39518
G1 X79.909 Y39.468 E1.41285
G1 X79.812 Y39.678 E1.42160
G1 X79.563 Y40.083 E1.43957
G1 X79.257 Y40.438 E1.45728
G1 X78.914 Y40.732 E1.47437
G1 X78.707 Y40.869 E1.48375
G1 X78.305 Y41.073 E1.50080
G1 X78.080 Y41.156 E1.50987
G1 X77.636 Y41.262 E1.52711
G1 X77.401 Y41.289 E1.53607
G1 X76.938 Y41.289 E1.55358
G1 X76.474 Y41.214 E1.57133
G1 X76.035 Y41.072 E1.58877
G1 X75.671 Y40.890 E1.60417
G1 X75.432 Y40.734 E1.61496
G1 X75.244 Y40.586 E1.62400
G1 X74.918 Y40.262 E1.64140
G1 X74.644 Y39.884 E1.65905
G1 X74.433 Y39.469 E1.67662
G1 X74.288 Y39.025 E1.69430
G1 X74.254 Y38.848 E1.70113
G1 X74.624 Y38.733 F4500.000
G1 X74.594 Y38.302 F1800.000 E1.71745
G1 X74.624 Y37.937 E1.73131
G1 X74.663 Y37.732 E1.73918
G1 X74.790 Y37.345 E1.75461
G1 X74.972 Y36.990 E1.76969
G1 X75.085 Y36.820 E1.77740
G1 X75.368 Y36.494 E1.79372
G1 X75.654 Y36.250 E1.80793
G1 X75.821 Y36.138 E1.81552
G1 X76.183 Y35.953 E1.83090
G1 X76.378 Y35.883 E1.83873
G1 X76.765 Y35.789 E1.85380
G1 X76.967 Y35.765 E1.86148
G1 X77.371 Y35.765 E1.87677
G1 X77.775 Y35.830 E1.89222
G1 X78.158 Y35.953 E1.90742
G1 X78.516 Y36.136 E1.92262
G1 X78.691 Y36.253 E1.93061
G1 X78.994 Y36.513 E1.94570
G1 X79.257 Y36.820 E1.96099
G1 X79.367 Y36.988 E1.96856
G1 X79.468 Y37.166 E1.97631
G1 X79.620 Y37.529 E1.99121
G1 X79.715 Y37.933 E2.00689
G1 X79.741 Y38.136 E2.01464
G1 X79.741 Y38.540 E2.02989
G1 X79.677 Y38.935 E2.04503
G1 X79.553 Y39.321 E2.06037
G1 X79.468 Y39.504 E2.06799
G1 X79.253 Y39.855 E2.08356
G1 X78.988 Y40.163 E2.09889
G1 X78.687 Y40.420 E2.11388
G1 X78.510 Y40.538 E2.12191
G1 X78.157 Y40.717 E2.13688
G1 X77.963 Y40.788 E2.14469
G1 X77.575 Y40.881 E2.15979
G1 X77.371 Y40.905 E2.16755
G1 X77.000 Y40.906 E2.18158
G1 X76.566 Y40.840 E2.19819
G1 X76.183 Y40.717 E2.21339
G1 X75.855 Y40.552 E2.22728
G1 X75.657 Y40.422 E2.23622
G1 X75.495 Y40.294 E2.24404
G1 X75.210 Y40.011 E2.25921
G1 X74.972 Y39.683 E2.27454
G1 X74.789 Y39.322 E2.28983
G1 X74.663 Y38.936 E2.30518
G1 X74.635 Y38.790 E2.31082
G1 X75.004 Y38.675 F4500.000
G1 X74.979 Y38.320 F1800.000 E2.32429
G1 X75.005 Y37.994 E2.33664
G1 X75.038 Y37.823 E2.34321
G1 X75.146 Y37.494 E2.35633
G1 X75.301 Y37.191 E2.36921
G1 X75.397 Y37.046 E2.37578
G1 X75.504 Y36.910 E2.38231
G1 X75.746 Y36.669 E2.39522
G1 X76.024 Y36.465 E2.40825
G1 X76.331 Y36.309 E2.42129
G1 X76.495 Y36.250 E2.42787
G1 X76.826 Y36.169 E2.44078
G1 X76.998 Y36.149 E2.44729
G1 X77.342 Y36.149 E2.46031
G1 X77.684 Y36.204 E2.47340
G1 X78.010 Y36.309 E2.48637
G1 X78.315 Y36.465 E2.49931
G1 X78.462 Y36.562 E2.50597
G1 X78.721 Y36.785 E2.51891
G1 X78.945 Y37.046 E2.53191
G1 X79.039 Y37.190 E2.53840
G1 X79.198 Y37.498 E2.55150
G1 X79.255 Y37.654 E2.55781
G1 X79.335 Y37.993 E2.57096
G1 X79.357 Y38.165 E2.57751
G1 X79.357 Y38.509 E2.59051
G1 X79.302 Y38.847 E2.60347
G1 X79.197 Y39.174 E2.61647
G1 X79.125 Y39.330 E2.62296
G1 X78.943 Y39.627 E2.63612
G1 X78.719 Y39.887 E2.64908
G1 X78.460 Y40.109 E2.66198
G1 X78.313 Y40.207 E2.66865
G1 X78.010 Y40.361 E2.68153
G1 X77.847 Y40.421 E2.68808
G1 X77.514 Y40.501 E2.70105
G1 X77.342 Y40.521 E2.70760
G1 X77.015 Y40.522 E2.71994
G1 X76.657 Y40.466 E2.73364
G1 X76.331 Y40.361 E2.74660
G1 X76.039 Y40.213 E2.75897
G1 X75.883 Y40.109 E2.76607
G1 X75.746 Y40.001 E2.77267
G1 X75.503 Y39.760 E2.78560
G1 X75.301 Y39.482 E2.79862
G1 X75.145 Y39.175 E2.81163
G1 X75.015 Y38.732 E2.82908
G1 X75.285 Y38.456 F4500.000
G1 F1080.000 E1.82908
G92 E0
G1 X77.029 Y84.090 F4500.000
G1 F1080.000 E1.00000
G1 X77.647 Y84.137 F1800.000 E1.02342
G1 X78.256 Y84.283 E1.04709
G1 X78.546 Y84.392 E1.05881
G1 X78.828 Y84.521 E1.07055
G1 X79.359 Y84.846 E1.09408
G1 X79.832 Y85.250 E1.11760
G1 X80.236 Y85.723 E1.14112
G1 X80.561 Y86.254 E1.16465
G1 X80.690 Y86.536 E1.17640
G1 X80.798 Y86.826 E1.18810
G1 X80.945 Y87.435 E1.21178
G1 X80.992 Y88.053 E1.23520
G1 X80.945 Y88.671 E1.25863
G1 X80.883 Y88.979 E1.27050
G1 X80.691 Y89.569 E1.29396
G1 X80.561 Y89.852 E1.30575
G1 X80.236 Y90.383 E1.32928
G1 X79.832 Y90.856 E1.35280
G1 X79.600 Y91.069 E1.36470
G1 X79.100 Y91.432 E1.38809
G1 X78.549 Y91.713 E1.41144
G1 X78.252 Y91.824 E1.42345
G1 X77.651 Y91.966 E1.44680
G1 X77.029 Y92.016 E1.47039
G1 X76.407 Y91.966 E1.49397
G1 X75.806 Y91.824 E1.51732
G1 X75.509 Y91.713 E1.52932
G1 X74.958 Y91.432 E1.55268
G1 X74.458 Y91.069 E1.57606
G1 X74.226 Y90.856 E1.58797
G1 X73.822 Y90.383 E1.61149
G1 X73.648 Y90.121 E1.62340
G1 X73.368 Y89.572 E1.64667
G1 X73.175 Y88.979 E1.67027
G1 X73.113 Y88.671 E1.68214
G1 X73.066 Y88.053 E1.70557
G1 X73.113 Y87.435 E1.72899
G1 X73.259 Y86.827 E1.75266
G1 X73.369 Y86.533 E1.76451
G1 X73.648 Y85.985 E1.78774
G1 X73.822 Y85.723 E1.79963
G1 X74.226 Y85.250 E1.82316
G1 X74.699 Y84.846 E1.84669
G1 X75.230 Y84.521 E1.87022
G1 X75.512 Y84.392 E1.88196
G1 X75.803 Y84.283 E1.89367
G1 X76.104 Y84.199 E1.90552
G1 X76.411 Y84.137 E1.91736
G1 X76.971 Y84.092 E1.93860
G1 X76.995 Y84.477 F4500.000
G1 X77.588 Y84.518 F1800.000 E1.96107
G1 X78.136 Y84.650 E1.98240
G1 X78.398 Y84.747 E1.99298
G1 X78.653 Y84.864 E2.00358
G1 X79.133 Y85.158 E2.02483
G1 X79.559 Y85.522 E2.04606
G1 X79.924 Y85.949 E2.06730
G1 X80.218 Y86.429 E2.08855
G1 X80.335 Y86.684 E2.09915
G1 X80.432 Y86.946 E2.10972
G1 X80.564 Y87.494 E2.13105
G1 X80.607 Y88.053 E2.15224
G1 X80.564 Y88.612 E2.17342
G1 X80.509 Y88.888 E2.18410
G1 X80.335 Y89.422 E2.20529
G1 X80.218 Y89.677 E2.21593
G1 X79.924 Y90.157 E2.23717
G1 X79.560 Y90.584 E2.25841
G1 X79.351 Y90.775 E2.26913
G1 X78.899 Y91.104 E2.29026
G1 X78.400 Y91.358 E2.31140
G1 X78.134 Y91.457 E2.32215
G1 X77.590 Y91.585 E2.34328
G1 X77.029 Y91.631 E2.36457
G1 X76.468 Y91.585 E2.38585
G1 X75.924 Y91.457 E2.40697
G1 X75.658 Y91.358 E2.41773
G1 X75.159 Y91.104 E2.43887
G1 X74.707 Y90.775 E2.46000
G1 X74.498 Y90.583 E2.47072
G1 X74.134 Y90.157 E2.49195
G1 X73.977 Y89.921 E2.50266
G1 X73.724 Y89.424 E2.52375
G1 X73.549 Y88.888 E2.54503
G1 X73.494 Y88.612 E2.55570
G1 X73.451 Y88.053 E2.57689
G1 X73.494 Y87.494 E2.59807
G1 X73.626 Y86.946 E2.61940
G1 X73.724 Y86.682 E2.63006
G1 X73.977 Y86.185 E2.65112
G1 X74.133 Y85.950 E2.66182
G1 X74.498 Y85.522 E2.68306
G1 X74.925 Y85.158 E2.70429
G1 X75.405 Y84.864 E2.72554
G1 X75.660 Y84.747 E2.73615
G1 X76.194 Y84.573 E2.75740
G1 X76.470 Y84.518 E2.76805
G1 X76.937 Y84.479 E2.78575
G1 X77.011 Y84.861 F4500.000
G1 X77.529 Y84.899 F1800.000 E2.80537
G1 X78.017 Y85.016 E2.82435
G1 X78.251 Y85.103 E2.83380
G1 X78.478 Y85.207 E2.84326
G1 X78.906 Y85.469 E2.86223
G1 X79.287 Y85.795 E2.88117
G1 X79.613 Y86.176 E2.90012
G1 X79.875 Y86.604 E2.91909
G1 X79.979 Y86.831 E2.92855
G1 X80.066 Y87.065 E2.93800
G1 X80.183 Y87.553 E2.95698
G1 X80.222 Y88.053 E2.97592
G1 X80.183 Y88.553 E2.99486
G1 X80.134 Y88.798 E3.00433
G1 X79.979 Y89.275 E3.02328
G1 X79.875 Y89.502 E3.03275
G1 X79.613 Y89.930 E3.05172
G1 X79.287 Y90.311 E3.07066
G1 X79.102 Y90.482 E3.08020
G1 X78.698 Y90.775 E3.09908
G1 X78.251 Y91.003 E3.11801
G1 X78.016 Y91.090 E3.12751
G1 X77.529 Y91.205 E3.14641
G1 X77.029 Y91.246 E3.16539
G1 X76.529 Y91.205 E3.18437
G1 X76.042 Y91.090 E3.20327
G1 X75.807 Y91.003 E3.21278
G1 X75.360 Y90.775 E3.23170
G1 X74.956 Y90.482 E3.25059
G1 X74.771 Y90.311 E3.26012
G1 X74.445 Y89.930 E3.27907
G1 X74.306 Y89.721 E3.28856
G1 X74.079 Y89.275 E3.30748
G1 X73.924 Y88.798 E3.32645
G1 X73.875 Y88.553 E3.33592
G1 X73.836 Y88.053 E3.35486
G1 X73.875 Y87.553 E3.37380
G1 X73.992 Y87.065 E3.39278
G1 X74.079 Y86.831 E3.40225
G1 X74.306 Y86.385 E3.42116
G1 X74.445 Y86.176 E3.43065
G1 X74.771 Y85.795 E3.44960
G1 X75.152 Y85.469 E3.46855
G1 X75.580 Y85.207 E3.48751
G1 X75.807 Y85.103 E3.49698
G1 X76.284 Y84.948 E3.51594
G1 X76.529 Y84.899 E3.52540
G1 X76.953 Y84.864 E3.54148
G1 X77.196 Y85.199 F4500.000
G1 F1080.000 E2.54148
G92 E0
G1 X55.541 Y80.489 F4500.000
G1 F1080.000 E1.00000
G1 X55.541 Y94.547 F1800.000 E1.53151
G1 X54.605 Y94.547 E1.56689
G1 X54.605 Y74.554 E2.32280
G1 X53.935 Y74.310 E2.34975
G1 X54.581 Y73.540 E2.38773
G1 X54.935 Y72.569 E2.42679
G1 X54.935 Y71.535 E2.46588
G1 X54.581 Y70.563 E2.50502
G1 X53.917 Y69.770 E2.54413
G1 X53.021 Y69.255 E2.58318
G1 X52.003 Y69.074 E2.62227
G1 X50.985 Y69.255 E2.66138
G1 X50.089 Y69.770 E2.70043
G1 X49.425 Y70.563 E2.73954
G1 X49.071 Y71.535 E2.77868
G1 X49.071 Y72.569 E2.81776
G1 X49.425 Y73.540 E2.85682
G1 X50.071 Y74.310 E2.89481
G1 X49.401 Y74.554 E2.92176
G1 X49.401 Y94.547 E3.67767
G1 X48.465 Y94.547 E3.71305
G1 X48.465 Y80.488 E4.24459
G1 X48.412 Y79.275 E4.29050
G1 X48.256 Y78.053 E4.33709
G1 X47.997 Y76.846 E4.38375
G1 X47.635 Y75.667 E4.43037
G1 X47.174 Y74.523 E4.47700
G1 X46.617 Y73.422 E4.52367
G1 X45.968 Y72.373 E4.57031
G1 X45.234 Y71.381 E4.61697
G1 X44.415 Y70.455 E4.66369
G1 X43.526 Y69.605 E4.71019
G1 X42.565 Y68.832 E4.75684
G1 X42.001 Y68.452 E4.78255
G1 X42.001 Y38.289 E5.92295
G1 X62.005 Y38.289 E6.67927
G1 X62.005 Y68.451 E7.81965
G1 X61.439 Y68.832 E7.84543
G1 X60.480 Y69.605 E7.89202
G1 X59.585 Y70.459 E7.93880
G1 X58.771 Y71.381 E7.98528
G1 X58.035 Y72.373 E8.03198
G1 X57.389 Y73.423 E8.07859
G1 X56.832 Y74.523 E8.12523
G1 X56.371 Y75.667 E8.17186
G1 X56.009 Y76.846 E8.21848
G1 X55.750 Y78.052 E8.26511
G1 X55.591 Y79.275 E8.31174
G1 X55.543 Y80.431 E8.35550
G1 F1080.000 E7.35550
G92 E0
G1 X55.926 Y94.932 F4500.000
G1 F1080.000 E1.00000
G1 X53.259 Y94.932 F1800.000 E1.10082
G1 X53.223 Y94.724 E1.10880
G1 X54.220 Y94.362 E1.14893
G1 X54.220 Y93.111 E1.19621
G1 X53.147 Y92.719 E1.23942
G1 X54.220 Y92.330 E1.28260
G1 X54.220 Y91.079 E1.32988
G1 X53.147 Y90.687 E1.37308
G1 X54.220 Y90.298 E1.41627
G1 X54.220 Y89.047 E1.46354
G1 X53.147 Y88.655 E1.50675
G1 X54.220 Y88.266 E1.54994
G1 X54.220 Y87.015 E1.59721
G1 X53.147 Y86.623 E1.64042
G1 X54.220 Y86.234 E1.68360
G1 X54.220 Y84.983 E1.73088
G1 X53.147 Y84.591 E1.77409
G1 X54.220 Y84.202 E1.81727
G1 X54.220 Y82.951 E1.86454
G1 X53.147 Y82.559 E1.90775
G1 X54.220 Y82.170 E1.95094
G1 X54.220 Y80.919 E1.99821
G1 X53.147 Y80.527 E2.04142
G1 X54.220 Y80.138 E2.08460
G1 X54.220 Y78.887 E2.13188
G1 X53.147 Y78.495 E2.17509
G1 X54.220 Y78.106 E2.21827
G1 X54.220 Y76.855 E2.26555
G1 X53.147 Y76.463 E2.30875
G1 X54.220 Y76.074 E2.35194
G1 X54.220 Y74.823 E2.39921
G1 X53.041 Y74.393 E2.44666
