(Generated by PartKam Version 0.05)

G20 G90 G40

(profile 1-0)
G0 Z0.25
T0 M6
G17
M3
G0 X0.5007 Y0.4382
G1 Z-0.03 F10
G2 X0.4382 Y0.5007 I0 J0.0625 F30
G1 X0.4382 Y1.8945
G1 X0.4382 Y2.1611
G1 X0.4382 Y3.3719
G2 X0.5007 Y3.4344 I0.0625 J0
G1 X1.0906 Y3.4344
G2 X1.1531 Y3.3719 I0 J-0.0625
G1 X1.1531 Y3.0826
G2 X1.1401 Y3.0444 I-0.0625 J0
G2 X1.1788 Y3.0587 I0.0397 J-0.0483
G1 X1.6326 Y3.0587
G2 X1.6699 Y3.0463 I0 J-0.0625
G2 X1.6771 Y3.0401 I-0.0373 J-0.0501
G2 X1.6761 Y3.0401 I-0.0005 J0.0024
G1 X1.6761 Y3.0399
G1 X1.6761 Y3.0398
G1 X1.6761 Y3.0393
G1 X1.6761 Y3.039
G2 X1.6699 Y3.0463 I0.0444 J0.044
G2 X1.658 Y3.083 I0.0506 J0.0367
G1 X1.658 Y3.3719
G2 X1.7205 Y3.4344 I0.0625 J0
G1 X2.644 Y3.4344
G1 X2.9013 Y3.4344
G1 X3.634 Y3.4344
G2 X3.6965 Y3.3719 I0 J-0.0625
G1 X3.6965 Y3.084
G2 X3.6846 Y3.0474 I-0.0625 J0
G2 X3.6781 Y3.0397 I-0.0506 J0.0367
G1 X3.678 Y3.0405
G1 X3.678 Y3.0408
G1 X3.6772 Y3.0409
G1 X3.6766 Y3.0407
G1 X3.677 Y3.0411
G2 X3.6846 Y3.0474 I0.0435 J-0.0449
G2 X3.7205 Y3.0587 I0.0359 J-0.0512
G1 X4.1767 Y3.0587
G2 X4.2148 Y3.0457 I-0.0001 J-0.0625
G2 X4.2014 Y3.084 I0.0491 J0.0386
G1 X4.2014 Y3.3719
G2 X4.2639 Y3.4344 I0.0625 J0
G1 X4.9865 Y3.4344
G2 X5.049 Y3.3719 I0 J-0.0625
G1 X5.049 Y2.0095
G1 X5.049 Y1.7595
G1 X5.049 Y0.5007
G2 X4.9865 Y0.4382 I-0.0625 J0
G1 X2.8761 Y0.4382
G1 X2.6261 Y0.4382
G1 X0.5007 Y0.4382
G1 Z-0.06 F10
G2 X0.4382 Y0.5007 I0 J0.0625 F30
G1 X0.4382 Y1.8945
G1 X0.4382 Y2.1611
G1 X0.4382 Y3.3719
G2 X0.5007 Y3.4344 I0.0625 J0
G1 X1.0906 Y3.4344
G2 X1.1531 Y3.3719 I0 J-0.0625
G1 X1.1531 Y3.0826
G2 X1.1401 Y3.0444 I-0.0625 J0
G2 X1.1788 Y3.0587 I0.0397 J-0.0483
G1 X1.6326 Y3.0587
G2 X1.6699 Y3.0463 I0 J-0.0625
G2 X1.6771 Y3.0401 I-0.0373 J-0.0501
G2 X1.6761 Y3.0401 I-0.0005 J0.0024
G1 X1.6761 Y3.0399
G1 X1.6761 Y3.0398
G1 X1.6761 Y3.0393
G1 X1.6761 Y3.039
G2 X1.6699 Y3.0463 I0.0444 J0.044
G2 X1.658 Y3.083 I0.0506 J0.0367
G1 X1.658 Y3.3719
G2 X1.7205 Y3.4344 I0.0625 J0
G1 X2.644 Y3.4344
G1 X2.9013 Y3.4344
G1 X3.634 Y3.4344
G2 X3.6965 Y3.3719 I0 J-0.0625
G1 X3.6965 Y3.084
G2 X3.6846 Y3.0474 I-0.0625 J0
G2 X3.6781 Y3.0397 I-0.0506 J0.0367
G1 X3.678 Y3.0405
G1 X3.678 Y3.0408
G1 X3.6772 Y3.0409
G1 X3.6766 Y3.0407
G1 X3.677 Y3.0411
G2 X3.6846 Y3.0474 I0.0435 J-0.0449
G2 X3.7205 Y3.0587 I0.0359 J-0.0512
G1 X4.1767 Y3.0587
G2 X4.2148 Y3.0457 I-0.0001 J-0.0625
G2 X4.2014 Y3.084 I0.0491 J0.0386
G1 X4.2014 Y3.3719
G2 X4.2639 Y3.4344 I0.0625 J0
G1 X4.9865 Y3.4344
G2 X5.049 Y3.3719 I0 J-0.0625
G1 X5.049 Y2.0095
G1 X5.049 Y1.7595
G1 X5.049 Y0.5007
G2 X4.9865 Y0.4382 I-0.0625 J0
G1 X2.8761 Y0.4382
G1 X2.6261 Y0.4382
G1 X0.5007 Y0.4382
G1 Z-0.09 F10
G2 X0.4382 Y0.5007 I0 J0.0625 F30
G1 X0.4382 Y1.8945
G1 X0.4382 Y2.1611
G1 X0.4382 Y3.3719
G2 X0.5007 Y3.4344 I0.0625 J0
G1 X1.0906 Y3.4344
G2 X1.1531 Y3.3719 I0 J-0.0625
G1 X1.1531 Y3.0826
G2 X1.1401 Y3.0444 I-0.0625 J0
G2 X1.1788 Y3.0587 I0.0397 J-0.0483
G1 X1.6326 Y3.0587
G2 X1.6699 Y3.0463 I0 J-0.0625
G2 X1.6771 Y3.0401 I-0.0373 J-0.0501
G2 X1.6761 Y3.0401 I-0.0005 J0.0024
G1 X1.6761 Y3.0399
G1 X1.6761 Y3.0398
G1 X1.6761 Y3.0393
G1 X1.6761 Y3.039
G2 X1.6699 Y3.0463 I0.0444 J0.044
G2 X1.658 Y3.083 I0.0506 J0.0367
G1 X1.658 Y3.3719
G2 X1.7205 Y3.4344 I0.0625 J0
G1 X2.644 Y3.4344
G1 X2.9013 Y3.4344
G1 X3.634 Y3.4344
G2 X3.6965 Y3.3719 I0 J-0.0625
G1 X3.6965 Y3.084
G2 X3.6846 Y3.0474 I-0.0625 J0
G2 X3.6781 Y3.0397 I-0.0506 J0.0367
G1 X3.678 Y3.0405
G1 X3.678 Y3.0408
G1 X3.6772 Y3.0409
G1 X3.6766 Y3.0407
G1 X3.677 Y3.0411
G2 X3.6846 Y3.0474 I0.0435 J-0.0449
G2 X3.7205 Y3.0587 I0.0359 J-0.0512
G1 X4.1767 Y3.0587
G2 X4.2148 Y3.0457 I-0.0001 J-0.0625
G2 X4.2014 Y3.084 I0.0491 J0.0386
G1 X4.2014 Y3.3719
G2 X4.2639 Y3.4344 I0.0625 J0
G1 X4.9865 Y3.4344
G2 X5.049 Y3.3719 I0 J-0.0625
G1 X5.049 Y2.0095
G1 X5.049 Y1.7595
G1 X5.049 Y0.5007
G2 X4.9865 Y0.4382 I-0.0625 J0
G1 X2.8761 Y0.4382
G1 X2.6261 Y0.4382
G1 X0.5007 Y0.4382
G1 Z-0.12 F10
G2 X0.4382 Y0.5007 I0 J0.0625 F30
G1 X0.4382 Y1.8945
G1 X0.4382 Y2.1611
G1 X0.4382 Y3.3719
G2 X0.5007 Y3.4344 I0.0625 J0
G1 X1.0906 Y3.4344
G2 X1.1531 Y3.3719 I0 J-0.0625
G1 X1.1531 Y3.0826
G2 X1.1401 Y3.0444 I-0.0625 J0
G2 X1.1788 Y3.0587 I0.0397 J-0.0483
G1 X1.6326 Y3.0587
G2 X1.6699 Y3.0463 I0 J-0.0625
G2 X1.6771 Y3.0401 I-0.0373 J-0.0501
G2 X1.6761 Y3.0401 I-0.0005 J0.0024
G1 X1.6761 Y3.0399
G1 X1.6761 Y3.0398
G1 X1.6761 Y3.0393
G1 X1.6761 Y3.039
G2 X1.6699 Y3.0463 I0.0444 J0.044
G2 X1.658 Y3.083 I0.0506 J0.0367
G1 X1.658 Y3.3719
G2 X1.7205 Y3.4344 I0.0625 J0
G1 X2.644 Y3.4344
G1 X2.9013 Y3.4344
G1 X3.634 Y3.4344
G2 X3.6965 Y3.3719 I0 J-0.0625
G1 X3.6965 Y3.084
G2 X3.6846 Y3.0474 I-0.0625 J0
G2 X3.6781 Y3.0397 I-0.0506 J0.0367
G1 X3.678 Y3.0405
G1 X3.678 Y3.0408
G1 X3.6772 Y3.0409
G1 X3.6766 Y3.0407
G1 X3.677 Y3.0411
G2 X3.6846 Y3.0474 I0.0435 J-0.0449
G2 X3.7205 Y3.0587 I0.0359 J-0.0512
G1 X4.1767 Y3.0587
G2 X4.2148 Y3.0457 I-0.0001 J-0.0625
G2 X4.2014 Y3.084 I0.0491 J0.0386
G1 X4.2014 Y3.3719
G2 X4.2639 Y3.4344 I0.0625 J0
G1 X4.9865 Y3.4344
G2 X5.049 Y3.3719 I0 J-0.0625
G1 X5.049 Y2.0095
G1 X5.049 Y1.7595
G1 X5.049 Y0.5007
G2 X4.9865 Y0.4382 I-0.0625 J0
G1 X2.8761 Y0.4382
G1 X2.6261 Y0.4382
G1 X0.5007 Y0.4382
G1 Z-0.15 F10
G2 X0.4382 Y0.5007 I0 J0.0625 F30
G1 X0.4382 Y1.8945
G1 X0.4382 Y2.1611
G1 X0.4382 Y3.3719
G2 X0.5007 Y3.4344 I0.0625 J0
G1 X1.0906 Y3.4344
G2 X1.1531 Y3.3719 I0 J-0.0625
G1 X1.1531 Y3.0826
G2 X1.1401 Y3.0444 I-0.0625 J0
G2 X1.1788 Y3.0587 I0.0397 J-0.0483
G1 X1.6326 Y3.0587
G2 X1.6699 Y3.0463 I0 J-0.0625
G2 X1.6771 Y3.0401 I-0.0373 J-0.0501
G2 X1.6761 Y3.0401 I-0.0005 J0.0024
G1 X1.6761 Y3.0399
G1 X1.6761 Y3.0398
G1 X1.6761 Y3.0393
G1 X1.6761 Y3.039
G2 X1.6699 Y3.0463 I0.0444 J0.044
G2 X1.658 Y3.083 I0.0506 J0.0367
G1 X1.658 Y3.3719
G2 X1.7205 Y3.4344 I0.0625 J0
G1 X2.644 Y3.4344
G1 X2.9013 Y3.4344
G1 X3.634 Y3.4344
G2 X3.6965 Y3.3719 I0 J-0.0625
G1 X3.6965 Y3.084
G2 X3.6846 Y3.0474 I-0.0625 J0
G2 X3.6781 Y3.0397 I-0.0506 J0.0367
G1 X3.678 Y3.0405
G1 X3.678 Y3.0408
G1 X3.6772 Y3.0409
G1 X3.6766 Y3.0407
G1 X3.677 Y3.0411
G2 X3.6846 Y3.0474 I0.0435 J-0.0449
G2 X3.7205 Y3.0587 I0.0359 J-0.0512
G1 X4.1767 Y3.0587
G2 X4.2148 Y3.0457 I-0.0001 J-0.0625
G2 X4.2014 Y3.084 I0.0491 J0.0386
G1 X4.2014 Y3.3719
G2 X4.2639 Y3.4344 I0.0625 J0
G1 X4.9865 Y3.4344
G2 X5.049 Y3.3719 I0 J-0.0625
G1 X5.049 Y2.0095
G1 X5.049 Y1.7595
G1 X5.049 Y0.5007
G2 X4.9865 Y0.4382 I-0.0625 J0
G1 X2.8761 Y0.4382
G1 X2.6261 Y0.4382
G1 X0.5007 Y0.4382
G1 Z-0.18 F10
G2 X0.4382 Y0.5007 I0 J0.0625 F30
G1 X0.4382 Y1.8945
G1 X0.4382 Y2.1611
G1 X0.4382 Y3.3719
G2 X0.5007 Y3.4344 I0.0625 J0
G1 X1.0906 Y3.4344
G2 X1.1531 Y3.3719 I0 J-0.0625
G1 X1.1531 Y3.0826
G2 X1.1401 Y3.0444 I-0.0625 J0
G2 X1.1788 Y3.0587 I0.0397 J-0.0483
G1 X1.6326 Y3.0587
G2 X1.6699 Y3.0463 I0 J-0.0625
G2 X1.6771 Y3.0401 I-0.0373 J-0.0501
G2 X1.6761 Y3.0401 I-0.0005 J0.0024
G1 X1.6761 Y3.0399
G1 X1.6761 Y3.0398
G1 X1.6761 Y3.0393
G1 X1.6761 Y3.039
G2 X1.6699 Y3.0463 I0.0444 J0.044
G2 X1.658 Y3.083 I0.0506 J0.0367
G1 X1.658 Y3.3719
G2 X1.7205 Y3.4344 I0.0625 J0
G1 X2.644 Y3.4344
G1 X2.9013 Y3.4344
G1 X3.634 Y3.4344
G2 X3.6965 Y3.3719 I0 J-0.0625
G1 X3.6965 Y3.084
G2 X3.6846 Y3.0474 I-0.0625 J0
G2 X3.6781 Y3.0397 I-0.0506 J0.0367
G1 X3.678 Y3.0405
G1 X3.678 Y3.0408
G1 X3.6772 Y3.0409
G1 X3.6766 Y3.0407
G1 X3.677 Y3.0411
G2 X3.6846 Y3.0474 I0.0435 J-0.0449
G2 X3.7205 Y3.0587 I0.0359 J-0.0512
G1 X4.1767 Y3.0587
G2 X4.2148 Y3.0457 I-0.0001 J-0.0625
G2 X4.2014 Y3.084 I0.0491 J0.0386
G1 X4.2014 Y3.3719
G2 X4.2639 Y3.4344 I0.0625 J0
G1 X4.9865 Y3.4344
G2 X5.049 Y3.3719 I0 J-0.0625
G1 X5.049 Y2.0095
G1 X5.049 Y1.7595
G1 X5.049 Y0.5007
G2 X4.9865 Y0.4382 I-0.0625 J0
G1 X2.8761 Y0.4382
G1 X2.6261 Y0.4382
G1 X0.5007 Y0.4382
G1 Z-0.21 F10
G2 X0.4382 Y0.5007 I0 J0.0625 F30
G1 X0.4382 Y1.8945
G1 X0.4382 Y2.1611
G1 X0.4382 Y3.3719
G2 X0.5007 Y3.4344 I0.0625 J0
G1 X1.0906 Y3.4344
G2 X1.1531 Y3.3719 I0 J-0.0625
G1 X1.1531 Y3.0826
G2 X1.1401 Y3.0444 I-0.0625 J0
G2 X1.1788 Y3.0587 I0.0397 J-0.0483
G1 X1.6326 Y3.0587
G2 X1.6699 Y3.0463 I0 J-0.0625
G2 X1.6771 Y3.0401 I-0.0373 J-0.0501
G2 X1.6761 Y3.0401 I-0.0005 J0.0024
G1 X1.6761 Y3.0399
G1 X1.6761 Y3.0398
G1 X1.6761 Y3.0393
G1 X1.6761 Y3.039
G2 X1.6699 Y3.0463 I0.0444 J0.044
G2 X1.658 Y3.083 I0.0506 J0.0367
G1 X1.658 Y3.3719
G2 X1.7205 Y3.4344 I0.0625 J0
G1 X2.644 Y3.4344
G1 X2.9013 Y3.4344
G1 X3.634 Y3.4344
G2 X3.6965 Y3.3719 I0 J-0.0625
G1 X3.6965 Y3.084
G2 X3.6846 Y3.0474 I-0.0625 J0
G2 X3.6781 Y3.0397 I-0.0506 J0.0367
G1 X3.678 Y3.0405
G1 X3.678 Y3.0408
G1 X3.6772 Y3.0409
G1 X3.6766 Y3.0407
G1 X3.677 Y3.0411
G2 X3.6846 Y3.0474 I0.0435 J-0.0449
G2 X3.7205 Y3.0587 I0.0359 J-0.0512
G1 X4.1767 Y3.0587
G2 X4.2148 Y3.0457 I-0.0001 J-0.0625
G2 X4.2014 Y3.084 I0.0491 J0.0386
G1 X4.2014 Y3.3719
G2 X4.2639 Y3.4344 I0.0625 J0
G1 X4.9865 Y3.4344
G2 X5.049 Y3.3719 I0 J-0.0625
G1 X5.049 Y2.0095
G1 X5.049 Y1.7595
G1 X5.049 Y0.5007
G2 X4.9865 Y0.4382 I-0.0625 J0
G1 X2.8761 Y0.4382
G1 X2.6261 Y0.4382
G1 X0.5007 Y0.4382
G1 Z-0.24 F10
G2 X0.4382 Y0.5007 I0 J0.0625 F30
G1 X0.4382 Y1.8945
G1 X0.4382 Y2.1611
G1 X0.4382 Y3.3719
G2 X0.5007 Y3.4344 I0.0625 J0
G1 X1.0906 Y3.4344
G2 X1.1531 Y3.3719 I0 J-0.0625
G1 X1.1531 Y3.0826
G2 X1.1401 Y3.0444 I-0.0625 J0
G2 X1.1788 Y3.0587 I0.0397 J-0.0483
G1 X1.6326 Y3.0587
G2 X1.6699 Y3.0463 I0 J-0.0625
G2 X1.6771 Y3.0401 I-0.0373 J-0.0501
G2 X1.6761 Y3.0401 I-0.0005 J0.0024
G1 X1.6761 Y3.0399
G1 X1.6761 Y3.0398
G1 X1.6761 Y3.0393
G1 X1.6761 Y3.039
G2 X1.6699 Y3.0463 I0.0444 J0.044
G2 X1.658 Y3.083 I0.0506 J0.0367
G1 X1.658 Y3.3719
G2 X1.7205 Y3.4344 I0.0625 J0
G1 X2.644 Y3.4344
G1 X2.9013 Y3.4344
G1 X3.634 Y3.4344
G2 X3.6965 Y3.3719 I0 J-0.0625
G1 X3.6965 Y3.084
G2 X3.6846 Y3.0474 I-0.0625 J0
G2 X3.6781 Y3.0397 I-0.0506 J0.0367
G1 X3.678 Y3.0405
G1 X3.678 Y3.0408
G1 X3.6772 Y3.0409
G1 X3.6766 Y3.0407
G1 X3.677 Y3.0411
G2 X3.6846 Y3.0474 I0.0435 J-0.0449
G2 X3.7205 Y3.0587 I0.0359 J-0.0512
G1 X4.1767 Y3.0587
G2 X4.2148 Y3.0457 I-0.0001 J-0.0625
G2 X4.2014 Y3.084 I0.0491 J0.0386
G1 X4.2014 Y3.3719
G2 X4.2639 Y3.4344 I0.0625 J0
G1 X4.9865 Y3.4344
G2 X5.049 Y3.3719 I0 J-0.0625
G1 X5.049 Y2.0095
G1 X5.049 Y1.7595
G1 X5.049 Y0.5007
G2 X4.9865 Y0.4382 I-0.0625 J0
G1 X2.8761 Y0.4382
G1 X2.6261 Y0.4382
G1 X0.5007 Y0.4382
G1 Z-0.27 F10
G2 X0.4382 Y0.5007 I0 J0.0625 F30
G1 X0.4382 Y1.8945
G1 X0.4382 Y2.1611
G1 X0.4382 Y3.3719
G2 X0.5007 Y3.4344 I0.0625 J0
G1 X1.0906 Y3.4344
G2 X1.1531 Y3.3719 I0 J-0.0625
G1 X1.1531 Y3.0826
G2 X1.1401 Y3.0444 I-0.0625 J0
G2 X1.1788 Y3.0587 I0.0397 J-0.0483
G1 X1.6326 Y3.0587
G2 X1.6699 Y3.0463 I0 J-0.0625
G2 X1.6771 Y3.0401 I-0.0373 J-0.0501
G2 X1.6761 Y3.0401 I-0.0005 J0.0024
G1 X1.6761 Y3.0399
G1 X1.6761 Y3.0398
G1 X1.6761 Y3.0393
G1 X1.6761 Y3.039
G2 X1.6699 Y3.0463 I0.0444 J0.044
G2 X1.658 Y3.083 I0.0506 J0.0367
G1 X1.658 Y3.3719
G2 X1.7205 Y3.4344 I0.0625 J0
G1 X2.644 Y3.4344
G1 X2.9013 Y3.4344
G1 X3.634 Y3.4344
G2 X3.6965 Y3.3719 I0 J-0.0625
G1 X3.6965 Y3.084
G2 X3.6846 Y3.0474 I-0.0625 J0
G2 X3.6781 Y3.0397 I-0.0506 J0.0367
G1 X3.678 Y3.0405
G1 X3.678 Y3.0408
G1 X3.6772 Y3.0409
G1 X3.6766 Y3.0407
G1 X3.677 Y3.0411
G2 X3.6846 Y3.0474 I0.0435 J-0.0449
G2 X3.7205 Y3.0587 I0.0359 J-0.0512
G1 X4.1767 Y3.0587
G2 X4.2148 Y3.0457 I-0.0001 J-0.0625
G2 X4.2014 Y3.084 I0.0491 J0.0386
G1 X4.2014 Y3.3719
G2 X4.2639 Y3.4344 I0.0625 J0
G1 X4.9865 Y3.4344
G2 X5.049 Y3.3719 I0 J-0.0625
G1 X5.049 Y2.0095
G1 X5.049 Y1.7595
G1 X5.049 Y0.5007
G2 X4.9865 Y0.4382 I-0.0625 J0
G1 X2.8761 Y0.4382
G1 X2.6261 Y0.4382
G1 X0.5007 Y0.4382
G1 Z-0.3 F10
G2 X0.4382 Y0.5007 I0 J0.0625 F30
G1 X0.4382 Y1.8945
G1 X0.4382 Y2.1611
G1 X0.4382 Y3.3719
G2 X0.5007 Y3.4344 I0.0625 J0
G1 X1.0906 Y3.4344
G2 X1.1531 Y3.3719 I0 J-0.0625
G1 X1.1531 Y3.0826
G2 X1.1401 Y3.0444 I-0.0625 J0
G2 X1.1788 Y3.0587 I0.0397 J-0.0483
G1 X1.6326 Y3.0587
G2 X1.6699 Y3.0463 I0 J-0.0625
G2 X1.6771 Y3.0401 I-0.0373 J-0.0501
G2 X1.6761 Y3.0401 I-0.0005 J0.0024
G1 X1.6761 Y3.0399
G1 X1.6761 Y3.0398
G1 X1.6761 Y3.0393
G1 X1.6761 Y3.039
G2 X1.6699 Y3.0463 I0.0444 J0.044
G2 X1.658 Y3.083 I0.0506 J0.0367
G1 X1.658 Y3.3719
G2 X1.7205 Y3.4344 I0.0625 J0
G1 X2.644 Y3.4344
G1 X2.9013 Y3.4344
G1 X3.634 Y3.4344
G2 X3.6965 Y3.3719 I0 J-0.0625
G1 X3.6965 Y3.084
G2 X3.6846 Y3.0474 I-0.0625 J0
G2 X3.6781 Y3.0397 I-0.0506 J0.0367
G1 X3.678 Y3.0405
G1 X3.678 Y3.0408
G1 X3.6772 Y3.0409
G1 X3.6766 Y3.0407
G1 X3.677 Y3.0411
G2 X3.6846 Y3.0474 I0.0435 J-0.0449
G2 X3.7205 Y3.0587 I0.0359 J-0.0512
G1 X4.1767 Y3.0587
G2 X4.2148 Y3.0457 I-0.0001 J-0.0625
G2 X4.2014 Y3.084 I0.0491 J0.0386
G1 X4.2014 Y3.3719
G2 X4.2639 Y3.4344 I0.0625 J0
G1 X4.9865 Y3.4344
G2 X5.049 Y3.3719 I0 J-0.0625
G1 X5.049 Y2.0095
G1 X5.049 Y1.7595
G1 X5.049 Y0.5007
G2 X4.9865 Y0.4382 I-0.0625 J0
G1 X2.8761 Y0.4382
G1 X2.6261 Y0.4382
G1 X0.5007 Y0.4382
G1 Z-0.33 F10
G2 X0.4382 Y0.5007 I0 J0.0625 F30
G1 X0.4382 Y1.8945
G1 X0.4382 Y2.1611
G1 X0.4382 Y3.3719
G2 X0.5007 Y3.4344 I0.0625 J0
G1 X1.0906 Y3.4344
G2 X1.1531 Y3.3719 I0 J-0.0625
G1 X1.1531 Y3.0826
G2 X1.1401 Y3.0444 I-0.0625 J0
G2 X1.1788 Y3.0587 I0.0397 J-0.0483
G1 X1.6326 Y3.0587
G2 X1.6699 Y3.0463 I0 J-0.0625
G2 X1.6771 Y3.0401 I-0.0373 J-0.0501
G2 X1.6761 Y3.0401 I-0.0005 J0.0024
G1 X1.6761 Y3.0399
G1 X1.6761 Y3.0398
G1 X1.6761 Y3.0393
G1 X1.6761 Y3.039
G2 X1.6699 Y3.0463 I0.0444 J0.044
G2 X1.658 Y3.083 I0.0506 J0.0367
G1 X1.658 Y3.3719
G2 X1.7205 Y3.4344 I0.0625 J0
G1 X2.644 Y3.4344
G1 X2.9013 Y3.4344
G1 X3.634 Y3.4344
G2 X3.6965 Y3.3719 I0 J-0.0625
G1 X3.6965 Y3.084
G2 X3.6846 Y3.0474 I-0.0625 J0
G2 X3.6781 Y3.0397 I-0.0506 J0.0367
G1 X3.678 Y3.0405
G1 X3.678 Y3.0408
G1 X3.6772 Y3.0409
G1 X3.6766 Y3.0407
G1 X3.677 Y3.0411
G2 X3.6846 Y3.0474 I0.0435 J-0.0449
G2 X3.7205 Y3.0587 I0.0359 J-0.0512
G1 X4.1767 Y3.0587
G2 X4.2148 Y3.0457 I-0.0001 J-0.0625
G2 X4.2014 Y3.084 I0.0491 J0.0386
G1 X4.2014 Y3.3719
G2 X4.2639 Y3.4344 I0.0625 J0
G1 X4.9865 Y3.4344
G2 X5.049 Y3.3719 I0 J-0.0625
G1 X5.049 Y2.0095
G1 X5.049 Y1.7595
G1 X5.049 Y0.5007
G2 X4.9865 Y0.4382 I-0.0625 J0
G1 X2.8761 Y0.4382
G1 X2.6261 Y0.4382
G1 X0.5007 Y0.4382
G1 Z-0.36 F10
G2 X0.4382 Y0.5007 I0 J0.0625 F30
G1 X0.4382 Y1.8945
G1 X0.4382 Y2.1611
G1 X0.4382 Y3.3719
G2 X0.5007 Y3.4344 I0.0625 J0
G1 X1.0906 Y3.4344
G2 X1.1531 Y3.3719 I0 J-0.0625
G1 X1.1531 Y3.0826
G2 X1.1401 Y3.0444 I-0.0625 J0
G2 X1.1788 Y3.0587 I0.0397 J-0.0483
G1 X1.6326 Y3.0587
G2 X1.6699 Y3.0463 I0 J-0.0625
G2 X1.6771 Y3.0401 I-0.0373 J-0.0501
G2 X1.6761 Y3.0401 I-0.0005 J0.0024
G1 X1.6761 Y3.0399
G1 X1.6761 Y3.0398
G1 X1.6761 Y3.0393
G1 X1.6761 Y3.039
G2 X1.6699 Y3.0463 I0.0444 J0.044
G2 X1.658 Y3.083 I0.0506 J0.0367
G1 X1.658 Y3.3719
G2 X1.7205 Y3.4344 I0.0625 J0
G1 X2.644 Y3.4344
G1 X2.9013 Y3.4344
G1 X3.634 Y3.4344
G2 X3.6965 Y3.3719 I0 J-0.0625
G1 X3.6965 Y3.084
G2 X3.6846 Y3.0474 I-0.0625 J0
G2 X3.6781 Y3.0397 I-0.0506 J0.0367
G1 X3.678 Y3.0405
G1 X3.678 Y3.0408
G1 X3.6772 Y3.0409
G1 X3.6766 Y3.0407
G1 X3.677 Y3.0411
G2 X3.6846 Y3.0474 I0.0435 J-0.0449
G2 X3.7205 Y3.0587 I0.0359 J-0.0512
G1 X4.1767 Y3.0587
G2 X4.2148 Y3.0457 I-0.0001 J-0.0625
G2 X4.2014 Y3.084 I0.0491 J0.0386
G1 X4.2014 Y3.3719
G2 X4.2639 Y3.4344 I0.0625 J0
G1 X4.9865 Y3.4344
G2 X5.049 Y3.3719 I0 J-0.0625
G1 X5.049 Y2.0095
G1 X5.049 Y1.7595
G1 X5.049 Y0.5007
G2 X4.9865 Y0.4382 I-0.0625 J0
G1 X2.8761 Y0.4382
G1 X2.6261 Y0.4382
G1 X0.5007 Y0.4382
G1 Z-0.39 F10
G2 X0.4382 Y0.5007 I0 J0.0625 F30
G1 X0.4382 Y1.8945
G1 X0.4382 Y2.1611
G1 X0.4382 Y3.3719
G2 X0.5007 Y3.4344 I0.0625 J0
G1 X1.0906 Y3.4344
G2 X1.1531 Y3.3719 I0 J-0.0625
G1 X1.1531 Y3.0826
G2 X1.1401 Y3.0444 I-0.0625 J0
G2 X1.1788 Y3.0587 I0.0397 J-0.0483
G1 X1.6326 Y3.0587
G2 X1.6699 Y3.0463 I0 J-0.0625
G2 X1.6771 Y3.0401 I-0.0373 J-0.0501
G2 X1.6761 Y3.0401 I-0.0005 J0.0024
G1 X1.6761 Y3.0399
G1 X1.6761 Y3.0398
G1 X1.6761 Y3.0393
G1 X1.6761 Y3.039
G2 X1.6699 Y3.0463 I0.0444 J0.044
G2 X1.658 Y3.083 I0.0506 J0.0367
G1 X1.658 Y3.3719
G2 X1.7205 Y3.4344 I0.0625 J0
G1 X2.644 Y3.4344
G1 X2.9013 Y3.4344
G1 X3.634 Y3.4344
G2 X3.6965 Y3.3719 I0 J-0.0625
G1 X3.6965 Y3.084
G2 X3.6846 Y3.0474 I-0.0625 J0
G2 X3.6781 Y3.0397 I-0.0506 J0.0367
G1 X3.678 Y3.0405
G1 X3.678 Y3.0408
G1 X3.6772 Y3.0409
G1 X3.6766 Y3.0407
G1 X3.677 Y3.0411
G2 X3.6846 Y3.0474 I0.0435 J-0.0449
G2 X3.7205 Y3.0587 I0.0359 J-0.0512
G1 X4.1767 Y3.0587
G2 X4.2148 Y3.0457 I-0.0001 J-0.0625
G2 X4.2014 Y3.084 I0.0491 J0.0386
G1 X4.2014 Y3.3719
G2 X4.2639 Y3.4344 I0.0625 J0
G1 X4.9865 Y3.4344
G2 X5.049 Y3.3719 I0 J-0.0625
G1 X5.049 Y2.0095
G1 X5.049 Y1.7595
G1 X5.049 Y0.5007
G2 X4.9865 Y0.4382 I-0.0625 J0
G1 X2.8761 Y0.4382
G1 X2.6261 Y0.4382
G1 X0.5007 Y0.4382
G1 Z-0.42 F10
G2 X0.4382 Y0.5007 I0 J0.0625 F30
G1 X0.4382 Y1.8945
G1 X0.4382 Y2.1611
G1 X0.4382 Y3.3719
G2 X0.5007 Y3.4344 I0.0625 J0
G1 X1.0906 Y3.4344
G2 X1.1531 Y3.3719 I0 J-0.0625
G1 X1.1531 Y3.0826
G2 X1.1401 Y3.0444 I-0.0625 J0
G2 X1.1788 Y3.0587 I0.0397 J-0.0483
G1 X1.6326 Y3.0587
G2 X1.6699 Y3.0463 I0 J-0.0625
G2 X1.6771 Y3.0401 I-0.0373 J-0.0501
G2 X1.6761 Y3.0401 I-0.0005 J0.0024
G1 X1.6761 Y3.0399
G1 X1.6761 Y3.0398
G1 X1.6761 Y3.0393
G1 X1.6761 Y3.039
G2 X1.6699 Y3.0463 I0.0444 J0.044
G2 X1.658 Y3.083 I0.0506 J0.0367
G1 X1.658 Y3.3719
G2 X1.7205 Y3.4344 I0.0625 J0
G1 X2.644 Y3.4344
G1 X2.9013 Y3.4344
G1 X3.634 Y3.4344
G2 X3.6965 Y3.3719 I0 J-0.0625
G1 X3.6965 Y3.084
G2 X3.6846 Y3.0474 I-0.0625 J0
G2 X3.6781 Y3.0397 I-0.0506 J0.0367
G1 X3.678 Y3.0405
G1 X3.678 Y3.0408
G1 X3.6772 Y3.0409
G1 X3.6766 Y3.0407
G1 X3.677 Y3.0411
G2 X3.6846 Y3.0474 I0.0435 J-0.0449
G2 X3.7205 Y3.0587 I0.0359 J-0.0512
G1 X4.1767 Y3.0587
G2 X4.2148 Y3.0457 I-0.0001 J-0.0625
G2 X4.2014 Y3.084 I0.0491 J0.0386
G1 X4.2014 Y3.3719
G2 X4.2639 Y3.4344 I0.0625 J0
G1 X4.9865 Y3.4344
G2 X5.049 Y3.3719 I0 J-0.0625
G1 X5.049 Y2.0095
G1 X5.049 Y1.7595
G1 X5.049 Y0.5007
G2 X4.9865 Y0.4382 I-0.0625 J0
G1 X2.8761 Y0.4382
G1 X2.6261 Y0.4382
G1 X0.5007 Y0.4382
G1 Z-0.45 F10
G2 X0.4382 Y0.5007 I0 J0.0625 F30
G1 X0.4382 Y1.8945
G1 X0.4382 Y2.1611
G1 X0.4382 Y3.3719
G2 X0.5007 Y3.4344 I0.0625 J0
G1 X1.0906 Y3.4344
G2 X1.1531 Y3.3719 I0 J-0.0625
G1 X1.1531 Y3.0826
G2 X1.1401 Y3.0444 I-0.0625 J0
G2 X1.1788 Y3.0587 I0.0397 J-0.0483
G1 X1.6326 Y3.0587
G2 X1.6699 Y3.0463 I0 J-0.0625
G2 X1.6771 Y3.0401 I-0.0373 J-0.0501
G2 X1.6761 Y3.0401 I-0.0005 J0.0024
G1 X1.6761 Y3.0399
G1 X1.6761 Y3.0398
G1 X1.6761 Y3.0393
G1 X1.6761 Y3.039
G2 X1.6699 Y3.0463 I0.0444 J0.044
G2 X1.658 Y3.083 I0.0506 J0.0367
G1 X1.658 Y3.3719
G2 X1.7205 Y3.4344 I0.0625 J0
G1 X2.644 Y3.4344
G1 X2.9013 Y3.4344
G1 X3.634 Y3.4344
G2 X3.6965 Y3.3719 I0 J-0.0625
G1 X3.6965 Y3.084
G2 X3.6846 Y3.0474 I-0.0625 J0
G2 X3.6781 Y3.0397 I-0.0506 J0.0367
G1 X3.678 Y3.0405
G1 X3.678 Y3.0408
G1 X3.6772 Y3.0409
G1 X3.6766 Y3.0407
G1 X3.677 Y3.0411
G2 X3.6846 Y3.0474 I0.0435 J-0.0449
G2 X3.7205 Y3.0587 I0.0359 J-0.0512
G1 X4.1767 Y3.0587
G2 X4.2148 Y3.0457 I-0.0001 J-0.0625
G2 X4.2014 Y3.084 I0.0491 J0.0386
G1 X4.2014 Y3.3719
G2 X4.2639 Y3.4344 I0.0625 J0
G1 X4.9865 Y3.4344
G2 X5.049 Y3.3719 I0 J-0.0625
G1 X5.049 Y2.0095
G1 X5.049 Y1.7595
G1 X5.049 Y0.5007
G2 X4.9865 Y0.4382 I-0.0625 J0
G1 X2.8761 Y0.4382
G1 X2.6261 Y0.4382
G1 X0.5007 Y0.4382
G1 Z-0.48 F10
G2 X0.4382 Y0.5007 I0 J0.0625 F30
G1 X0.4382 Y1.8945
G1 X0.4382 Y2.1611
G1 X0.4382 Y3.3719
G2 X0.5007 Y3.4344 I0.0625 J0
G1 X1.0906 Y3.4344
G2 X1.1531 Y3.3719 I0 J-0.0625
G1 X1.1531 Y3.0826
G2 X1.1401 Y3.0444 I-0.0625 J0
G2 X1.1788 Y3.0587 I0.0397 J-0.0483
G1 X1.6326 Y3.0587
G2 X1.6699 Y3.0463 I0 J-0.0625
G2 X1.6771 Y3.0401 I-0.0373 J-0.0501
G2 X1.6761 Y3.0401 I-0.0005 J0.0024
G1 X1.6761 Y3.0399
G1 X1.6761 Y3.0398
G1 X1.6761 Y3.0393
G1 X1.6761 Y3.039
G2 X1.6699 Y3.0463 I0.0444 J0.044
G2 X1.658 Y3.083 I0.0506 J0.0367
G1 X1.658 Y3.3719
G2 X1.7205 Y3.4344 I0.0625 J0
G1 X2.644 Y3.4344
G1 X2.9013 Y3.4344
G1 X3.634 Y3.4344
G2 X3.6965 Y3.3719 I0 J-0.0625
G1 X3.6965 Y3.084
G2 X3.6846 Y3.0474 I-0.0625 J0
G2 X3.6781 Y3.0397 I-0.0506 J0.0367
G1 X3.678 Y3.0405
G1 X3.678 Y3.0408
G1 X3.6772 Y3.0409
G1 X3.6766 Y3.0407
G1 X3.677 Y3.0411
G2 X3.6846 Y3.0474 I0.0435 J-0.0449
G2 X3.7205 Y3.0587 I0.0359 J-0.0512
G1 X4.1767 Y3.0587
G2 X4.2148 Y3.0457 I-0.0001 J-0.0625
G2 X4.2014 Y3.084 I0.0491 J0.0386
G1 X4.2014 Y3.3719
G2 X4.2639 Y3.4344 I0.0625 J0
G1 X4.9865 Y3.4344
G2 X5.049 Y3.3719 I0 J-0.0625
G1 X5.049 Y2.0095
G1 X5.049 Y1.7595
G1 X5.049 Y0.5007
G2 X4.9865 Y0.4382 I-0.0625 J0
G1 X2.8761 Y0.4382
G1 X2.6261 Y0.4382
G1 X0.5007 Y0.4382
G1 Z-0.51 F10
G2 X0.4382 Y0.5007 I0 J0.0625 F30
G1 X0.4382 Y1.8945
G1 X0.4382 Y2.1611
G1 X0.4382 Y3.3719
G2 X0.5007 Y3.4344 I0.0625 J0
G1 X1.0906 Y3.4344
G2 X1.1531 Y3.3719 I0 J-0.0625
G1 X1.1531 Y3.0826
G2 X1.1401 Y3.0444 I-0.0625 J0
G2 X1.1788 Y3.0587 I0.0397 J-0.0483
G1 X1.6326 Y3.0587
G2 X1.6699 Y3.0463 I0 J-0.0625
G2 X1.6771 Y3.0401 I-0.0373 J-0.0501
G2 X1.6761 Y3.0401 I-0.0005 J0.0024
G1 X1.6761 Y3.0399
G1 X1.6761 Y3.0398
G1 X1.6761 Y3.0393
G1 X1.6761 Y3.039
G2 X1.6699 Y3.0463 I0.0444 J0.044
G2 X1.658 Y3.083 I0.0506 J0.0367
G1 X1.658 Y3.3719
G2 X1.7205 Y3.4344 I0.0625 J0
G1 X2.644 Y3.4344
G1 X2.9013 Y3.4344
G1 X3.634 Y3.4344
G2 X3.6965 Y3.3719 I0 J-0.0625
G1 X3.6965 Y3.084
G2 X3.6846 Y3.0474 I-0.0625 J0
G2 X3.6781 Y3.0397 I-0.0506 J0.0367
G1 X3.678 Y3.0405
G1 X3.678 Y3.0408
G1 X3.6772 Y3.0409
G1 X3.6766 Y3.0407
G1 X3.677 Y3.0411
G2 X3.6846 Y3.0474 I0.0435 J-0.0449
G2 X3.7205 Y3.0587 I0.0359 J-0.0512
G1 X4.1767 Y3.0587
G2 X4.2148 Y3.0457 I-0.0001 J-0.0625
G2 X4.2014 Y3.084 I0.0491 J0.0386
G1 X4.2014 Y3.3719
G2 X4.2639 Y3.4344 I0.0625 J0
G1 X4.9865 Y3.4344
G2 X5.049 Y3.3719 I0 J-0.0625
G1 X5.049 Y2.0095
G1 X5.049 Y1.7595
G1 X5.049 Y0.5007
G2 X4.9865 Y0.4382 I-0.0625 J0
G1 X2.8761 Y0.4382
G1 X2.6261 Y0.4382
G1 X0.5007 Y0.4382
G1 Z-0.54 F10
G2 X0.4382 Y0.5007 I0 J0.0625 F30
G1 X0.4382 Y1.8945
G1 X0.4382 Y2.1611
G1 X0.4382 Y3.3719
G2 X0.5007 Y3.4344 I0.0625 J0
G1 X1.0906 Y3.4344
G2 X1.1531 Y3.3719 I0 J-0.0625
G1 X1.1531 Y3.0826
G2 X1.1401 Y3.0444 I-0.0625 J0
G2 X1.1788 Y3.0587 I0.0397 J-0.0483
G1 X1.6326 Y3.0587
G2 X1.6699 Y3.0463 I0 J-0.0625
G2 X1.6771 Y3.0401 I-0.0373 J-0.0501
G2 X1.6761 Y3.0401 I-0.0005 J0.0024
G1 X1.6761 Y3.0399
G1 X1.6761 Y3.0398
G1 X1.6761 Y3.0393
G1 X1.6761 Y3.039
G2 X1.6699 Y3.0463 I0.0444 J0.044
G2 X1.658 Y3.083 I0.0506 J0.0367
G1 X1.658 Y3.3719
G2 X1.7205 Y3.4344 I0.0625 J0
G1 X2.644 Y3.4344
G1 X2.9013 Y3.4344
G1 X3.634 Y3.4344
G2 X3.6965 Y3.3719 I0 J-0.0625
G1 X3.6965 Y3.084
G2 X3.6846 Y3.0474 I-0.0625 J0
G2 X3.6781 Y3.0397 I-0.0506 J0.0367
G1 X3.678 Y3.0405
G1 X3.678 Y3.0408
G1 X3.6772 Y3.0409
G1 X3.6766 Y3.0407
G1 X3.677 Y3.0411
G2 X3.6846 Y3.0474 I0.0435 J-0.0449
G2 X3.7205 Y3.0587 I0.0359 J-0.0512
G1 X4.1767 Y3.0587
G2 X4.2148 Y3.0457 I-0.0001 J-0.0625
G2 X4.2014 Y3.084 I0.0491 J0.0386
G1 X4.2014 Y3.3719
G2 X4.2639 Y3.4344 I0.0625 J0
G1 X4.9865 Y3.4344
G2 X5.049 Y3.3719 I0 J-0.0625
G1 X5.049 Y2.0095
G1 X5.049 Y1.7595
G1 X5.049 Y0.5007
G2 X4.9865 Y0.4382 I-0.0625 J0
G1 X2.8761 Y0.4382
G1 X2.6261 Y0.4382
G1 X0.5007 Y0.4382
G1 Z-0.57 F10
G2 X0.4382 Y0.5007 I0 J0.0625 F30
G1 X0.4382 Y1.8945
G1 X0.4382 Y2.1611
G1 X0.4382 Y3.3719
G2 X0.5007 Y3.4344 I0.0625 J0
G1 X1.0906 Y3.4344
G2 X1.1531 Y3.3719 I0 J-0.0625
G1 X1.1531 Y3.0826
G2 X1.1401 Y3.0444 I-0.0625 J0
G2 X1.1788 Y3.0587 I0.0397 J-0.0483
G1 X1.6326 Y3.0587
G2 X1.6699 Y3.0463 I0 J-0.0625
G2 X1.6771 Y3.0401 I-0.0373 J-0.0501
G2 X1.6761 Y3.0401 I-0.0005 J0.0024
G1 X1.6761 Y3.0399
G1 X1.6761 Y3.0398
G1 X1.6761 Y3.0393
G1 X1.6761 Y3.039
G2 X1.6699 Y3.0463 I0.0444 J0.044
G2 X1.658 Y3.083 I0.0506 J0.0367
G1 X1.658 Y3.3719
G2 X1.7205 Y3.4344 I0.0625 J0
G1 X2.644 Y3.4344
G1 X2.9013 Y3.4344
G1 X3.634 Y3.4344
G2 X3.6965 Y3.3719 I0 J-0.0625
G1 X3.6965 Y3.084
G2 X3.6846 Y3.0474 I-0.0625 J0
G2 X3.6781 Y3.0397 I-0.0506 J0.0367
G1 X3.678 Y3.0405
G1 X3.678 Y3.0408
G1 X3.6772 Y3.0409
G1 X3.6766 Y3.0407
G1 X3.677 Y3.0411
G2 X3.6846 Y3.0474 I0.0435 J-0.0449
G2 X3.7205 Y3.0587 I0.0359 J-0.0512
G1 X4.1767 Y3.0587
G2 X4.2148 Y3.0457 I-0.0001 J-0.0625
G2 X4.2014 Y3.084 I0.0491 J0.0386
G1 X4.2014 Y3.3719
G2 X4.2639 Y3.4344 I0.0625 J0
G1 X4.9865 Y3.4344
G2 X5.049 Y3.3719 I0 J-0.0625
G1 X5.049 Y2.0095
G1 X5.049 Y1.7595
G1 X5.049 Y0.5007
G2 X4.9865 Y0.4382 I-0.0625 J0
G1 X2.8761 Y0.4382
G1 X2.6261 Y0.4382
G1 X0.5007 Y0.4382
G1 Z-0.6 F10
G2 X0.4382 Y0.5007 I0 J0.0625 F30
G1 X0.4382 Y1.8945
G1 X0.4382 Y2.1611
G1 X0.4382 Y3.3719
G2 X0.5007 Y3.4344 I0.0625 J0
G1 X1.0906 Y3.4344
G2 X1.1531 Y3.3719 I0 J-0.0625
G1 X1.1531 Y3.0826
G2 X1.1401 Y3.0444 I-0.0625 J0
G2 X1.1788 Y3.0587 I0.0397 J-0.0483
G1 X1.6326 Y3.0587
G2 X1.6699 Y3.0463 I0 J-0.0625
G2 X1.6771 Y3.0401 I-0.0373 J-0.0501
G2 X1.6761 Y3.0401 I-0.0005 J0.0024
G1 X1.6761 Y3.0399
G1 X1.6761 Y3.0398
G1 X1.6761 Y3.0393
G1 X1.6761 Y3.039
G2 X1.6699 Y3.0463 I0.0444 J0.044
G2 X1.658 Y3.083 I0.0506 J0.0367
G1 X1.658 Y3.3719
G2 X1.7205 Y3.4344 I0.0625 J0
G1 X2.644 Y3.4344
G1 X2.9013 Y3.4344
G1 X3.634 Y3.4344
G2 X3.6965 Y3.3719 I0 J-0.0625
G1 X3.6965 Y3.084
G2 X3.6846 Y3.0474 I-0.0625 J0
G2 X3.6781 Y3.0397 I-0.0506 J0.0367
G1 X3.678 Y3.0405
G1 X3.678 Y3.0408
G1 X3.6772 Y3.0409
G1 X3.6766 Y3.0407
G1 X3.677 Y3.0411
G2 X3.6846 Y3.0474 I0.0435 J-0.0449
G2 X3.7205 Y3.0587 I0.0359 J-0.0512
G1 X4.1767 Y3.0587
G2 X4.2148 Y3.0457 I-0.0001 J-0.0625
G2 X4.2014 Y3.084 I0.0491 J0.0386
G1 X4.2014 Y3.3719
G2 X4.2639 Y3.4344 I0.0625 J0
G1 X4.9865 Y3.4344
G2 X5.049 Y3.3719 I0 J-0.0625
G1 X5.049 Y2.0095
G1 X5.049 Y1.7595
G1 X5.049 Y0.5007
G2 X4.9865 Y0.4382 I-0.0625 J0
G1 X2.8761 Y0.4382
G1 X2.6261 Y0.4382
G1 X0.5007 Y0.4382
G1 Z-0.63 F10
G2 X0.4382 Y0.5007 I0 J0.0625 F30
G1 X0.4382 Y1.8945
G1 Z-0.6 F10
G1 X0.4382 Y2.1611 F30
G1 Z-0.63 F10
G1 X0.4382 Y3.3719 F30
G2 X0.5007 Y3.4344 I0.0625 J0
G1 X1.0906 Y3.4344
G2 X1.1531 Y3.3719 I0 J-0.0625
G1 X1.1531 Y3.0826
G2 X1.1401 Y3.0444 I-0.0625 J0
G2 X1.1788 Y3.0587 I0.0397 J-0.0483
G1 X1.6326 Y3.0587
G2 X1.6699 Y3.0463 I0 J-0.0625
G2 X1.6771 Y3.0401 I-0.0373 J-0.0501
G2 X1.6761 Y3.0401 I-0.0005 J0.0024
G1 X1.6761 Y3.0399
G1 X1.6761 Y3.0398
G1 X1.6761 Y3.0393
G1 X1.6761 Y3.039
G2 X1.6699 Y3.0463 I0.0444 J0.044
G2 X1.658 Y3.083 I0.0506 J0.0367
G1 X1.658 Y3.3719
G2 X1.7205 Y3.4344 I0.0625 J0
G1 X2.644 Y3.4344
G1 Z-0.6 F10
G1 X2.9013 Y3.4344 F30
G1 Z-0.63 F10
G1 X3.634 Y3.4344 F30
G2 X3.6965 Y3.3719 I0 J-0.0625
G1 X3.6965 Y3.084
G2 X3.6846 Y3.0474 I-0.0625 J0
G2 X3.6781 Y3.0397 I-0.0506 J0.0367
G1 X3.678 Y3.0405
G1 X3.678 Y3.0408
G1 X3.6772 Y3.0409
G1 X3.6766 Y3.0407
G1 X3.677 Y3.0411
G2 X3.6846 Y3.0474 I0.0435 J-0.0449
G2 X3.7205 Y3.0587 I0.0359 J-0.0512
G1 X4.1767 Y3.0587
G2 X4.2148 Y3.0457 I-0.0001 J-0.0625
G2 X4.2014 Y3.084 I0.0491 J0.0386
G1 X4.2014 Y3.3719
G2 X4.2639 Y3.4344 I0.0625 J0
G1 X4.9865 Y3.4344
G2 X5.049 Y3.3719 I0 J-0.0625
G1 X5.049 Y2.0095
G1 Z-0.6 F10
G1 X5.049 Y1.7595 F30
G1 Z-0.63 F10
G1 X5.049 Y0.5007 F30
G2 X4.9865 Y0.4382 I-0.0625 J0
G1 X2.8761 Y0.4382
G1 Z-0.6 F10
G1 X2.6261 Y0.4382 F30
G1 Z-0.63 F10
G1 X0.5007 Y0.4382 F30
G1 Z-0.66 F10
G2 X0.4382 Y0.5007 I0 J0.0625 F30
G1 X0.4382 Y1.8945
G1 Z-0.6 F10
G1 X0.4382 Y2.1611 F30
G1 Z-0.66 F10
G1 X0.4382 Y3.3719 F30
G2 X0.5007 Y3.4344 I0.0625 J0
G1 X1.0906 Y3.4344
G2 X1.1531 Y3.3719 I0 J-0.0625
G1 X1.1531 Y3.0826
G2 X1.1401 Y3.0444 I-0.0625 J0
G2 X1.1788 Y3.0587 I0.0397 J-0.0483
G1 X1.6326 Y3.0587
G2 X1.6699 Y3.0463 I0 J-0.0625
G2 X1.6771 Y3.0401 I-0.0373 J-0.0501
G2 X1.6761 Y3.0401 I-0.0005 J0.0024
G1 X1.6761 Y3.0399
G1 X1.6761 Y3.0398
G1 X1.6761 Y3.0393
G1 X1.6761 Y3.039
G2 X1.6699 Y3.0463 I0.0444 J0.044
G2 X1.658 Y3.083 I0.0506 J0.0367
G1 X1.658 Y3.3719
G2 X1.7205 Y3.4344 I0.0625 J0
G1 X2.644 Y3.4344
G1 Z-0.6 F10
G1 X2.9013 Y3.4344 F30
G1 Z-0.66 F10
G1 X3.634 Y3.4344 F30
G2 X3.6965 Y3.3719 I0 J-0.0625
G1 X3.6965 Y3.084
G2 X3.6846 Y3.0474 I-0.0625 J0
G2 X3.6781 Y3.0397 I-0.0506 J0.0367
G1 X3.678 Y3.0405
G1 X3.678 Y3.0408
G1 X3.6772 Y3.0409
G1 X3.6766 Y3.0407
G1 X3.677 Y3.0411
G2 X3.6846 Y3.0474 I0.0435 J-0.0449
G2 X3.7205 Y3.0587 I0.0359 J-0.0512
G1 X4.1767 Y3.0587
G2 X4.2148 Y3.0457 I-0.0001 J-0.0625
G2 X4.2014 Y3.084 I0.0491 J0.0386
G1 X4.2014 Y3.3719
G2 X4.2639 Y3.4344 I0.0625 J0
G1 X4.9865 Y3.4344
G2 X5.049 Y3.3719 I0 J-0.0625
G1 X5.049 Y2.0095
G1 Z-0.6 F10
G1 X5.049 Y1.7595 F30
G1 Z-0.66 F10
G1 X5.049 Y0.5007 F30
G2 X4.9865 Y0.4382 I-0.0625 J0
G1 X2.8761 Y0.4382
G1 Z-0.6 F10
G1 X2.6261 Y0.4382 F30
G1 Z-0.66 F10
G1 X0.5007 Y0.4382 F30
G1 Z-0.69 F10
G2 X0.4382 Y0.5007 I0 J0.0625 F30
G1 X0.4382 Y1.8945
G1 Z-0.6 F10
G1 X0.4382 Y2.1611 F30
G1 Z-0.69 F10
G1 X0.4382 Y3.3719 F30
G2 X0.5007 Y3.4344 I0.0625 J0
G1 X1.0906 Y3.4344
G2 X1.1531 Y3.3719 I0 J-0.0625
G1 X1.1531 Y3.0826
G2 X1.1401 Y3.0444 I-0.0625 J0
G2 X1.1788 Y3.0587 I0.0397 J-0.0483
G1 X1.6326 Y3.0587
G2 X1.6699 Y3.0463 I0 J-0.0625
G2 X1.6771 Y3.0401 I-0.0373 J-0.0501
G2 X1.6761 Y3.0401 I-0.0005 J0.0024
G1 X1.6761 Y3.0399
G1 X1.6761 Y3.0398
G1 X1.6761 Y3.0393
G1 X1.6761 Y3.039
G2 X1.6699 Y3.0463 I0.0444 J0.044
G2 X1.658 Y3.083 I0.0506 J0.0367
G1 X1.658 Y3.3719
G2 X1.7205 Y3.4344 I0.0625 J0
G1 X2.644 Y3.4344
G1 Z-0.6 F10
G1 X2.9013 Y3.4344 F30
G1 Z-0.69 F10
G1 X3.634 Y3.4344 F30
G2 X3.6965 Y3.3719 I0 J-0.0625
G1 X3.6965 Y3.084
G2 X3.6846 Y3.0474 I-0.0625 J0
G2 X3.6781 Y3.0397 I-0.0506 J0.0367
G1 X3.678 Y3.0405
G1 X3.678 Y3.0408
G1 X3.6772 Y3.0409
G1 X3.6766 Y3.0407
G1 X3.677 Y3.0411
G2 X3.6846 Y3.0474 I0.0435 J-0.0449
G2 X3.7205 Y3.0587 I0.0359 J-0.0512
G1 X4.1767 Y3.0587
G2 X4.2148 Y3.0457 I-0.0001 J-0.0625
G2 X4.2014 Y3.084 I0.0491 J0.0386
G1 X4.2014 Y3.3719
G2 X4.2639 Y3.4344 I0.0625 J0
G1 X4.9865 Y3.4344
G2 X5.049 Y3.3719 I0 J-0.0625
G1 X5.049 Y2.0095
G1 Z-0.6 F10
G1 X5.049 Y1.7595 F30
G1 Z-0.69 F10
G1 X5.049 Y0.5007 F30
G2 X4.9865 Y0.4382 I-0.0625 J0
G1 X2.8761 Y0.4382
G1 Z-0.6 F10
G1 X2.6261 Y0.4382 F30
G1 Z-0.69 F10
G1 X0.5007 Y0.4382 F30
G1 Z-0.7 F10
G2 X0.4382 Y0.5007 I0 J0.0625 F30
G1 X0.4382 Y1.8945
G1 Z-0.6 F10
G1 X0.4382 Y2.1611 F30
G1 Z-0.7 F10
G1 X0.4382 Y3.3719 F30
G2 X0.5007 Y3.4344 I0.0625 J0
G1 X1.0906 Y3.4344
G2 X1.1531 Y3.3719 I0 J-0.0625
G1 X1.1531 Y3.0826
G2 X1.1401 Y3.0444 I-0.0625 J0
G2 X1.1788 Y3.0587 I0.0397 J-0.0483
G1 X1.6326 Y3.0587
G2 X1.6699 Y3.0463 I0 J-0.0625
G2 X1.6771 Y3.0401 I-0.0373 J-0.0501
G2 X1.6761 Y3.0401 I-0.0005 J0.0024
G1 X1.6761 Y3.0399
G1 X1.6761 Y3.0398
G1 X1.6761 Y3.0393
G1 X1.6761 Y3.039
G2 X1.6699 Y3.0463 I0.0444 J0.044
G2 X1.658 Y3.083 I0.0506 J0.0367
G1 X1.658 Y3.3719
G2 X1.7205 Y3.4344 I0.0625 J0
G1 X2.644 Y3.4344
G1 Z-0.6 F10
G1 X2.9013 Y3.4344 F30
G1 Z-0.7 F10
G1 X3.634 Y3.4344 F30
G2 X3.6965 Y3.3719 I0 J-0.0625
G1 X3.6965 Y3.084
G2 X3.6846 Y3.0474 I-0.0625 J0
G2 X3.6781 Y3.0397 I-0.0506 J0.0367
G1 X3.678 Y3.0405
G1 X3.678 Y3.0408
G1 X3.6772 Y3.0409
G1 X3.6766 Y3.0407
G1 X3.677 Y3.0411
G2 X3.6846 Y3.0474 I0.0435 J-0.0449
G2 X3.7205 Y3.0587 I0.0359 J-0.0512
G1 X4.1767 Y3.0587
G2 X4.2148 Y3.0457 I-0.0001 J-0.0625
G2 X4.2014 Y3.084 I0.0491 J0.0386
G1 X4.2014 Y3.3719
G2 X4.2639 Y3.4344 I0.0625 J0
G1 X4.9865 Y3.4344
G2 X5.049 Y3.3719 I0 J-0.0625
G1 X5.049 Y2.0095
G1 Z-0.6 F10
G1 X5.049 Y1.7595 F30
G1 Z-0.7 F10
G1 X5.049 Y0.5007 F30
G2 X4.9865 Y0.4382 I-0.0625 J0
G1 X2.8761 Y0.4382
G1 Z-0.6 F10
G1 X2.6261 Y0.4382 F30
G1 Z-0.7 F10
G1 X0.5007 Y0.4382 F30
G0 Z0.25
M5
M30
