; generated by Slic3r 0.9.3 on 2013-06-09 at 18:28:29

; layer_height = .25
; perimeters = 3
; solid_layers = 2
; fill_density = 0.3
; perimeter_speed = 30
; infill_speed = 60
; travel_speed = 75
; scale = 1
; nozzle_diameter = 0.35
; filament_diameter = 1.8
; extrusion_multiplier = 1
; single wall width = 0.39mm

M107
G92 E0	;reset extruder location
G1 E5	;Prime extruder
G28	;Go Home
;G1 E20	Prime extruder
G90 ; use absolute coordinates
G21 ; set units to millimeters
G92 E0
M82 ; use absolute distances for extrusion
G1 F1080.000 E-1.00000
G92 E0
G1 Z0.250 F4500.000
G1 X45.305 Y31.899
G1 F1080.000 E1.00000
G1 X45.595 Y31.759 F1200.000 E1.01218
G1 X48.955 Y30.399 E1.14922
G1 X52.115 Y29.409 E1.27443
G1 X56.015 Y28.559 E1.42534
G1 X56.455 Y28.509 E1.44208
G1 X56.455 Y28.499 E1.44246
G1 X57.195 Y28.399 E1.47069
G1 X57.225 Y28.399 E1.47183
G1 X59.605 Y28.109 E1.56248
G1 X60.365 Y28.079 E1.59124
G1 X66.515 Y28.109 E1.82376
G1 X68.895 Y28.399 E1.91441
G1 X68.915 Y28.399 E1.91517
G1 X70.455 Y28.619 E1.97398
G1 X74.005 Y29.409 E2.11149
G1 X77.465 Y30.509 E2.24876
G1 X80.815 Y31.889 E2.38574
G1 X82.815 Y32.919 E2.47080
G1 X82.995 Y33.029 E2.47877
G1 X83.165 Y33.149 E2.48664
G1 X83.635 Y33.559 E2.51022
G1 X83.905 Y33.879 E2.52605
G1 X84.025 Y34.039 E2.53362
G1 X84.245 Y34.399 E2.54957
G1 X84.335 Y34.579 E2.55718
G1 X84.495 Y34.969 E2.57311
G1 X84.605 Y35.369 E2.58880
G1 X84.645 Y35.569 E2.59651
G1 X84.675 Y35.779 E2.60453
G1 X84.675 Y93.939 E4.80348
G1 X84.605 Y94.359 E4.81958
G1 X84.485 Y94.759 E4.83537
G1 X84.325 Y95.149 E4.85131
G1 X84.125 Y95.519 E4.86721
G1 X84.005 Y95.699 E4.87539
G1 X83.745 Y96.029 E4.89127
G1 X83.445 Y96.329 E4.90731
G1 X83.115 Y96.589 E4.92320
G1 X82.945 Y96.709 E4.93106
G1 X82.765 Y96.819 E4.93904
G1 X82.575 Y96.919 E4.94716
G1 X81.725 Y97.249 E4.98163
G1 X81.235 Y97.339 E5.00047
G1 X80.985 Y97.369 E5.00999
G1 X45.275 Y97.509 E6.36015
G1 X44.775 Y97.479 E6.37908
G1 X44.525 Y97.439 E6.38866
G1 X44.275 Y97.379 E6.39838
G1 X43.795 Y97.209 E6.41763
G1 X43.415 Y97.049 E6.43322
G1 X43.225 Y96.949 E6.44134
G1 X43.045 Y96.839 E6.44931
G1 X42.545 Y96.459 E6.47306
G1 X42.245 Y96.159 E6.48910
G1 X41.985 Y95.829 E6.50498
G1 X41.865 Y95.649 E6.51316
G1 X41.665 Y95.279 E6.52906
G1 X41.505 Y94.889 E6.54500
G1 X41.385 Y94.489 E6.56079
G1 X41.315 Y94.069 E6.57689
G1 X41.315 Y35.849 E8.77811
G1 X41.345 Y35.639 E8.78613
G1 X41.435 Y35.239 E8.80163
G1 X41.495 Y35.039 E8.80953
G1 X41.655 Y34.649 E8.82546
G1 X41.745 Y34.469 E8.83307
G1 X41.965 Y34.119 E8.84870
G1 X42.085 Y33.949 E8.85657
G1 X42.355 Y33.629 E8.87240
G1 X42.655 Y33.349 E8.88791
G1 X43.165 Y32.999 E8.91130
G1 X44.954 Y32.079 E8.98736
G1 X45.475 Y32.239 F4500.000
G1 X48.805 Y30.869 F1200.000 E9.12351
G1 X52.515 Y29.709 E9.27047
G1 X55.745 Y28.999 E9.39551
G1 X57.255 Y28.789 E9.45315
G1 X57.275 Y28.789 E9.45391
G1 X59.625 Y28.499 E9.54343
G1 X60.385 Y28.469 E9.57219
G1 X66.495 Y28.499 E9.80320
G1 X68.845 Y28.789 E9.89273
G1 X68.865 Y28.789 E9.89348
G1 X70.375 Y28.999 E9.95112
G1 X73.605 Y29.709 E10.07616
G1 X77.315 Y30.869 E10.22313
G1 X80.635 Y32.239 E10.35892
G1 X82.455 Y33.169 E10.43619
G1 X82.795 Y33.369 E10.45111
G1 X82.955 Y33.479 E10.45845
G1 X83.255 Y33.739 E10.47346
G1 X83.525 Y34.019 E10.48817
G1 X83.755 Y34.339 E10.50306
G1 X83.855 Y34.499 E10.51020
G1 X84.035 Y34.859 E10.52542
G1 X84.165 Y35.219 E10.53989
G1 X84.215 Y35.409 E10.54732
G1 X84.285 Y35.799 E10.56230
G1 X84.285 Y93.919 E12.75974
G1 X84.215 Y94.309 E12.77472
G1 X84.165 Y94.499 E12.78214
G1 X84.025 Y94.869 E12.79710
G1 X83.845 Y95.229 E12.81232
G1 X83.625 Y95.559 E12.82731
G1 X83.505 Y95.709 E12.83458
G1 X83.225 Y95.999 E12.84982
G1 X82.925 Y96.249 E12.86458
G1 X82.755 Y96.369 E12.87245
G1 X82.415 Y96.559 E12.88718
G1 X81.835 Y96.799 E12.91091
G1 X81.615 Y96.869 E12.91964
G1 X81.405 Y96.919 E12.92780
G1 X81.185 Y96.959 E12.93625
G1 X80.735 Y96.989 E12.95331
G1 X45.275 Y97.119 E14.29401
G1 X44.825 Y97.089 E14.31106
G1 X44.375 Y96.999 E14.32841
G1 X44.165 Y96.939 E14.33667
G1 X43.575 Y96.689 E14.36090
G1 X43.235 Y96.499 E14.37562
G1 X43.065 Y96.379 E14.38349
G1 X42.765 Y96.129 E14.39825
G1 X42.485 Y95.839 E14.41350
G1 X42.365 Y95.689 E14.42076
G1 X42.145 Y95.359 E14.43575
G1 X41.965 Y94.999 E14.45097
G1 X41.825 Y94.629 E14.46593
G1 X41.775 Y94.439 E14.47336
G1 X41.705 Y94.049 E14.48834
G1 X41.695 Y36.059 E16.68086
G1 X41.705 Y35.869 E16.68805
G1 X41.775 Y35.479 E16.70304
G1 X41.885 Y35.109 E16.71763
G1 X41.955 Y34.929 E16.72493
G1 X42.135 Y34.579 E16.73981
G1 X42.235 Y34.409 E16.74727
G1 X42.345 Y34.249 E16.75461
G1 X42.595 Y33.949 E16.76937
G1 X42.875 Y33.679 E16.78408
G1 X43.195 Y33.439 E16.79920
G1 X43.525 Y33.239 E16.81379
G1 X45.124 Y32.419 E16.88174
G1 F1080.000 E15.88174
G92 E0
G1 X45.569 Y56.539 F4500.000
G1 F1080.000 E1.00000
G1 X47.082 Y56.539 F1200.000 E1.06954
G1 X47.158 Y56.728 E1.07890
G1 X45.749 Y58.093 E1.16908
G1 X45.569 Y58.017 E1.17807
G1 X45.569 Y56.933 E1.22786
G1 X46.315 Y56.055 F4500.000
G1 X47.929 Y56.055 F1200.000 E1.30204
G1 X48.271 Y56.079 E1.31779
G1 X48.337 Y56.260 E1.32663
G1 X45.271 Y59.230 E1.52282
G1 X45.085 Y59.151 E1.53211
G1 X45.085 Y53.511 E1.79130
G1 X47.031 Y52.512 E1.89187
G1 X50.093 Y51.260 E2.04387
G1 X53.250 Y50.277 E2.19588
G1 X56.481 Y49.569 E2.34788
G1 X57.713 Y49.409 E2.40495
G1 X57.789 Y49.868 E2.42633
G1 X56.986 Y50.031 E2.46398
G1 X56.986 Y50.031 E2.46399
G1 X54.510 Y50.535 E2.58012
G1 X51.744 Y51.334 E2.71243
G1 X49.052 Y52.352 E2.84474
G1 X46.315 Y53.647 E2.98386
G1 X46.315 Y55.661 E3.07642
G1 F1080.000 E2.07642
G92 E0
G1 X57.027 Y49.998 F4500.000
G1 F1080.000 E1.00000
G1 X56.965 Y49.506 F1200.000 E1.02278
G1 X59.761 Y49.142 E1.15237
G1 X60.517 Y49.110 E1.18716
G1 X60.555 Y49.571 E1.20841
G1 X57.418 Y49.950 E1.35364
G1 F1080.000 E0.35364
G92 E0
G1 X65.576 Y49.571 F4500.000
G1 F1080.000 E1.00000
G1 X65.613 Y49.110 F1200.000 E1.02125
G1 X66.370 Y49.142 E1.05604
G1 X69.166 Y49.506 E1.18563
G1 X69.104 Y49.998 E1.20840
G1 X65.967 Y49.618 E1.35362
G1 F1080.000 E0.35362
G92 E0
G1 X79.049 Y56.539 F4500.000
G1 F1080.000 E1.00000
G1 X80.431 Y56.539 F1200.000 E1.06354
G1 X80.431 Y57.890 E1.12564
G1 X80.251 Y57.967 E1.13463
G1 X79.109 Y56.860 E1.20769
G1 X79.815 Y56.055 F4500.000
G1 X79.815 Y53.647 F1200.000 E1.31838
G1 X77.079 Y52.352 E1.45750
G1 X74.386 Y51.334 E1.58980
G1 X71.621 Y50.535 E1.72211
G1 X68.342 Y49.868 E1.87590
G1 X68.418 Y49.409 E1.89728
G1 X69.649 Y49.569 E1.95435
G1 X72.880 Y50.277 E2.10636
G1 X76.038 Y51.260 E2.25836
G1 X79.099 Y52.512 E2.41037
G1 X79.114 Y52.519 E2.41114
G1 X79.114 Y52.519 E2.41114
G1 X80.915 Y53.444 E2.50419
G1 X80.915 Y59.024 E2.76065
G1 X80.729 Y59.103 E2.76993
G1 X77.794 Y56.260 E2.95777
G1 X77.859 Y56.079 E2.96661
G1 X78.201 Y56.055 E2.98236
G1 X79.421 Y56.055 E3.03841
G1 F1080.000 E2.03841
G92 E0
G1 X61.482 Y49.322 F4500.000
G1 F1080.000 E1.00000
G1 X62.971 Y49.248 F1200.000 E1.06850
G1 X64.843 Y49.326 E1.15461
G1 X65.022 Y49.167 E1.16561
G1 X64.843 Y49.326 F4500.000
G1 X64.930 Y49.404 F1200.000 E1.17098
G1 X65.097 Y49.624 E1.18366
G1 F1080.000 E0.18366
G92 E0
G1 X61.482 Y49.322 F4500.000
G1 F1080.000 E1.00000
G1 X61.348 Y49.315 F1200.000 E1.00619
G1 X61.113 Y49.175 E1.01874
G1 X61.109 Y49.167 E1.01913
G1 X61.287 Y49.325 F4500.000
G1 X61.249 Y49.371 F1200.000 E1.02187
G1 X61.024 Y49.631 E1.03768
G1 F1080.000 E0.03768
G92 E0
G1 X45.675 Y54.676 F4500.000
G1 F1080.000 E1.00000
G1 X45.672 Y54.179 F1200.000 E1.02283
G1 X45.675 Y54.676 F4500.000
G1 X45.672 Y54.179 F1200.000 E1.04566
G1 X45.691 Y53.883 E1.05933
G1 F1080.000 E0.05933
G92 E0
G1 X80.327 Y54.986 F4500.000
G1 F1080.000 E1.00000
G1 X80.305 Y54.030 F1200.000 E1.04394
G1 F1080.000 E0.04394
G92 E0
G1 X80.354 Y56.181 F4500.000
G1 F1080.000 E1.00000
G1 X80.360 Y56.419 F1200.000 E1.01098
G1 F1080.000 E0.01098
G92 E0
G1 X47.158 Y73.978 F4500.000
G1 F1080.000 E1.00000
G1 X45.749 Y75.343 F1200.000 E1.09018
G1 X45.569 Y75.267 E1.09917
G1 X45.569 Y73.789 E1.16709
G1 X46.891 Y73.789 E1.22786
G1 X46.315 Y73.305 F4500.000
G1 X47.929 Y73.305 F1200.000 E1.30204
G1 X48.271 Y73.329 E1.31779
G1 X48.337 Y73.510 E1.32663
G1 X45.271 Y76.480 E1.52282
G1 X45.085 Y76.401 E1.53211
G1 X45.085 Y70.762 E1.79130
G1 X47.031 Y69.762 E1.89187
G1 X50.093 Y68.510 E2.04387
G1 X53.250 Y67.527 E2.19588
G1 X56.481 Y66.820 E2.34788
G1 X57.713 Y66.659 E2.40495
G1 X57.789 Y67.118 E2.42633
G1 X56.986 Y67.282 E2.46398
G1 X56.986 Y67.282 E2.46399
G1 X54.510 Y67.786 E2.58012
G1 X51.744 Y68.585 E2.71243
G1 X49.052 Y69.603 E2.84474
G1 X46.315 Y70.897 E2.98386
G1 X46.315 Y72.911 E3.07642
G1 F1080.000 E2.07642
G92 E0
G1 X57.027 Y67.248 F4500.000
G1 F1080.000 E1.00000
G1 X56.965 Y66.757 F1200.000 E1.02278
G1 X59.761 Y66.393 E1.15237
G1 X60.517 Y66.360 E1.18716
G1 X60.555 Y66.821 E1.20841
G1 X57.418 Y67.201 E1.35364
G1 F1080.000 E0.35364
G92 E0
G1 X65.576 Y66.821 F4500.000
G1 F1080.000 E1.00000
G1 X65.613 Y66.360 F1200.000 E1.02125
G1 X66.370 Y66.393 E1.05604
G1 X69.166 Y66.757 E1.18563
G1 X69.104 Y67.248 E1.20840
G1 X65.967 Y66.868 E1.35362
G1 F1080.000 E0.35362
G92 E0
G1 X79.049 Y73.789 F4500.000
G1 F1080.000 E1.00000
G1 X80.431 Y73.789 F1200.000 E1.06354
G1 X80.431 Y75.141 E1.12564
G1 X80.251 Y75.217 E1.13463
G1 X79.109 Y74.111 E1.20769
G1 X79.815 Y73.305 F4500.000
G1 X79.815 Y70.897 F1200.000 E1.31838
G1 X77.079 Y69.603 E1.45750
G1 X74.386 Y68.585 E1.58980
G1 X71.621 Y67.786 E1.72211
G1 X68.342 Y67.118 E1.87590
G1 X68.418 Y66.659 E1.89728
G1 X69.649 Y66.820 E1.95435
G1 X72.880 Y67.527 E2.10636
G1 X76.038 Y68.510 E2.25836
G1 X79.099 Y69.762 E2.41037
G1 X79.114 Y69.770 E2.41114
G1 X79.114 Y69.770 E2.41114
G1 X80.915 Y70.695 E2.50419
G1 X80.915 Y76.275 E2.76065
G1 X80.729 Y76.354 E2.76993
G1 X77.794 Y73.510 E2.95777
G1 X77.859 Y73.329 E2.96661
G1 X78.201 Y73.305 E2.98236
G1 X79.421 Y73.305 E3.03841
G1 F1080.000 E2.03841
G92 E0
G1 X61.482 Y66.573 F4500.000
G1 F1080.000 E1.00000
G1 X62.971 Y66.498 F1200.000 E1.06850
G1 X64.843 Y66.577 E1.15461
G1 X65.022 Y66.418 E1.16561
G1 X64.843 Y66.577 F4500.000
G1 X64.930 Y66.654 F1200.000 E1.17098
G1 X65.097 Y66.874 E1.18366
G1 F1080.000 E0.18366
G92 E0
G1 X61.482 Y66.573 F4500.000
G1 F1080.000 E1.00000
G1 X61.348 Y66.565 F1200.000 E1.00619
G1 X61.113 Y66.425 E1.01874
G1 X61.109 Y66.418 E1.01913
G1 X61.287 Y66.576 F4500.000
G1 X61.249 Y66.622 F1200.000 E1.02187
G1 X61.024 Y66.882 E1.03768
G1 F1080.000 E0.03768
G92 E0
G1 X45.675 Y71.927 F4500.000
G1 F1080.000 E1.00000
G1 X45.672 Y71.430 F1200.000 E1.02283
G1 X45.675 Y71.927 F4500.000
G1 X45.672 Y71.430 F1200.000 E1.04566
G1 X45.691 Y71.133 E1.05933
G1 F1080.000 E0.05933
G92 E0
G1 X80.327 Y72.236 F4500.000
G1 F1080.000 E1.00000
G1 X80.305 Y71.281 F1200.000 E1.04394
G1 F1080.000 E0.04394
G92 E0
G1 X80.354 Y73.431 F4500.000
G1 F1080.000 E1.00000
G1 X80.360 Y73.670 F1200.000 E1.01098
G1 F1080.000 E0.01098
G92 E0
G1 X47.158 Y39.477 F4500.000
G1 F1080.000 E1.00000
G1 X45.749 Y40.843 F1200.000 E1.09018
G1 X45.569 Y40.766 E1.09917
G1 X45.569 Y39.288 E1.16709
G1 X46.891 Y39.288 E1.22786
G1 X46.315 Y38.805 F4500.000
G1 X47.929 Y38.805 F1200.000 E1.30204
G1 X48.271 Y38.828 E1.31779
G1 X48.337 Y39.009 E1.32663
G1 X45.271 Y41.979 E1.52282
G1 X45.085 Y41.900 E1.53211
G1 X45.085 Y36.261 E1.79130
G1 X47.031 Y35.261 E1.89187
G1 X50.093 Y34.010 E2.04387
G1 X53.250 Y33.026 E2.19588
G1 X56.481 Y32.319 E2.34788
G1 X57.713 Y32.158 E2.40495
G1 X57.789 Y32.617 E2.42633
G1 X56.986 Y32.781 E2.46398
G1 X56.986 Y32.781 E2.46399
G1 X54.510 Y33.285 E2.58012
G1 X51.744 Y34.084 E2.71243
G1 X49.052 Y35.102 E2.84474
G1 X46.315 Y36.396 E2.98386
G1 X46.315 Y38.410 E3.07642
G1 F1080.000 E2.07642
G92 E0
G1 X57.027 Y32.747 F4500.000
G1 F1080.000 E1.00000
G1 X56.965 Y32.256 F1200.000 E1.02278
G1 X59.761 Y31.892 E1.15237
G1 X60.517 Y31.859 E1.18716
G1 X60.555 Y32.320 E1.20841
G1 X57.418 Y32.700 E1.35364
G1 F1080.000 E0.35364
G92 E0
G1 X65.576 Y32.320 F4500.000
G1 F1080.000 E1.00000
G1 X65.613 Y31.859 F1200.000 E1.02125
G1 X66.370 Y31.892 E1.05604
G1 X69.166 Y32.256 E1.18563
G1 X69.104 Y32.747 E1.20840
G1 X65.967 Y32.368 E1.35362
G1 F1080.000 E0.35362
G92 E0
G1 X79.049 Y39.288 F4500.000
G1 F1080.000 E1.00000
G1 X80.431 Y39.288 F1200.000 E1.06354
G1 X80.431 Y40.640 E1.12564
G1 X80.251 Y40.716 E1.13463
G1 X79.109 Y39.610 E1.20769
G1 X79.815 Y38.805 F4500.000
G1 X79.815 Y36.396 F1200.000 E1.31838
G1 X77.079 Y35.102 E1.45750
G1 X74.386 Y34.084 E1.58980
G1 X71.621 Y33.285 E1.72211
G1 X68.342 Y32.617 E1.87590
G1 X68.418 Y32.158 E1.89728
G1 X69.649 Y32.319 E1.95435
G1 X72.880 Y33.026 E2.10636
G1 X76.038 Y34.010 E2.25836
G1 X79.099 Y35.261 E2.41037
G1 X79.114 Y35.269 E2.41114
G1 X79.114 Y35.269 E2.41114
G1 X80.915 Y36.194 E2.50419
G1 X80.915 Y41.774 E2.76065
G1 X80.729 Y41.853 E2.76993
G1 X77.794 Y39.009 E2.95777
G1 X77.859 Y38.828 E2.96661
G1 X78.201 Y38.805 E2.98236
G1 X79.421 Y38.805 E3.03841
G1 F1080.000 E2.03841
G92 E0
G1 X61.482 Y32.072 F4500.000
G1 F1080.000 E1.00000
G1 X62.971 Y31.997 F1200.000 E1.06850
G1 X64.843 Y32.076 E1.15461
G1 X65.022 Y31.917 E1.16561
G1 X64.843 Y32.076 F4500.000
G1 X64.930 Y32.154 F1200.000 E1.17098
G1 X65.097 Y32.373 E1.18366
G1 F1080.000 E0.18366
G92 E0
G1 X61.482 Y32.072 F4500.000
G1 F1080.000 E1.00000
G1 X61.348 Y32.064 F1200.000 E1.00619
G1 X61.113 Y31.924 E1.01874
G1 X61.109 Y31.917 E1.01913
G1 X61.287 Y32.075 F4500.000
G1 X61.249 Y32.121 F1200.000 E1.02187
G1 X61.024 Y32.381 E1.03768
G1 F1080.000 E0.03768
G92 E0
G1 X45.675 Y37.426 F4500.000
G1 F1080.000 E1.00000
G1 X45.672 Y36.929 F1200.000 E1.02283
G1 X45.675 Y37.426 F4500.000
G1 X45.672 Y36.929 F1200.000 E1.04566
G1 X45.691 Y36.632 E1.05933
G1 F1080.000 E0.05933
G92 E0
G1 X80.327 Y37.735 F4500.000
G1 F1080.000 E1.00000
G1 X80.305 Y36.780 F1200.000 E1.04394
G1 F1080.000 E0.04394
G92 E0
G1 X80.354 Y38.930 F4500.000
G1 F1080.000 E1.00000
G1 X80.360 Y39.169 F1200.000 E1.01098
G1 F1080.000 E0.01098
G92 E0
G1 X47.158 Y91.229 F4500.000
G1 F1080.000 E1.00000
G1 X45.749 Y92.594 F1200.000 E1.09018
G1 X45.569 Y92.518 E1.09917
G1 X45.569 Y91.040 E1.16709
G1 X46.891 Y91.040 E1.22786
G1 X46.315 Y90.556 F4500.000
G1 X47.929 Y90.556 F1200.000 E1.30204
G1 X48.271 Y90.580 E1.31779
G1 X48.337 Y90.760 E1.32663
G1 X45.271 Y93.731 E1.52282
G1 X45.085 Y93.652 E1.53211
G1 X45.085 Y88.012 E1.79130
G1 X47.031 Y87.013 E1.89187
G1 X50.093 Y85.761 E2.04387
G1 X53.250 Y84.778 E2.19588
G1 X56.481 Y84.070 E2.34788
G1 X57.713 Y83.910 E2.40495
G1 X57.789 Y84.369 E2.42633
G1 X56.986 Y84.532 E2.46398
G1 X56.986 Y84.532 E2.46399
G1 X54.510 Y85.036 E2.58012
G1 X51.744 Y85.835 E2.71243
G1 X49.052 Y86.853 E2.84474
G1 X46.315 Y88.148 E2.98386
G1 X46.315 Y90.162 E3.07642
G1 F1080.000 E2.07642
G92 E0
G1 X57.027 Y84.499 F4500.000
G1 F1080.000 E1.00000
G1 X56.965 Y84.007 F1200.000 E1.02278
G1 X59.761 Y83.643 E1.15237
G1 X60.517 Y83.611 E1.18716
G1 X60.555 Y84.072 E1.20841
G1 X57.418 Y84.451 E1.35364
G1 F1080.000 E0.35364
G92 E0
G1 X65.576 Y84.072 F4500.000
G1 F1080.000 E1.00000
G1 X65.613 Y83.611 F1200.000 E1.02125
G1 X66.370 Y83.643 E1.05604
G1 X69.166 Y84.007 E1.18563
G1 X69.104 Y84.499 E1.20840
G1 X65.967 Y84.119 E1.35362
G1 F1080.000 E0.35362
G92 E0
G1 X79.049 Y91.040 F4500.000
G1 F1080.000 E1.00000
G1 X80.431 Y91.040 F1200.000 E1.06354
G1 X80.431 Y92.391 E1.12564
G1 X80.251 Y92.467 E1.13463
G1 X79.109 Y91.361 E1.20769
G1 X79.815 Y90.556 F4500.000
G1 X79.815 Y88.148 F1200.000 E1.31838
G1 X77.079 Y86.853 E1.45750
G1 X74.386 Y85.835 E1.58980
G1 X71.621 Y85.036 E1.72211
G1 X68.342 Y84.369 E1.87590
G1 X68.418 Y83.910 E1.89728
G1 X69.649 Y84.070 E1.95435
G1 X72.880 Y84.778 E2.10636
G1 X76.038 Y85.761 E2.25836
G1 X79.099 Y87.013 E2.41037
G1 X79.114 Y87.020 E2.41114
G1 X79.114 Y87.020 E2.41114
G1 X80.915 Y87.945 E2.50419
G1 X80.915 Y93.525 E2.76065
G1 X80.729 Y93.604 E2.76993
G1 X77.794 Y90.760 E2.95777
G1 X77.859 Y90.580 E2.96661
G1 X78.201 Y90.556 E2.98236
G1 X79.421 Y90.556 E3.03841
G1 F1080.000 E2.03841
G92 E0
G1 X61.482 Y83.823 F4500.000
G1 F1080.000 E1.00000
G1 X62.971 Y83.748 F1200.000 E1.06850
G1 X64.843 Y83.827 E1.15461
G1 X65.022 Y83.668 E1.16561
G1 X64.843 Y83.827 F4500.000
G1 X64.930 Y83.905 F1200.000 E1.17098
G1 X65.097 Y84.124 E1.18366
G1 F1080.000 E0.18366
G92 E0
