; generated by Slic3r 0.9.3 on 2013-06-09 at 18:34:26

; layer_height = .25
; perimeters = 3
; solid_layers = 2
; fill_density = 0.3
; perimeter_speed = 30
; infill_speed = 60
; travel_speed = 75
; scale = 1
; nozzle_diameter = 0.35
; filament_diameter = 1.8
; extrusion_multiplier = 1
; single wall width = 0.39mm

M107
G92 E0	;reset extruder location
G1 E5	;Prime extruder
G28	;Go Home
;G1 E20	Prime extruder
G90 ; use absolute coordinates
G21 ; set units to millimeters
G92 E0
M82 ; use absolute distances for extrusion
G1 F1080.000 E-1.00000
G92 E0
G1 Z0.250 F4500.000
G1 X45.305 Y49.150
G1 F1080.000 E1.00000
G1 X45.595 Y49.010 F1200.000 E1.01218
G1 X48.955 Y47.650 E1.14922
G1 X52.115 Y46.660 E1.27443
G1 X56.015 Y45.810 E1.42534
G1 X56.455 Y45.760 E1.44208
G1 X56.455 Y45.750 E1.44246
G1 X57.195 Y45.650 E1.47069
G1 X57.225 Y45.650 E1.47183
G1 X59.605 Y45.360 E1.56248
G1 X60.365 Y45.330 E1.59124
G1 X66.515 Y45.360 E1.82376
G1 X68.895 Y45.650 E1.91441
G1 X68.915 Y45.650 E1.91517
G1 X70.455 Y45.870 E1.97398
G1 X74.005 Y46.660 E2.11149
G1 X77.465 Y47.760 E2.24876
G1 X80.815 Y49.140 E2.38574
G1 X82.815 Y50.170 E2.47080
G1 X82.995 Y50.280 E2.47877
G1 X83.165 Y50.400 E2.48664
G1 X83.635 Y50.810 E2.51022
G1 X83.905 Y51.130 E2.52605
G1 X84.025 Y51.290 E2.53362
G1 X84.245 Y51.650 E2.54957
G1 X84.335 Y51.830 E2.55718
G1 X84.495 Y52.220 E2.57311
G1 X84.605 Y52.620 E2.58880
G1 X84.645 Y52.820 E2.59651
G1 X84.675 Y53.030 E2.60453
G1 X84.675 Y76.690 E3.49908
G1 X84.605 Y77.110 E3.51518
G1 X84.485 Y77.510 E3.53097
G1 X84.325 Y77.900 E3.54691
G1 X84.125 Y78.270 E3.56281
G1 X84.005 Y78.450 E3.57099
G1 X83.745 Y78.780 E3.58687
G1 X83.445 Y79.080 E3.60292
G1 X83.115 Y79.340 E3.61880
G1 X82.945 Y79.460 E3.62667
G1 X82.765 Y79.570 E3.63464
G1 X82.575 Y79.670 E3.64276
G1 X81.725 Y80.000 E3.67723
G1 X81.235 Y80.090 E3.69607
G1 X80.985 Y80.120 E3.70559
G1 X45.275 Y80.260 E5.05575
G1 X44.775 Y80.230 E5.07469
G1 X44.525 Y80.190 E5.08426
G1 X44.275 Y80.130 E5.09398
G1 X43.795 Y79.960 E5.11323
G1 X43.415 Y79.800 E5.12882
G1 X43.225 Y79.700 E5.13694
G1 X43.045 Y79.590 E5.14491
G1 X42.545 Y79.210 E5.16866
G1 X42.245 Y78.910 E5.18470
G1 X41.985 Y78.580 E5.20058
G1 X41.865 Y78.400 E5.20876
G1 X41.665 Y78.030 E5.22467
G1 X41.505 Y77.640 E5.24060
G1 X41.385 Y77.240 E5.25639
G1 X41.315 Y76.820 E5.27249
G1 X41.315 Y53.100 E6.16931
G1 X41.345 Y52.890 E6.17733
G1 X41.435 Y52.490 E6.19283
G1 X41.495 Y52.290 E6.20073
G1 X41.655 Y51.900 E6.21667
G1 X41.745 Y51.720 E6.22428
G1 X41.965 Y51.370 E6.23991
G1 X42.085 Y51.200 E6.24777
G1 X42.355 Y50.880 E6.26360
G1 X42.655 Y50.600 E6.27912
G1 X43.165 Y50.250 E6.30251
G1 X44.954 Y49.329 E6.37857
G1 X45.475 Y49.490 F4500.000
G1 X48.805 Y48.120 F1200.000 E6.51471
G1 X52.515 Y46.960 E6.66168
G1 X55.745 Y46.250 E6.78671
G1 X57.255 Y46.040 E6.84435
G1 X57.275 Y46.040 E6.84511
G1 X59.625 Y45.750 E6.93463
G1 X60.385 Y45.720 E6.96339
G1 X66.495 Y45.750 E7.19441
G1 X68.845 Y46.040 E7.28393
G1 X68.865 Y46.040 E7.28469
G1 X70.375 Y46.250 E7.34233
G1 X73.605 Y46.960 E7.46736
G1 X77.315 Y48.120 E7.61433
G1 X80.635 Y49.490 E7.75012
G1 X82.455 Y50.420 E7.82740
G1 X82.795 Y50.620 E7.84231
G1 X82.955 Y50.730 E7.84965
G1 X83.255 Y50.990 E7.86466
G1 X83.525 Y51.270 E7.87937
G1 X83.755 Y51.590 E7.89427
G1 X83.855 Y51.750 E7.90140
G1 X84.035 Y52.110 E7.91662
G1 X84.165 Y52.470 E7.93109
G1 X84.215 Y52.660 E7.93852
G1 X84.285 Y53.050 E7.95350
G1 X84.285 Y76.670 E8.84654
G1 X84.215 Y77.060 E8.86152
G1 X84.165 Y77.250 E8.86895
G1 X84.025 Y77.620 E8.88391
G1 X83.845 Y77.980 E8.89912
G1 X83.625 Y78.310 E8.91412
G1 X83.505 Y78.460 E8.92138
G1 X83.225 Y78.750 E8.93662
G1 X82.925 Y79.000 E8.95139
G1 X82.755 Y79.120 E8.95926
G1 X82.415 Y79.310 E8.97398
G1 X81.835 Y79.550 E8.99771
G1 X81.615 Y79.620 E9.00644
G1 X81.405 Y79.670 E9.01460
G1 X81.185 Y79.710 E9.02306
G1 X80.735 Y79.740 E9.04011
G1 X45.275 Y79.870 E10.38081
G1 X44.825 Y79.840 E10.39787
G1 X44.375 Y79.750 E10.41522
G1 X44.165 Y79.690 E10.42347
G1 X43.575 Y79.440 E10.44770
G1 X43.235 Y79.250 E10.46243
G1 X43.065 Y79.130 E10.47029
G1 X42.765 Y78.880 E10.48506
G1 X42.485 Y78.590 E10.50030
G1 X42.365 Y78.440 E10.50756
G1 X42.145 Y78.110 E10.52256
G1 X41.965 Y77.750 E10.53778
G1 X41.825 Y77.380 E10.55273
G1 X41.775 Y77.190 E10.56016
G1 X41.705 Y76.800 E10.57514
G1 X41.695 Y53.310 E11.46327
G1 X41.705 Y53.120 E11.47046
G1 X41.775 Y52.730 E11.48544
G1 X41.885 Y52.360 E11.50004
G1 X41.955 Y52.180 E11.50734
G1 X42.135 Y51.830 E11.52222
G1 X42.235 Y51.660 E11.52968
G1 X42.345 Y51.500 E11.53702
G1 X42.595 Y51.200 E11.55178
G1 X42.875 Y50.930 E11.56649
G1 X43.195 Y50.690 E11.58161
G1 X43.525 Y50.490 E11.59620
G1 X45.124 Y49.669 E11.66415
G1 F1080.000 E10.66415
G92 E0
G1 X45.569 Y56.539 F4500.000
G1 F1080.000 E1.00000
G1 X47.082 Y56.539 F1200.000 E1.06954
G1 X47.158 Y56.728 E1.07890
G1 X45.749 Y58.093 E1.16908
G1 X45.569 Y58.017 E1.17807
G1 X45.569 Y56.933 E1.22786
G1 X46.315 Y56.055 F4500.000
G1 X47.929 Y56.055 F1200.000 E1.30204
G1 X48.271 Y56.079 E1.31779
G1 X48.337 Y56.260 E1.32663
G1 X45.271 Y59.230 E1.52282
G1 X45.085 Y59.151 E1.53211
G1 X45.085 Y53.511 E1.79130
G1 X47.031 Y52.512 E1.89187
G1 X50.093 Y51.260 E2.04387
G1 X53.250 Y50.277 E2.19588
G1 X56.481 Y49.569 E2.34788
G1 X57.713 Y49.409 E2.40495
G1 X57.789 Y49.868 E2.42633
G1 X56.986 Y50.031 E2.46398
G1 X56.986 Y50.031 E2.46399
G1 X54.510 Y50.535 E2.58012
G1 X51.744 Y51.334 E2.71243
G1 X49.052 Y52.352 E2.84474
G1 X46.315 Y53.647 E2.98386
G1 X46.315 Y55.661 E3.07642
G1 F1080.000 E2.07642
G92 E0
G1 X57.027 Y49.998 F4500.000
G1 F1080.000 E1.00000
G1 X56.965 Y49.506 F1200.000 E1.02278
G1 X59.761 Y49.142 E1.15237
G1 X60.517 Y49.110 E1.18716
G1 X60.555 Y49.571 E1.20841
G1 X57.418 Y49.950 E1.35364
G1 F1080.000 E0.35364
G92 E0
G1 X65.576 Y49.571 F4500.000
G1 F1080.000 E1.00000
G1 X65.613 Y49.110 F1200.000 E1.02125
G1 X66.370 Y49.142 E1.05604
G1 X69.166 Y49.506 E1.18563
G1 X69.104 Y49.998 E1.20840
G1 X65.967 Y49.618 E1.35362
G1 F1080.000 E0.35362
G92 E0
G1 X79.049 Y56.539 F4500.000
G1 F1080.000 E1.00000
G1 X80.431 Y56.539 F1200.000 E1.06354
G1 X80.431 Y57.890 E1.12564
G1 X80.251 Y57.967 E1.13463
G1 X79.109 Y56.860 E1.20769
G1 X79.815 Y56.055 F4500.000
G1 X79.815 Y53.647 F1200.000 E1.31838
G1 X77.079 Y52.352 E1.45750
G1 X74.386 Y51.334 E1.58980
G1 X71.621 Y50.535 E1.72211
G1 X68.342 Y49.868 E1.87590
G1 X68.418 Y49.409 E1.89728
G1 X69.649 Y49.569 E1.95435
G1 X72.880 Y50.277 E2.10636
G1 X76.038 Y51.260 E2.25836
G1 X79.099 Y52.512 E2.41037
G1 X79.114 Y52.519 E2.41114
G1 X79.114 Y52.519 E2.41114
G1 X80.915 Y53.444 E2.50419
G1 X80.915 Y59.024 E2.76065
G1 X80.729 Y59.103 E2.76993
G1 X77.794 Y56.260 E2.95777
G1 X77.859 Y56.079 E2.96661
G1 X78.201 Y56.055 E2.98236
G1 X79.421 Y56.055 E3.03841
G1 F1080.000 E2.03841
G92 E0
G1 X61.482 Y49.322 F4500.000
G1 F1080.000 E1.00000
G1 X62.971 Y49.248 F1200.000 E1.06850
G1 X64.843 Y49.326 E1.15461
G1 X65.022 Y49.167 E1.16561
G1 X64.843 Y49.326 F4500.000
G1 X64.930 Y49.404 F1200.000 E1.17098
G1 X65.097 Y49.624 E1.18366
G1 F1080.000 E0.18366
G92 E0
G1 X61.482 Y49.322 F4500.000
G1 F1080.000 E1.00000
G1 X61.348 Y49.315 F1200.000 E1.00619
G1 X61.113 Y49.175 E1.01874
G1 X61.109 Y49.167 E1.01913
G1 X61.287 Y49.325 F4500.000
G1 X61.249 Y49.371 F1200.000 E1.02187
G1 X61.024 Y49.631 E1.03768
G1 F1080.000 E0.03768
G92 E0
G1 X45.675 Y54.676 F4500.000
G1 F1080.000 E1.00000
G1 X45.672 Y54.179 F1200.000 E1.02283
G1 X45.675 Y54.676 F4500.000
G1 X45.672 Y54.179 F1200.000 E1.04566
G1 X45.691 Y53.883 E1.05933
G1 F1080.000 E0.05933
G92 E0
G1 X80.327 Y54.986 F4500.000
G1 F1080.000 E1.00000
G1 X80.305 Y54.030 F1200.000 E1.04394
G1 F1080.000 E0.04394
G92 E0
G1 X80.354 Y56.181 F4500.000
G1 F1080.000 E1.00000
G1 X80.360 Y56.419 F1200.000 E1.01098
G1 F1080.000 E0.01098
G92 E0
G1 X47.158 Y73.978 F4500.000
G1 F1080.000 E1.00000
G1 X45.749 Y75.343 F1200.000 E1.09018
G1 X45.569 Y75.267 E1.09917
G1 X45.569 Y73.789 E1.16709
G1 X46.891 Y73.789 E1.22786
G1 X46.315 Y73.305 F4500.000
G1 X47.929 Y73.305 F1200.000 E1.30204
G1 X48.271 Y73.329 E1.31779
G1 X48.337 Y73.510 E1.32663
G1 X45.271 Y76.480 E1.52282
G1 X45.085 Y76.401 E1.53211
G1 X45.085 Y70.762 E1.79130
G1 X47.031 Y69.762 E1.89187
G1 X50.093 Y68.510 E2.04387
G1 X53.250 Y67.527 E2.19588
G1 X56.481 Y66.820 E2.34788
G1 X57.713 Y66.659 E2.40495
G1 X57.789 Y67.118 E2.42633
G1 X56.986 Y67.282 E2.46398
G1 X56.986 Y67.282 E2.46399
G1 X54.510 Y67.786 E2.58012
G1 X51.744 Y68.585 E2.71243
G1 X49.052 Y69.603 E2.84474
G1 X46.315 Y70.897 E2.98386
G1 X46.315 Y72.911 E3.07642
G1 F1080.000 E2.07642
G92 E0
G1 X57.027 Y67.248 F4500.000
G1 F1080.000 E1.00000
G1 X56.965 Y66.757 F1200.000 E1.02278
G1 X59.761 Y66.393 E1.15237
G1 X60.517 Y66.360 E1.18716
G1 X60.555 Y66.821 E1.20841
G1 X57.418 Y67.201 E1.35364
G1 F1080.000 E0.35364
G92 E0
G1 X65.576 Y66.821 F4500.000
G1 F1080.000 E1.00000
G1 X65.613 Y66.360 F1200.000 E1.02125
G1 X66.370 Y66.393 E1.05604
G1 X69.166 Y66.757 E1.18563
G1 X69.104 Y67.248 E1.20840
G1 X65.967 Y66.868 E1.35362
G1 F1080.000 E0.35362
G92 E0
G1 X79.049 Y73.789 F4500.000
G1 F1080.000 E1.00000
G1 X80.431 Y73.789 F1200.000 E1.06354
G1 X80.431 Y75.141 E1.12564
G1 X80.251 Y75.217 E1.13463
G1 X79.109 Y74.111 E1.20769
G1 X79.815 Y73.305 F4500.000
G1 X79.815 Y70.897 F1200.000 E1.31838
G1 X77.079 Y69.603 E1.45750
G1 X74.386 Y68.585 E1.58980
G1 X71.621 Y67.786 E1.72211
G1 X68.342 Y67.118 E1.87590
G1 X68.418 Y66.659 E1.89728
G1 X69.649 Y66.820 E1.95435
G1 X72.880 Y67.527 E2.10636
G1 X76.038 Y68.510 E2.25836
G1 X79.099 Y69.762 E2.41037
G1 X79.114 Y69.770 E2.41114
G1 X79.114 Y69.770 E2.41114
G1 X80.915 Y70.695 E2.50419
G1 X80.915 Y76.275 E2.76065
G1 X80.729 Y76.354 E2.76993
G1 X77.794 Y73.510 E2.95777
G1 X77.859 Y73.329 E2.96661
G1 X78.201 Y73.305 E2.98236
G1 X79.421 Y73.305 E3.03841
G1 F1080.000 E2.03841
G92 E0
G1 X61.482 Y66.573 F4500.000
G1 F1080.000 E1.00000
G1 X62.971 Y66.498 F1200.000 E1.06850
G1 X64.843 Y66.577 E1.15461
G1 X65.022 Y66.418 E1.16561
G1 X64.843 Y66.577 F4500.000
G1 X64.930 Y66.654 F1200.000 E1.17098
G1 X65.097 Y66.874 E1.18366
G1 F1080.000 E0.18366
G92 E0
G1 X61.482 Y66.573 F4500.000
G1 F1080.000 E1.00000
G1 X61.348 Y66.565 F1200.000 E1.00619
G1 X61.113 Y66.425 E1.01874
G1 X61.109 Y66.418 E1.01913
G1 X61.287 Y66.576 F4500.000
G1 X61.249 Y66.622 F1200.000 E1.02187
G1 X61.024 Y66.882 E1.03768
G1 F1080.000 E0.03768
G92 E0
G1 X45.675 Y71.927 F4500.000
G1 F1080.000 E1.00000
G1 X45.672 Y71.430 F1200.000 E1.02283
G1 X45.675 Y71.927 F4500.000
G1 X45.672 Y71.430 F1200.000 E1.04566
G1 X45.691 Y71.133 E1.05933
G1 F1080.000 E0.05933
G92 E0
G1 X80.327 Y72.236 F4500.000
G1 F1080.000 E1.00000
G1 X80.305 Y71.281 F1200.000 E1.04394
G1 F1080.000 E0.04394
G92 E0
G1 X80.354 Y73.431 F4500.000
G1 F1080.000 E1.00000
G1 X80.360 Y73.670 F1200.000 E1.01098
G1 F1080.000 E0.01098
G92 E0
G1 Z0.500 F4500.000
G1 X46.597 Y56.933
G1 F1080.000 E1.00000
G1 X45.956 Y57.555 F1037.601 E1.03375
G1 X45.811 Y57.493 E1.03970
G1 X45.811 Y56.781 E1.06661
G1 X46.305 Y56.781 E1.08529
G1 F1080.000 E0.08529
G92 E0
G1 X79.533 Y56.933 F4500.000
G1 F1080.000 E1.00000
G1 X79.595 Y56.781 F1037.601 E1.00620
G1 X80.189 Y56.781 E1.02866
G1 X80.189 Y57.367 E1.05078
G1 X80.044 Y57.428 E1.05674
G1 X79.817 Y57.208 E1.06870
G1 F1080.000 E0.06870
G92 E0
G1 X47.559 Y56.544 F4500.000
G1 F1080.000 E1.00000
G1 X45.566 Y58.474 F1037.601 E1.10490
G1 X45.421 Y58.413 E1.11086
G1 X45.421 Y53.717 E1.28840
G1 X45.979 Y53.431 E1.31208
G1 X45.979 Y56.392 E1.42403
G1 X47.268 Y56.392 E1.47276
G1 F1080.000 E0.47276
G92 E0
G1 X78.571 Y56.544 F4500.000
G1 F1080.000 E1.00000
G1 X78.633 Y56.392 F1037.601 E1.00620
G1 X80.152 Y56.392 E1.06365
G1 X80.152 Y53.431 E1.17559
G1 X80.579 Y53.650 E1.19372
G1 X80.579 Y58.286 E1.36902
G1 X80.434 Y58.348 E1.37497
G1 X78.854 Y56.818 E1.45809
G1 X77.955 Y56.489 F4500.000
G1 X77.910 Y56.411 F1037.601 E1.46151
G1 X77.899 Y56.377 E1.46284
G1 X77.892 Y56.336 E1.46443
G1 X77.890 Y56.294 E1.46602
G1 X77.895 Y56.252 E1.46761
G1 X77.905 Y56.211 E1.46920
G1 X77.921 Y56.172 E1.47080
G1 X77.942 Y56.136 E1.47239
G1 X77.968 Y56.102 E1.47398
G1 X77.999 Y56.073 E1.47557
G1 X78.033 Y56.048 E1.47716
G1 X78.070 Y56.029 E1.47876
G1 X78.109 Y56.014 E1.48035
G1 X78.151 Y56.006 E1.48194
G1 X78.199 Y56.002 E1.48379
G1 X79.762 Y56.002 E1.54289
G1 X79.762 Y53.680 E1.63068
G1 X77.058 Y52.401 E1.74378
G1 X74.370 Y51.384 E1.85247
G1 X71.608 Y50.587 E1.96115
G1 X68.791 Y50.013 E2.06983
G1 X65.938 Y49.668 E2.17851
G1 X63.065 Y49.552 E2.28719
G1 X60.193 Y49.668 E2.39588
G1 X57.339 Y50.013 E2.50456
G1 X54.523 Y50.587 E2.61324
G1 X54.412 Y50.619 E2.61759
G1 X54.412 Y50.619 E2.61759
G1 X51.761 Y51.384 E2.72192
G1 X49.072 Y52.401 E2.83061
G1 X46.368 Y53.680 E2.94371
G1 X46.368 Y56.002 E3.03150
G1 X47.931 Y56.002 E3.09060
G1 X47.980 Y56.006 E3.09245
G1 X48.021 Y56.014 E3.09404
G1 X48.061 Y56.029 E3.09563
G1 X48.098 Y56.048 E3.09722
G1 X48.132 Y56.073 E3.09882
G1 X48.162 Y56.102 E3.10041
G1 X48.188 Y56.136 E3.10200
G1 X48.209 Y56.172 E3.10359
G1 X48.225 Y56.211 E3.10518
G1 X48.236 Y56.252 E3.10678
G1 X48.240 Y56.294 E3.10837
G1 X48.239 Y56.336 E3.10996
G1 X48.232 Y56.377 E3.11155
G1 X48.221 Y56.411 E3.11288
G1 X48.176 Y56.489 E3.11630
G1 X45.179 Y59.392 E3.27407
G1 X45.032 Y59.330 E3.28009
G1 X45.032 Y53.479 E3.50132
G1 X47.009 Y52.464 E3.58535
G1 X50.075 Y51.210 E3.71057
G1 X50.186 Y51.176 E3.71497
G1 X50.186 Y51.176 E3.71497
G1 X53.237 Y50.226 E3.83579
G1 X56.472 Y49.517 E3.96101
G1 X59.756 Y49.090 E4.08623
G1 X63.065 Y48.947 E4.21145
G1 X66.374 Y49.090 E4.33667
G1 X69.658 Y49.517 E4.46189
G1 X72.894 Y50.226 E4.58711
G1 X73.005 Y50.260 E4.59151
G1 X73.005 Y50.260 E4.59151
G1 X76.056 Y51.210 E4.71233
G1 X76.164 Y51.254 E4.71673
G1 X76.164 Y51.254 E4.71673
G1 X79.121 Y52.464 E4.83755
G1 X80.968 Y53.412 E4.91604
G1 X80.968 Y59.204 E5.13502
G1 X80.821 Y59.266 E5.14105
G1 X78.238 Y56.763 E5.27703
G1 F1080.000 E4.27703
G92 E0
G1 X46.597 Y74.184 F4500.000
G1 F1080.000 E1.00000
G1 X45.956 Y74.805 F1037.601 E1.03375
G1 X45.811 Y74.744 E1.03970
G1 X45.811 Y74.032 E1.06661
G1 X46.305 Y74.032 E1.08529
G1 F1080.000 E0.08529
G92 E0
G1 X79.533 Y74.184 F4500.000
G1 F1080.000 E1.00000
G1 X79.595 Y74.032 F1037.601 E1.00620
G1 X80.189 Y74.032 E1.02866
G1 X80.189 Y74.617 E1.05078
G1 X80.044 Y74.678 E1.05674
G1 X79.817 Y74.458 E1.06870
G1 F1080.000 E0.06870
G92 E0
G1 X47.559 Y73.794 F4500.000
G1 F1080.000 E1.00000
G1 X45.566 Y75.725 F1037.601 E1.10490
G1 X45.421 Y75.663 E1.11086
G1 X45.421 Y70.967 E1.28840
G1 X45.979 Y70.681 E1.31208
G1 X45.979 Y73.642 E1.42403
G1 X47.268 Y73.642 E1.47276
G1 F1080.000 E0.47276
G92 E0
G1 X78.571 Y73.794 F4500.000
G1 F1080.000 E1.00000
G1 X78.633 Y73.642 F1037.601 E1.00620
G1 X80.152 Y73.642 E1.06365
G1 X80.152 Y70.681 E1.17559
G1 X80.579 Y70.900 E1.19372
G1 X80.579 Y75.537 E1.36902
G1 X80.434 Y75.598 E1.37497
G1 X78.854 Y74.069 E1.45809
G1 X77.955 Y73.740 F4500.000
G1 X77.910 Y73.661 F1037.601 E1.46151
G1 X77.899 Y73.628 E1.46284
G1 X77.892 Y73.586 E1.46443
G1 X77.890 Y73.544 E1.46602
G1 X77.895 Y73.502 E1.46761
G1 X77.905 Y73.461 E1.46920
G1 X77.921 Y73.422 E1.47080
G1 X77.942 Y73.386 E1.47239
G1 X77.968 Y73.353 E1.47398
G1 X77.999 Y73.324 E1.47557
G1 X78.033 Y73.299 E1.47716
G1 X78.070 Y73.279 E1.47876
G1 X78.109 Y73.265 E1.48035
G1 X78.151 Y73.256 E1.48194
G1 X78.199 Y73.253 E1.48379
G1 X79.762 Y73.253 E1.54289
G1 X79.762 Y70.931 E1.63068
G1 X77.058 Y69.651 E1.74378
G1 X74.370 Y68.635 E1.85247
G1 X71.608 Y67.837 E1.96115
G1 X68.791 Y67.264 E2.06983
G1 X65.938 Y66.918 E2.17851
G1 X63.065 Y66.803 E2.28719
G1 X60.193 Y66.918 E2.39588
G1 X57.339 Y67.264 E2.50456
G1 X54.523 Y67.837 E2.61324
G1 X54.412 Y67.869 E2.61759
G1 X54.412 Y67.869 E2.61759
G1 X51.761 Y68.635 E2.72192
G1 X49.072 Y69.651 E2.83061
G1 X46.368 Y70.931 E2.94371
G1 X46.368 Y73.253 E3.03150
G1 X47.931 Y73.253 E3.09060
G1 X47.980 Y73.256 E3.09245
G1 X48.021 Y73.265 E3.09404
G1 X48.061 Y73.279 E3.09563
G1 X48.098 Y73.299 E3.09722
G1 X48.132 Y73.324 E3.09882
G1 X48.162 Y73.353 E3.10041
G1 X48.188 Y73.386 E3.10200
G1 X48.209 Y73.422 E3.10359
G1 X48.225 Y73.461 E3.10518
G1 X48.236 Y73.502 E3.10678
G1 X48.240 Y73.544 E3.10837
G1 X48.239 Y73.586 E3.10996
G1 X48.232 Y73.628 E3.11155
