; generated by Slic3r 0.9.3 on 2013-06-09 at 18:31:12

; layer_height = 0.4
; perimeters = 3
; solid_layers = 3
; fill_density = 0.4
; perimeter_speed = 30
; infill_speed = 60
; travel_speed = 130
; scale = 1
; nozzle_diameter = 0.5
; filament_diameter = 3
; extrusion_multiplier = 1
; single wall width = 0.53mm

M104 S200 ; set temperature
G28 ; home all axes
M109 S200 ; wait for temperature to be reached
G90 ; use absolute coordinates
G21 ; set units to millimeters
G92 E0
M82 ; use absolute distances for extrusion
G1 F1800.000 E-1.00000
G92 E0
G1 Z0.400 F7800.000
G1 X80.715 Y92.695
G1 F1800.000 E1.00000
G1 X83.405 Y91.665 F540.000 E1.08470
G1 X83.485 Y91.645 E1.08713
G1 X87.265 Y90.295 E1.20515
G1 X92.175 Y89.085 E1.35385
G1 X92.855 Y88.955 E1.37421
G1 X96.665 Y88.485 E1.48709
G1 X99.945 Y88.345 E1.58363
G1 X103.965 Y88.545 E1.70199
G1 X107.245 Y88.955 E1.79919
G1 X107.995 Y89.095 E1.82162
G1 X112.935 Y90.315 E1.97125
G1 X116.345 Y91.525 E2.07765
G1 X120.105 Y93.265 E2.19948
G1 X120.605 Y93.555 E2.21647
G1 X120.855 Y93.725 E2.22536
G1 X121.315 Y94.085 E2.24254
G1 X121.745 Y94.485 E2.25981
G1 X122.135 Y94.925 E2.27710
G1 X122.795 Y95.825 E2.30992
G1 X123.105 Y96.335 E2.32747
G1 X123.365 Y96.865 E2.34482
G1 X123.575 Y97.425 E2.36241
G1 X123.735 Y97.995 E2.37982
G1 X124.225 Y100.935 E2.46746
G1 X124.285 Y101.825 E2.49369
G1 X124.285 Y104.405 E2.56956
G1 X124.235 Y104.945 E2.58551
G1 X124.085 Y105.745 E2.60944
G1 X123.935 Y106.265 E2.62536
G1 X123.735 Y106.765 E2.64119
G1 X123.495 Y107.255 E2.65723
G1 X123.365 Y107.485 E2.66500
G1 X122.905 Y108.155 E2.68890
G1 X122.555 Y108.565 E2.70475
G1 X122.365 Y108.765 E2.71286
G1 X121.755 Y109.295 E2.73663
G1 X121.085 Y109.755 E2.76052
G1 X120.605 Y110.005 E2.77644
G1 X119.785 Y110.365 E2.80277
G1 X119.225 Y110.545 E2.82007
G1 X118.655 Y110.675 E2.83726
G1 X118.365 Y110.725 E2.84591
G1 X117.785 Y110.775 E2.86303
G1 X82.545 Y110.905 E3.89928
G1 X82.265 Y110.905 E3.90752
G1 X81.685 Y110.855 E3.92464
G1 X81.405 Y110.815 E3.93295
G1 X80.845 Y110.685 E3.94986
G1 X80.295 Y110.515 E3.96678
G1 X79.495 Y110.185 E3.99223
G1 X79.025 Y109.945 E4.00775
G1 X78.575 Y109.665 E4.02333
G1 X78.365 Y109.515 E4.03092
G1 X77.755 Y109.005 E4.05430
G1 X77.205 Y108.425 E4.07781
G1 X76.885 Y107.995 E4.09357
G1 X76.475 Y107.325 E4.11667
G1 X76.245 Y106.845 E4.13232
G1 X76.055 Y106.345 E4.14805
G1 X75.845 Y105.585 E4.17123
G1 X75.795 Y105.325 E4.17902
G1 X75.715 Y104.525 E4.20266
G1 X75.715 Y98.955 E4.36645
G1 X75.765 Y98.405 E4.38269
G1 X75.855 Y97.865 E4.39878
G1 X75.915 Y97.595 E4.40692
G1 X76.075 Y97.075 E4.42292
G1 X76.395 Y96.315 E4.44716
G1 X76.525 Y96.065 E4.45545
G1 X76.965 Y95.375 E4.47951
G1 X77.495 Y94.745 E4.50372
G1 X77.685 Y94.545 E4.51183
G1 X78.095 Y94.185 E4.52788
G1 X78.535 Y93.855 E4.54405
G1 X79.245 Y93.425 E4.56846
G1 X80.238 Y92.915 E4.60129
G1 F1800.000 E3.60129
G92 E0
G1 X83.165 Y98.750 F7800.000
G1 F1800.000 E1.00000
G1 X83.165 Y101.830 F540.000 E1.12821
G1 X84.729 Y101.830 E1.19331
G1 X84.855 Y102.142 E1.20733
G1 X82.532 Y104.393 E1.34196
G1 X82.235 Y104.267 E1.35541
G1 X82.235 Y99.228 E1.56515
G1 X82.698 Y98.990 E1.58684
G1 F1800.000 E0.58684
G92 E0
G1 X115.275 Y102.142 F7800.000
G1 F1800.000 E1.00000
G1 X115.402 Y101.830 F540.000 E1.01402
G1 X117.765 Y101.830 E1.11242
G1 X117.765 Y104.140 E1.20857
G1 X117.468 Y104.266 E1.22202
G1 X115.652 Y102.508 E1.32723
G1 F1800.000 E0.32723
G92 E0
G1 X111.379 Y96.650 F7800.000
G1 F1800.000 E1.00000
G1 X114.114 Y97.646 F540.000 E1.12115
G1 X117.069 Y99.040 E1.25718
G1 X117.375 Y99.455 E1.27865
G1 X117.368 Y100.628 E1.32747
G1 X117.165 Y100.830 E1.33937
G1 X117.368 Y100.628 F7800.000
G1 X117.643 Y100.892 F540.000 E1.35524
G1 F1800.000 E0.35524
G92 E0
G1 X111.379 Y96.650 F7800.000
G1 F1800.000 E1.00000
G1 X106.443 Y95.432 F540.000 E1.21165
G1 X103.159 Y95.015 E1.34944
G1 X100.229 Y94.875 E1.47156
G1 X96.946 Y95.009 E1.60835
G1 X93.688 Y95.432 E1.74510
G1 X89.461 Y96.440 E1.92600
G1 X85.678 Y97.794 E2.09327
G1 X85.424 Y97.927 E2.10520
G1 X84.443 Y98.362 E2.14984
G1 X84.179 Y98.470 E2.16175
G1 X84.057 Y98.386 F7800.000
G1 X84.179 Y98.470 F540.000 E2.16792
G1 X83.910 Y98.905 E2.18920
G1 X83.871 Y98.930 E2.19111
G1 F1800.000 E1.19111
G92 E0
G1 Z0.800 F7800.000
G1 X83.934 Y102.215
G1 F1800.000 E1.00000
G1 X84.017 Y102.419 F1800.000 E1.00647
G1 X82.814 Y103.584 E1.05572
G1 X82.620 Y103.502 E1.06192
G1 X82.620 Y102.215 E1.09976
G1 X83.409 Y102.215 E1.12299
G1 X83.303 Y101.693 F7800.000
G1 X85.223 Y101.693 F1800.000 E1.17944
G1 X85.306 Y101.898 E1.18594
G1 X82.293 Y104.816 E1.30930
G1 X82.097 Y104.734 E1.31554
G1 X82.097 Y99.144 E1.47990
G1 X84.036 Y98.148 E1.54400
G1 X87.097 Y96.897 E1.64122
G1 X90.254 Y95.914 E1.73845
G1 X91.473 Y95.647 E1.77516
G1 X91.594 Y96.123 E1.78962
G1 X88.740 Y96.947 E1.87697
G1 X86.047 Y97.966 E1.96165
G1 X83.303 Y99.264 E2.05090
G1 X83.303 Y101.168 E2.10688
G1 F1800.000 E1.10688
G92 E0
G1 X92.844 Y95.876 F7800.000
G1 F1800.000 E1.00000
G1 X92.737 Y95.370 F1800.000 E1.01521
G1 X93.483 Y95.207 E1.03769
G1 X94.045 Y95.134 E1.05433
G1 X94.125 Y95.615 E1.06870
G1 X93.358 Y95.772 E1.09171
G1 F1800.000 E0.09171
G92 E0
G1 X106.006 Y95.615 F7800.000
G1 F1800.000 E1.00000
G1 X106.086 Y95.134 F1800.000 E1.01436
G1 X106.647 Y95.207 E1.03101
G1 X107.394 Y95.370 E1.05349
G1 X107.287 Y95.876 E1.06870
G1 X106.520 Y95.720 E1.09171
G1 F1800.000 E0.09171
G92 E0
G1 X116.196 Y102.215 F7800.000
G1 F1800.000 E1.00000
G1 X117.380 Y102.215 F1800.000 E1.03482
G1 X117.380 Y103.375 E1.06894
G1 X117.186 Y103.458 E1.07515
G1 X116.333 Y102.631 E1.11008
G1 X116.828 Y101.693 F7800.000
G1 X116.828 Y99.264 F1800.000 E1.18150
G1 X114.084 Y97.966 E1.27076
G1 X111.390 Y96.947 E1.35544
G1 X108.536 Y96.123 E1.44279
G1 X108.657 Y95.647 E1.45724
G1 X109.877 Y95.914 E1.49396
G1 X113.034 Y96.897 E1.59118
G1 X116.094 Y98.148 E1.68840
G1 X117.903 Y99.077 E1.74819
G1 X117.903 Y104.607 E1.91080
G1 X117.707 Y104.690 E1.91704
G1 X114.825 Y101.898 E2.03505
G1 X114.908 Y101.693 E2.04155
G1 X116.303 Y101.693 E2.08257
G1 F1800.000 E1.08257
G92 E0
G1 X92.134 Y95.622 F7800.000
G1 F1800.000 E1.00000
G1 X92.257 Y95.946 F1800.000 E1.01020
G1 X92.197 Y95.881 F7800.000
G1 X92.067 Y96.106 F1800.000 E1.01786
G1 X92.134 Y95.622 F7800.000
G1 X92.105 Y95.611 F1800.000 E1.01876
G1 F1800.000 E0.01876
G92 E0
G1 X94.692 Y95.432 F7800.000
G1 F1800.000 E1.00000
G1 X94.696 Y95.421 F1800.000 E1.00035
G1 X94.814 Y95.275 E1.00588
G1 X94.682 Y95.171 E1.01081
G1 X94.814 Y95.275 F7800.000
G1 X95.193 Y95.223 F1800.000 E1.02207
G1 X95.645 Y95.174 E1.03541
G1 X97.144 Y94.989 E1.07984
G1 X99.959 Y94.875 E1.16267
G1 X102.032 Y94.964 E1.22371
G1 X105.290 Y95.270 E1.31992
G1 X105.453 Y95.150 E1.32586
G1 X105.290 Y95.270 F7800.000
G1 X105.373 Y95.382 F1800.000 E1.32997
G1 X105.384 Y95.390 E1.33037
G1 F1800.000 E0.33037
G92 E0
G1 X107.873 Y95.946 F7800.000
G1 F1800.000 E1.00000
G1 X107.933 Y95.881 F1800.000 E1.00260
G1 X107.993 Y95.628 E1.01022
G1 X108.026 Y95.611 E1.01131
G1 X107.933 Y95.881 F7800.000
G1 X108.064 Y96.106 F1800.000 E1.01897
G1 F1800.000 E0.01897
G92 E0
G1 X82.685 Y101.840 F7800.000
G1 F1800.000 E1.00000
G1 X82.671 Y101.339 F3600.000 E1.01472
G1 X82.685 Y101.840 F7800.000
G1 X82.671 Y101.339 F3600.000 E1.02944
G1 X82.627 Y99.838 E1.07360
G1 F1800.000 E0.07360
G92 E0
G1 Z1.200 F7800.000
G1 X82.620 Y102.215
G1 F1800.000 E1.00000
G1 X83.934 Y102.215 F1800.000 E1.03866
G1 X84.017 Y102.419 E1.04513
G1 X82.814 Y103.584 E1.09438
G1 X82.620 Y103.502 E1.10058
G1 X82.620 Y102.740 E1.12299
G1 X83.303 Y101.693 F7800.000
G1 X85.223 Y101.693 F1800.000 E1.17944
G1 X85.306 Y101.898 E1.18594
G1 X82.293 Y104.816 E1.30930
G1 X82.097 Y104.734 E1.31554
G1 X82.097 Y99.144 E1.47990
G1 X84.036 Y98.148 E1.54400
G1 X87.097 Y96.897 E1.64122
G1 X90.254 Y95.914 E1.73845
G1 X91.473 Y95.647 E1.77516
G1 X91.594 Y96.123 E1.78962
G1 X88.740 Y96.947 E1.87697
G1 X88.633 Y96.988 E1.88035
G1 X88.633 Y96.988 E1.88035
G1 X86.047 Y97.966 E1.96165
G1 X85.404 Y98.270 E1.98255
G1 X85.404 Y98.270 E1.98255
G1 X83.303 Y99.264 E2.05090
G1 X83.303 Y101.168 E2.10688
G1 F1800.000 E1.10688
G92 E0
G1 X92.844 Y95.876 F7800.000
G1 F1800.000 E1.00000
G1 X92.737 Y95.370 F1800.000 E1.01521
G1 X93.483 Y95.207 E1.03769
G1 X94.045 Y95.134 E1.05433
G1 X94.125 Y95.615 E1.06870
G1 X93.358 Y95.772 E1.09171
G1 F1800.000 E0.09171
G92 E0
G1 X106.006 Y95.615 F7800.000
G1 F1800.000 E1.00000
G1 X106.086 Y95.134 F1800.000 E1.01436
G1 X106.647 Y95.207 E1.03101
G1 X107.394 Y95.370 E1.05349
G1 X107.287 Y95.876 E1.06870
G1 X106.520 Y95.720 E1.09171
G1 F1800.000 E0.09171
G92 E0
G1 X116.196 Y102.215 F7800.000
G1 F1800.000 E1.00000
G1 X117.380 Y102.215 F1800.000 E1.03482
G1 X117.380 Y103.375 E1.06894
G1 X117.186 Y103.458 E1.07515
G1 X116.333 Y102.631 E1.11008
G1 X116.828 Y101.693 F7800.000
G1 X116.828 Y99.264 F1800.000 E1.18150
G1 X114.084 Y97.966 E1.27076
G1 X111.390 Y96.947 E1.35544
G1 X108.536 Y96.123 E1.44279
G1 X108.657 Y95.647 E1.45724
G1 X109.877 Y95.914 E1.49396
G1 X113.034 Y96.897 E1.59118
G1 X116.094 Y98.148 E1.68840
G1 X117.903 Y99.077 E1.74819
G1 X117.903 Y104.607 E1.91080
G1 X117.707 Y104.690 E1.91704
G1 X114.825 Y101.898 E2.03505
G1 X114.908 Y101.693 E2.04155
G1 X116.303 Y101.693 E2.08257
G1 F1800.000 E1.08257
G92 E0
G1 X92.134 Y95.622 F7800.000
G1 F1800.000 E1.00000
G1 X92.257 Y95.946 F1800.000 E1.01020
G1 X92.197 Y95.881 F7800.000
G1 X92.067 Y96.106 F1800.000 E1.01786
G1 X92.134 Y95.622 F7800.000
G1 X92.105 Y95.611 F1800.000 E1.01876
G1 F1800.000 E0.01876
G92 E0
G1 X94.695 Y95.421 F7800.000
G1 F1800.000 E1.00000
G1 X94.814 Y95.274 F1800.000 E1.00556
G1 X94.682 Y95.171 E1.01048
G1 X94.814 Y95.274 F7800.000
G1 X94.946 Y95.258 F1800.000 E1.01439
G1 X94.949 Y95.258 E1.01449
G1 X97.966 Y94.954 E1.10364
G1 X99.962 Y94.873 E1.16238
G1 X102.996 Y94.991 E1.25166
G1 X105.290 Y95.269 E1.31961
G1 X105.466 Y95.136 E1.32612
G1 X105.290 Y95.269 F7800.000
G1 X105.384 Y95.390 F1800.000 E1.33063
G1 F1800.000 E0.33063
G92 E0
G1 X107.843 Y95.967 F7800.000
G1 F1800.000 E1.00000
G1 X107.929 Y95.880 F1800.000 E1.00358
G1 X107.993 Y95.628 E1.01123
G1 X108.026 Y95.611 E1.01231
G1 X107.935 Y95.877 F7800.000
G1 X108.030 Y96.061 F1800.000 E1.01840
G1 F1800.000 E0.01840
G92 E0
G1 X82.685 Y101.840 F7800.000
G1 F1800.000 E1.00000
G1 X82.671 Y101.339 F3600.000 E1.01472
G1 X82.685 Y101.840 F7800.000
G1 X82.671 Y101.339 F3600.000 E1.02944
G1 X82.627 Y99.838 E1.07360
G1 F1800.000 E0.07360
G92 E0
G1 Z1.600 F7800.000
G1 X82.620 Y102.215
G1 F1800.000 E1.00000
G1 X83.934 Y102.215 F1800.000 E1.03866
G1 X84.017 Y102.419 E1.04513
G1 X82.814 Y103.584 E1.09438
G1 X82.620 Y103.502 E1.10058
G1 X82.620 Y102.740 E1.12299
G1 X83.303 Y101.693 F7800.000
G1 X85.223 Y101.693 F1800.000 E1.17944
G1 X85.306 Y101.898 E1.18594
G1 X82.293 Y104.816 E1.30930
G1 X82.097 Y104.734 E1.31554
G1 X82.097 Y99.144 E1.47990
G1 X84.036 Y98.148 E1.54400
G1 X87.097 Y96.897 E1.64122
G1 X90.254 Y95.914 E1.73845
G1 X91.473 Y95.647 E1.77516
G1 X91.594 Y96.123 E1.78962
G1 X88.740 Y96.947 E1.87697
G1 X86.047 Y97.966 E1.96165
G1 X83.303 Y99.264 E2.05090
G1 X83.303 Y101.168 E2.10688
G1 F1800.000 E1.10688
G92 E0
G1 X92.843 Y95.876 F7800.000
G1 F1800.000 E1.00000
G1 X92.737 Y95.370 F1800.000 E1.01521
G1 X93.483 Y95.207 E1.03769
G1 X94.045 Y95.134 E1.05433
G1 X94.125 Y95.615 E1.06870
G1 X93.358 Y95.772 E1.09171
G1 F1800.000 E0.09171
G92 E0
G1 X106.006 Y95.615 F7800.000
G1 F1800.000 E1.00000
G1 X106.086 Y95.134 F1800.000 E1.01436
G1 X106.647 Y95.207 E1.03101
G1 X107.394 Y95.370 E1.05349
G1 X107.287 Y95.876 E1.06870
G1 X106.520 Y95.720 E1.09171
G1 F1800.000 E0.09171
G92 E0
G1 X116.196 Y102.215 F7800.000
G1 F1800.000 E1.00000
G1 X117.380 Y102.215 F1800.000 E1.03482
G1 X117.380 Y103.375 E1.06894
G1 X117.186 Y103.458 E1.07515
G1 X116.333 Y102.631 E1.11008
G1 X116.828 Y101.693 F7800.000
G1 X116.828 Y99.264 F1800.000 E1.18150
G1 X114.084 Y97.966 E1.27076
G1 X111.390 Y96.947 E1.35544
G1 X108.536 Y96.123 E1.44279
G1 X108.657 Y95.647 E1.45724
G1 X109.877 Y95.914 E1.49396
G1 X113.034 Y96.897 E1.59118
G1 X116.094 Y98.148 E1.68840
G1 X117.903 Y99.077 E1.74819
G1 X117.903 Y104.607 E1.91080
G1 X117.707 Y104.690 E1.91704
G1 X114.825 Y101.898 E2.03505
G1 X114.908 Y101.693 E2.04155
G1 X116.303 Y101.693 E2.08257
G1 F1800.000 E1.08257
G92 E0
G1 X92.134 Y95.622 F7800.000
G1 F1800.000 E1.00000
G1 X92.257 Y95.946 F1800.000 E1.01020
G1 X92.197 Y95.881 F7800.000
G1 X92.067 Y96.106 F1800.000 E1.01786
G1 X92.134 Y95.622 F7800.000
G1 X92.105 Y95.611 F1800.000 E1.01876
G1 F1800.000 E0.01876
G92 E0
G1 X94.694 Y95.429 F7800.000
G1 F1800.000 E1.00000
G1 X94.696 Y95.421 F1800.000 E1.00025
G1 X94.814 Y95.275 E1.00577
G1 X94.946 Y95.255 F7800.000
G1 X96.681 Y95.035 F1800.000 E1.05719
G1 X98.049 Y94.966 E1.09748
G1 X100.160 Y94.875 E1.15962
G1 X102.980 Y94.988 E1.24261
G1 X105.283 Y95.276 E1.31084
G1 X105.455 Y95.150 E1.31711
G1 X105.283 Y95.276 F7800.000
G1 X105.476 Y95.537 F1800.000 E1.32665
G1 F1800.000 E0.32665
G92 E0
G1 X107.896 Y95.929 F7800.000
G1 F1800.000 E1.00000
G1 X107.932 Y95.887 F1800.000 E1.00162
G1 X107.993 Y95.628 E1.00944
G1 X108.026 Y95.611 E1.01052
G1 X107.932 Y95.887 F7800.000
G1 X108.089 Y96.135 F1800.000 E1.01916
G1 F1800.000 E0.01916
G92 E0
G1 X94.946 Y95.255 F7800.000
G1 F1800.000 E1.00000
G1 X94.682 Y95.171 F1800.000 E1.00812
G1 F1800.000 E0.00812
G92 E0
G1 X82.685 Y101.840 F7800.000
G1 F1800.000 E1.00000
G1 X82.671 Y101.339 F3600.000 E1.01472
G1 X82.685 Y101.840 F7800.000
G1 X82.671 Y101.339 F3600.000 E1.02944
G1 X82.627 Y99.838 E1.07360
G1 F1800.000 E0.07360
G92 E0
G1 Z2.000 F7800.000
G1 X82.620 Y102.215
G1 F1800.000 E1.00000
G1 X83.934 Y102.215 F1800.000 E1.03866
G1 X84.017 Y102.419 E1.04513
G1 X82.814 Y103.584 E1.09438
G1 X82.620 Y103.502 E1.10058
G1 X82.620 Y102.740 E1.12299
G1 X83.303 Y101.693 F7800.000
G1 X85.223 Y101.693 F1800.000 E1.17944
G1 X85.306 Y101.898 E1.18594
G1 X82.293 Y104.816 E1.30930
G1 X82.097 Y104.734 E1.31554
G1 X82.097 Y99.144 E1.47990
G1 X82.714 Y98.828 E1.50027
G1 X82.714 Y98.828 E1.50027
G1 X84.036 Y98.148 E1.54400
G1 X87.097 Y96.897 E1.64122
G1 X90.254 Y95.914 E1.73845
G1 X91.473 Y95.647 E1.77517
G1 X91.594 Y96.123 E1.78962
G1 X88.740 Y96.947 E1.87697
G1 X86.047 Y97.966 E1.96165
G1 X83.303 Y99.264 E2.05090
G1 X83.303 Y101.168 E2.10688
G1 F1800.000 E1.10688
G92 E0
G1 X92.844 Y95.876 F7800.000
G1 F1800.000 E1.00000
G1 X92.737 Y95.370 F1800.000 E1.01521
G1 X93.483 Y95.207 E1.03769
G1 X94.045 Y95.134 E1.05433
G1 X94.125 Y95.615 E1.06870
G1 X93.358 Y95.772 E1.09171
G1 F1800.000 E0.09171
G92 E0
G1 X106.006 Y95.615 F7800.000
G1 F1800.000 E1.00000
G1 X106.086 Y95.134 F1800.000 E1.01436
G1 X106.647 Y95.207 E1.03101
G1 X107.394 Y95.370 E1.05349
G1 X107.287 Y95.876 E1.06870
G1 X106.520 Y95.720 E1.09171
G1 F1800.000 E0.09171
G92 E0
G1 X116.196 Y102.215 F7800.000
G1 F1800.000 E1.00000
G1 X117.380 Y102.215 F1800.000 E1.03482
G1 X117.380 Y103.375 E1.06894
G1 X117.186 Y103.458 E1.07515
G1 X116.333 Y102.631 E1.11008
G1 X116.828 Y101.693 F7800.000
G1 X116.828 Y99.264 F1800.000 E1.18150
G1 X114.084 Y97.966 E1.27076
G1 X111.390 Y96.947 E1.35544
G1 X108.536 Y96.123 E1.44279
G1 X108.657 Y95.647 E1.45724
G1 X109.877 Y95.914 E1.49396
G1 X113.034 Y96.897 E1.59118
G1 X116.094 Y98.148 E1.68840
G1 X117.903 Y99.077 E1.74819
G1 X117.903 Y104.607 E1.91080
G1 X117.707 Y104.690 E1.91704
G1 X114.825 Y101.898 E2.03505
G1 X114.908 Y101.693 E2.04155
G1 X116.303 Y101.693 E2.08257
G1 F1800.000 E1.08257
G92 E0
G1 X92.134 Y95.622 F7800.000
G1 F1800.000 E1.00000
G1 X92.257 Y95.946 F1800.000 E1.01020
G1 X92.197 Y95.881 F7800.000
G1 X92.067 Y96.106 F1800.000 E1.01786
