; generated by Slic3r 0.9.10b on 2013-06-29 at 12:25:43

; layer_height = .25
; perimeters = 3
; top_solid_layers = 2
; bottom_solid_layers = 2
; fill_density = 0.3
; perimeter_speed = 30
; infill_speed = 60
; travel_speed = 75
; nozzle_diameter = 0.35
; filament_diameter = 1.8
; extrusion_multiplier = 1
; perimeters extrusion width = 0.39mm
; infill extrusion width = 0.39mm
; solid infill extrusion width = 0.39mm
; top infill extrusion width = 0.39mm

G21 ; set units to millimeters
M107
G92 E0	;reset extruder location
G1 E5	;Prime extruder
G28	;Go Home
;G1 E20	Prime extruder
G90 ; use absolute coordinates
G92 E0
M82 ; use absolute distances for extrusion
G1 F1080.000 E-1.00000
G92 E0
G1 Z0.250 F4500.000
G1 X11.045 Y23.505
G1 F1080.000 E1.00000
G1 X11.739 Y23.218 F1800.000 E1.02840
G1 X12.469 Y23.042 E1.05678
G1 X13.214 Y22.984 E1.08503
G1 X13.963 Y23.043 E1.11342
G1 X14.693 Y23.219 E1.14182
G1 X15.384 Y23.505 E1.17012
G1 X16.022 Y23.897 E1.19840
G1 X16.593 Y24.383 E1.22677
G1 X17.080 Y24.954 E1.25514
G1 X17.471 Y25.592 E1.28345
G1 X17.758 Y26.284 E1.31175
G1 X17.934 Y27.014 E1.34014
G1 X17.993 Y27.763 E1.36854
G1 X17.935 Y28.508 E1.39679
G1 X17.759 Y29.238 E1.42517
G1 X17.471 Y29.932 E1.45357
G1 X17.080 Y30.569 E1.48186
G1 X16.592 Y31.138 E1.51019
G1 X16.179 Y31.493 E1.53080
G1 X16.023 Y31.626 E1.53852
G1 X15.386 Y32.017 E1.56681
G1 X14.692 Y32.305 E1.59522
G1 X13.962 Y32.480 E1.62360
G1 X13.217 Y32.538 E1.65184
G1 X12.468 Y32.480 E1.68024
G1 X11.738 Y32.304 E1.70863
G1 X11.047 Y32.017 E1.73694
G1 X10.409 Y31.626 E1.76522
G1 X9.993 Y31.271 E1.78590
G1 X9.837 Y31.138 E1.79364
G1 X9.351 Y30.568 E1.82198
G1 X8.959 Y29.930 E1.85026
G1 X8.673 Y29.239 E1.87857
G1 X8.497 Y28.508 E1.90696
G1 X8.438 Y27.760 E1.93535
G1 X8.496 Y27.015 E1.96360
G1 X8.672 Y26.285 E1.99198
G1 X8.959 Y25.591 E2.02038
G1 X9.350 Y24.955 E2.04861
G1 X9.837 Y24.383 E2.07701
G1 X10.409 Y23.896 E2.10542
G1 X10.996 Y23.536 E2.13146
G1 X11.221 Y23.849 F4500.000
G1 X11.858 Y23.585 F1800.000 E2.15755
G1 X12.529 Y23.424 E2.18363
G1 X13.214 Y23.370 E2.20961
G1 X13.902 Y23.424 E2.23571
G1 X14.573 Y23.586 E2.26180
G1 X15.209 Y23.849 E2.28780
G1 X15.795 Y24.209 E2.31383
G1 X16.320 Y24.656 E2.33988
G1 X16.767 Y25.181 E2.36596
G1 X17.128 Y25.768 E2.39201
G1 X17.391 Y26.404 E2.41801
G1 X17.552 Y27.074 E2.44410
G1 X17.607 Y27.763 E2.47019
G1 X17.553 Y28.448 E2.49618
G1 X17.392 Y29.118 E2.52226
G1 X17.128 Y29.756 E2.54835
G1 X16.768 Y30.342 E2.57436
G1 X16.319 Y30.865 E2.60041
G1 X15.928 Y31.201 E2.61988
G1 X15.796 Y31.313 E2.62645
G1 X15.210 Y31.674 E2.65247
G1 X14.572 Y31.938 E2.67856
G1 X13.902 Y32.099 E2.70464
G1 X13.217 Y32.152 E2.73062
G1 X12.529 Y32.098 E2.75671
G1 X11.858 Y31.937 E2.78281
G1 X11.222 Y31.674 E2.80881
G1 X10.635 Y31.313 E2.83484
G1 X10.242 Y30.978 E2.85437
G1 X10.110 Y30.865 E2.86095
G1 X9.663 Y30.341 E2.88698
G1 X9.303 Y29.754 E2.91301
G1 X9.040 Y29.119 E2.93902
G1 X8.879 Y28.448 E2.96511
G1 X8.824 Y27.760 E2.99120
G1 X8.878 Y27.075 E3.01719
G1 X9.039 Y26.404 E3.04327
G1 X9.303 Y25.767 E3.06936
G1 X9.663 Y25.181 E3.09533
G1 X10.110 Y24.656 E3.12142
G1 X10.636 Y24.209 E3.14751
G1 X11.172 Y23.879 E3.17131
G1 X11.397 Y24.193 F4500.000
G1 X11.978 Y23.952 F1800.000 E3.19509
G1 X12.589 Y23.805 E3.21886
G1 X13.215 Y23.756 E3.24258
G1 X13.842 Y23.806 E3.26638
G1 X14.454 Y23.953 E3.29017
G1 X15.033 Y24.193 E3.31387
G1 X15.569 Y24.522 E3.33765
G1 X16.047 Y24.929 E3.36138
G1 X16.455 Y25.408 E3.38516
G1 X16.784 Y25.944 E3.40895
G1 X17.024 Y26.523 E3.43265
G1 X17.171 Y27.135 E3.45644
G1 X17.220 Y27.762 E3.48024
G1 X17.172 Y28.388 E3.50396
G1 X17.025 Y28.999 E3.52773
G1 X16.784 Y29.580 E3.55151
G1 X16.455 Y30.115 E3.57525
G1 X16.047 Y30.592 E3.59901
G1 X15.678 Y30.908 E3.61735
G1 X15.569 Y31.001 E3.62277
G1 X15.034 Y31.330 E3.64651
G1 X14.453 Y31.571 E3.67029
G1 X13.842 Y31.718 E3.69406
G1 X13.216 Y31.766 E3.71778
G1 X12.589 Y31.717 E3.74158
G1 X11.977 Y31.569 E3.76537
G1 X11.398 Y31.330 E3.78907
G1 X10.862 Y31.001 E3.81285
G1 X10.492 Y30.686 E3.83122
G1 X10.383 Y30.592 E3.83665
G1 X9.976 Y30.115 E3.86037
G1 X9.647 Y29.579 E3.88415
G1 X9.407 Y29.000 E3.90785
G1 X9.260 Y28.388 E3.93164
G1 X9.210 Y27.760 E3.95544
G1 X9.259 Y27.135 E3.97916
G1 X9.406 Y26.524 E4.00293
G1 X9.647 Y25.942 E4.02672
G1 X9.975 Y25.408 E4.05044
G1 X10.383 Y24.929 E4.07422
G1 X10.862 Y24.521 E4.09800
G1 X11.347 Y24.223 E4.11954
G1 X11.714 Y24.411 F4500.000
G1 F1080.000 E3.11954
G92 E0
G1 X23.777 Y16.147 F4500.000
G1 F1080.000 E1.00000
G1 X23.383 Y15.503 F1800.000 E1.02854
G1 X23.098 Y14.814 E1.05673
G1 X22.922 Y14.084 E1.08512
G1 X22.863 Y13.335 E1.11351
G1 X22.921 Y12.590 E1.14176
G1 X23.097 Y11.860 E1.17014
G1 X23.384 Y11.166 E1.19854
G1 X23.775 Y10.530 E1.22677
G1 X24.262 Y9.958 E1.25517
G1 X24.834 Y9.471 E1.28358
G1 X25.470 Y9.080 E1.31180
G1 X25.976 Y8.870 E1.33252
G1 X26.165 Y8.793 E1.34024
G1 X26.891 Y8.619 E1.36846
G1 X27.639 Y8.559 E1.39682
G1 X28.389 Y8.619 E1.42526
G1 X29.116 Y8.794 E1.45355
G1 X29.809 Y9.080 E1.48191
G1 X30.447 Y9.472 E1.51019
G1 X31.018 Y9.958 E1.53856
G1 X31.505 Y10.529 E1.56693
G1 X31.896 Y11.167 E1.59524
G1 X31.975 Y11.356 E1.60297
G1 X32.183 Y11.861 E1.62360
G1 X32.358 Y12.588 E1.65189
G1 X32.418 Y13.338 E1.68033
G1 X32.358 Y14.086 E1.70870
G1 X32.184 Y14.811 E1.73691
G1 X31.896 Y15.507 E1.76535
G1 X31.505 Y16.144 E1.79365
G1 X31.372 Y16.300 E1.80137
G1 X31.017 Y16.713 E1.82198
G1 X30.448 Y17.201 E1.85030
G1 X29.811 Y17.592 E1.87860
G1 X29.117 Y17.880 E1.90700
G1 X28.586 Y18.008 E1.92764
G1 X28.387 Y18.055 E1.93538
G1 X27.642 Y18.113 E1.96363
G1 X26.893 Y18.055 E1.99202
G1 X26.163 Y17.879 E2.02042
G1 X25.474 Y17.594 E2.04860
G1 X24.830 Y17.200 E2.07715
G1 X24.262 Y16.713 E2.10544
G1 X23.814 Y16.190 E2.13146
G1 X24.088 Y15.919 F4500.000
G1 X23.727 Y15.328 F1800.000 E2.15765
G1 X23.465 Y14.694 E2.18359
G1 X23.303 Y14.023 E2.20968
G1 X23.249 Y13.335 E2.23578
G1 X23.303 Y12.650 E2.26176
G1 X23.464 Y11.979 E2.28784
G1 X23.728 Y11.342 E2.31393
G1 X24.088 Y10.756 E2.33990
G1 X24.535 Y10.231 E2.36600
G1 X25.061 Y9.784 E2.39209
G1 X25.646 Y9.424 E2.41806
G1 X26.284 Y9.160 E2.44417
G1 X26.952 Y9.000 E2.47014
G1 X27.639 Y8.945 E2.49621
G1 X28.328 Y9.000 E2.52232
G1 X28.997 Y9.161 E2.54836
G1 X29.634 Y9.424 E2.57439
G1 X30.220 Y9.784 E2.60043
G1 X30.745 Y10.231 E2.62647
G1 X31.192 Y10.756 E2.65255
G1 X31.553 Y11.343 E2.67860
G1 X31.619 Y11.504 E2.68517
G1 X31.816 Y11.980 E2.70464
G1 X31.977 Y12.649 E2.73067
G1 X32.031 Y13.338 E2.75679
G1 X31.977 Y14.025 E2.78286
G1 X31.817 Y14.693 E2.80882
G1 X31.553 Y15.331 E2.83493
G1 X31.193 Y15.917 E2.86095
G1 X31.080 Y16.049 E2.86752
G1 X30.744 Y16.440 E2.88699
G1 X30.221 Y16.888 E2.91304
G1 X29.635 Y17.249 E2.93905
G1 X28.997 Y17.513 E2.96514
G1 X28.496 Y17.633 E2.98465
G1 X28.327 Y17.674 E2.99122
G1 X27.642 Y17.727 E3.01721
G1 X26.954 Y17.673 E3.04330
G1 X26.283 Y17.512 E3.06939
G1 X25.649 Y17.250 E3.09533
G1 X25.058 Y16.888 E3.12152
G1 X24.535 Y16.440 E3.14755
G1 X24.126 Y15.963 E3.17132
G1 X24.400 Y15.692 F4500.000
G1 X24.071 Y15.154 F1800.000 E3.19516
G1 X23.832 Y14.575 E3.21884
G1 X23.685 Y13.963 E3.24263
G1 X23.635 Y13.335 E3.26643
G1 X23.684 Y12.710 E3.29015
G1 X23.831 Y12.099 E3.31392
G1 X24.072 Y11.517 E3.33770
G1 X24.400 Y10.983 E3.36143
G1 X24.808 Y10.504 E3.38521
G1 X25.287 Y10.096 E3.40899
G1 X25.822 Y9.768 E3.43271
G1 X26.403 Y9.527 E3.45648
G1 X27.013 Y9.381 E3.48020
G1 X27.640 Y9.331 E3.50398
G1 X28.267 Y9.381 E3.52777
G1 X28.878 Y9.528 E3.55155
G1 X29.458 Y9.768 E3.57526
G1 X29.994 Y10.097 E3.59905
G1 X30.472 Y10.504 E3.62277
G1 X30.880 Y10.983 E3.64656
G1 X31.209 Y11.519 E3.67035
G1 X31.264 Y11.651 E3.67575
G1 X31.449 Y12.098 E3.69406
G1 X31.596 Y12.710 E3.71784
G1 X31.645 Y13.337 E3.74163
G1 X31.596 Y13.964 E3.76541
G1 X31.449 Y14.574 E3.78913
G1 X31.209 Y15.155 E3.81290
G1 X30.880 Y15.690 E3.83664
G1 X30.787 Y15.799 E3.84205
G1 X30.471 Y16.167 E3.86040
G1 X29.994 Y16.576 E3.88416
G1 X29.459 Y16.905 E3.90789
G1 X28.878 Y17.146 E3.93168
G1 X28.406 Y17.259 E3.95004
G1 X28.267 Y17.293 E3.95545
G1 X27.641 Y17.341 E3.97917
G1 X27.014 Y17.292 E4.00297
G1 X26.402 Y17.144 E4.02676
G1 X25.823 Y16.905 E4.05044
G1 X25.285 Y16.576 E4.07428
G1 X24.808 Y16.167 E4.09805
G1 X24.438 Y15.735 E4.11956
G1 X24.566 Y15.344 F4500.000
G1 F1080.000 E3.11956
G92 E0
G1 X35.476 Y25.772 F4500.000
G1 F1080.000 E1.00000
G1 X41.740 Y23.177 F1800.000 E1.25635
G1 X48.461 Y22.292 E1.51267
G1 X55.182 Y23.177 E1.76899
G1 X61.447 Y25.772 E2.02534
G1 X66.825 Y29.899 E2.28165
G1 X70.952 Y35.277 E2.53796
G1 X73.546 Y41.541 E2.79431
G1 X74.432 Y48.262 E3.05063
G1 X73.546 Y54.984 E3.30695
G1 X70.952 Y61.248 E3.56330
G1 X66.825 Y66.626 E3.81961
G1 X61.447 Y70.753 E4.07592
G1 X55.182 Y73.347 E4.33227
G1 X48.461 Y74.233 E4.58859
G1 X41.740 Y73.347 E4.84491
G1 X35.476 Y70.753 E5.10126
G1 X30.097 Y66.626 E5.35757
G1 X25.971 Y61.248 E5.61389
G1 X23.376 Y54.984 E5.87024
G1 X22.490 Y48.262 E6.12656
G1 X23.376 Y41.541 E6.38287
G1 X25.971 Y35.277 E6.63922
G1 X30.097 Y29.899 E6.89554
G1 X35.430 Y25.807 E7.14967
G1 X35.670 Y26.108 F4500.000
G1 X41.840 Y23.552 F1800.000 E7.40219
G1 X48.461 Y22.680 E7.65467
G1 X55.082 Y23.552 E7.90716
G1 X61.253 Y26.108 E8.15968
G1 X66.328 Y30.003 E8.40157
G1 X66.551 Y30.173 E8.41216
G1 X70.616 Y35.471 E8.66464
G1 X73.171 Y41.642 E8.91716
G1 X74.044 Y48.262 E9.16965
G1 X73.171 Y54.883 E9.42213
G1 X70.616 Y61.054 E9.67465
G1 X66.551 Y66.352 E9.92714
G1 X61.253 Y70.417 E10.17962
G1 X55.082 Y72.973 E10.43214
G1 X48.461 Y73.845 E10.68462
G1 X41.840 Y72.973 E10.93711
G1 X35.670 Y70.417 E11.18963
G1 X30.372 Y66.352 E11.44211
G1 X26.307 Y61.054 E11.69459
G1 X23.751 Y54.883 E11.94711
G1 X22.878 Y48.262 E12.19960
G1 X23.751 Y41.642 E12.45208
G1 X26.307 Y35.471 E12.70460
G1 X30.372 Y30.173 E12.95709
G1 X35.624 Y26.143 E13.20738
G1 X35.864 Y26.444 F4500.000
G1 X41.941 Y23.927 F1800.000 E13.45607
G1 X48.461 Y23.068 E13.70473
G1 X54.981 Y23.927 E13.95338
G1 X61.058 Y26.444 E14.20207
G1 X66.094 Y30.308 E14.44205
G1 X66.276 Y30.448 E14.45072
G1 X70.279 Y35.665 E14.69937
G1 X72.796 Y41.742 E14.94806
G1 X73.656 Y48.262 E15.19672
G1 X72.796 Y54.783 E15.44537
G1 X70.279 Y60.860 E15.69406
G1 X66.276 Y66.077 E15.94271
G1 X61.058 Y70.081 E16.19136
G1 X54.981 Y72.598 E16.44005
G1 X48.461 Y73.457 E16.68870
G1 X41.941 Y72.598 E16.93736
G1 X35.864 Y70.081 E17.18605
G1 X30.646 Y66.077 E17.43470
G1 X26.643 Y60.860 E17.68335
G1 X24.126 Y54.783 E17.93204
G1 X23.267 Y48.262 E18.18069
G1 X24.126 Y41.742 E18.42935
G1 X26.643 Y35.665 E18.67804
G1 X30.646 Y30.448 E18.92669
G1 X35.818 Y26.479 E19.17315
G1 X36.188 Y26.651 F4500.000
G1 F1080.000 E18.17315
G92 E0
G1 X60.120 Y72.578 F4500.000
G1 F1080.000 E1.00000
G1 X60.812 Y72.291 F1800.000 E1.02833
G1 X61.542 Y72.115 E1.05671
G1 X62.287 Y72.057 E1.08496
G1 X63.036 Y72.116 E1.11335
G1 X63.766 Y72.292 E1.14175
G1 X64.458 Y72.579 E1.17005
G1 X65.095 Y72.970 E1.19833
G1 X65.666 Y73.456 E1.22670
G1 X66.153 Y74.027 E1.25507
G1 X66.545 Y74.666 E1.28338
G1 X66.831 Y75.357 E1.31168
G1 X67.007 Y76.087 E1.34007
G1 X67.066 Y76.836 E1.36847
G1 X67.008 Y77.581 E1.39672
G1 X66.832 Y78.311 E1.42510
G1 X66.545 Y79.005 E1.45350
G1 X66.153 Y79.642 E1.48179
G1 X65.666 Y80.211 E1.51012
G1 X65.252 Y80.566 E1.53073
G1 X65.097 Y80.699 E1.53845
G1 X64.459 Y81.091 E1.56675
G1 X63.765 Y81.378 E1.59514
G1 X63.035 Y81.554 E1.62353
G1 X62.290 Y81.612 E1.65177
G1 X61.541 Y81.553 E1.68017
G1 X60.811 Y81.377 E1.70856
G1 X60.120 Y81.090 E1.73687
G1 X59.482 Y80.699 E1.76515
G1 X59.066 Y80.344 E1.78583
G1 X58.910 Y80.211 E1.79357
G1 X58.424 Y79.641 E1.82191
G1 X58.033 Y79.003 E1.85019
G1 X57.746 Y78.312 E1.87850
G1 X57.570 Y77.582 E1.90689
G1 X57.511 Y76.833 E1.93529
G1 X57.570 Y76.088 E1.96353
G1 X57.745 Y75.358 E1.99191
G1 X58.032 Y74.666 E2.02024
G1 X58.424 Y74.026 E2.04861
G1 X58.910 Y73.456 E2.07695
G1 X59.480 Y72.970 E2.10528
G1 X60.071 Y72.608 E2.13146
G1 X60.295 Y72.922 F4500.000
G1 X60.932 Y72.658 F1800.000 E2.15751
G1 X61.602 Y72.497 E2.18359
G1 X62.287 Y72.443 E2.20958
G1 X62.975 Y72.498 E2.23567
G1 X63.646 Y72.659 E2.26176
G1 X64.282 Y72.922 E2.28776
G1 X64.869 Y73.282 E2.31380
G1 X65.393 Y73.729 E2.33984
G1 X65.840 Y74.254 E2.36592
G1 X66.201 Y74.841 E2.39197
G1 X66.464 Y75.477 E2.41797
G1 X66.626 Y76.148 E2.44406
G1 X66.680 Y76.836 E2.47016
G1 X66.626 Y77.521 E2.49614
G1 X66.465 Y78.192 E2.52222
G1 X66.201 Y78.829 E2.54831
G1 X65.841 Y79.415 E2.57433
G1 X65.393 Y79.939 E2.60037
G1 X65.002 Y80.274 E2.61985
G1 X64.870 Y80.387 E2.62641
G1 X64.283 Y80.747 E2.65243
G1 X63.646 Y81.011 E2.67852
G1 X62.975 Y81.172 E2.70460
G1 X62.290 Y81.226 E2.73058
G1 X61.602 Y81.171 E2.75668
G1 X60.931 Y81.010 E2.78277
G1 X60.295 Y80.747 E2.80877
G1 X59.709 Y80.387 E2.83481
G1 X59.316 Y80.052 E2.85433
G1 X59.183 Y79.939 E2.86092
G1 X58.737 Y79.415 E2.88695
G1 X58.376 Y78.828 E2.91298
G1 X58.113 Y78.192 E2.93898
G1 X57.952 Y77.521 E2.96507
G1 X57.898 Y76.833 E2.99117
G1 X57.951 Y76.148 E3.01715
G1 X58.112 Y75.478 E3.04323
G1 X58.376 Y74.841 E3.06928
G1 X58.736 Y74.253 E3.09534
G1 X59.183 Y73.729 E3.12139
G1 X59.707 Y73.282 E3.14744
G1 X60.246 Y72.952 E3.17132
G1 X60.470 Y73.266 F4500.000
G1 X61.051 Y73.025 F1800.000 E3.19508
G1 X61.662 Y72.878 E3.21886
G1 X62.288 Y72.830 E3.24258
G1 X62.915 Y72.879 E3.26637
G1 X63.527 Y73.026 E3.29017
G1 X64.106 Y73.266 E3.31387
G1 X64.642 Y73.595 E3.33765
G1 X65.120 Y74.002 E3.36137
G1 X65.528 Y74.481 E3.38516
G1 X65.857 Y75.017 E3.40895
G1 X66.097 Y75.596 E3.43265
G1 X66.244 Y76.208 E3.45644
G1 X66.294 Y76.835 E3.48023
G1 X66.245 Y77.461 E3.50395
G1 X66.098 Y78.072 E3.52773
G1 X65.857 Y78.653 E3.55151
G1 X65.529 Y79.188 E3.57525
G1 X65.120 Y79.666 E3.59901
G1 X64.751 Y79.981 E3.61735
G1 X64.643 Y80.074 E3.62277
G1 X64.107 Y80.403 E3.64651
G1 X63.526 Y80.644 E3.67029
G1 X62.915 Y80.791 E3.69406
G1 X62.290 Y80.840 E3.71778
G1 X61.662 Y80.790 E3.74158
G1 X61.050 Y80.643 E3.76537
G1 X60.471 Y80.403 E3.78907
G1 X59.935 Y80.074 E3.81285
G1 X59.565 Y79.759 E3.83122
G1 X59.456 Y79.666 E3.83665
G1 X59.049 Y79.188 E3.86037
G1 X58.720 Y78.652 E3.88415
G1 X58.481 Y78.073 E3.90785
G1 X58.333 Y77.461 E3.93164
G1 X58.284 Y76.834 E3.95544
G1 X58.332 Y76.208 E3.97916
G1 X58.479 Y75.597 E4.00293
G1 X58.720 Y75.016 E4.02670
G1 X59.048 Y74.480 E4.05046
G1 X59.456 Y74.002 E4.07422
G1 X59.934 Y73.594 E4.09798
G1 X60.421 Y73.296 E4.11956
G1 X60.787 Y73.484 F4500.000
G1 F1080.000 E3.11956
G92 E0
G1 X72.850 Y65.220 F4500.000
G1 F1080.000 E1.00000
G1 X72.456 Y64.576 F1800.000 E1.02854
G1 X72.171 Y63.887 E1.05673
G1 X71.995 Y63.157 E1.08512
G1 X71.936 Y62.408 E1.11351
G1 X71.995 Y61.663 E1.14176
G1 X72.170 Y60.933 E1.17014
G1 X72.457 Y60.241 E1.19847
G1 X72.563 Y60.067 E1.20619
G1 X72.849 Y59.601 E1.22684
G1 X73.335 Y59.031 E1.25517
G1 X73.905 Y58.545 E1.28351
G1 X74.545 Y58.153 E1.31188
G1 X75.050 Y57.944 E1.33253
G1 X75.238 Y57.866 E1.34025
G1 X75.964 Y57.692 E1.36846
G1 X76.712 Y57.632 E1.39683
G1 X77.462 Y57.692 E1.42527
G1 X78.189 Y57.867 E1.45355
G1 X78.883 Y58.154 E1.48192
G1 X79.520 Y58.545 E1.51020
G1 X80.091 Y59.031 E1.53856
G1 X80.578 Y59.602 E1.56694
G1 X80.970 Y60.241 E1.59525
G1 X81.048 Y60.429 E1.60298
G1 X81.256 Y60.934 E1.62361
G1 X81.431 Y61.661 E1.65190
G1 X81.491 Y62.411 E1.68034
G1 X81.431 Y63.159 E1.70870
G1 X81.257 Y63.885 E1.73692
G1 X80.970 Y64.580 E1.76536
G1 X80.578 Y65.217 E1.79365
G1 X80.445 Y65.373 E1.80137
G1 X80.091 Y65.786 E1.82198
G1 X79.522 Y66.274 E1.85031
G1 X78.884 Y66.666 E1.87860
G1 X78.190 Y66.953 E1.90700
G1 X77.659 Y67.081 E1.92765
G1 X77.460 Y67.129 E1.93538
G1 X76.715 Y67.187 E1.96363
G1 X75.966 Y67.128 E1.99203
G1 X75.236 Y66.952 E2.02042
G1 X74.547 Y66.667 E2.04861
G1 X73.903 Y66.273 E2.07715
G1 X73.335 Y65.786 E2.10544
G1 X72.887 Y65.264 E2.13147
G1 X73.162 Y64.992 F4500.000
G1 X72.800 Y64.401 F1800.000 E2.15766
G1 X72.538 Y63.767 E2.18360
G1 X72.377 Y63.096 E2.20969
G1 X72.323 Y62.408 E2.23578
G1 X72.376 Y61.723 E2.26177
G1 X72.537 Y61.053 E2.28784
G1 X72.801 Y60.416 E2.31389
G1 X72.891 Y60.268 E2.32046
G1 X73.161 Y59.828 E2.33996
G1 X73.608 Y59.304 E2.36600
G1 X74.132 Y58.857 E2.39205
G1 X74.720 Y58.497 E2.41812
G1 X75.357 Y58.233 E2.44418
G1 X76.025 Y58.073 E2.47015
