; generated by Slic3r 0.9.10b on 2013-06-30 at 13:53:35

; layer_height = .25
; perimeters = 3
; top_solid_layers = 2
; bottom_solid_layers = 2
; fill_density = 0.3
; perimeter_speed = 30
; infill_speed = 60
; travel_speed = 75
; nozzle_diameter = 0.35
; filament_diameter = 1.8
; extrusion_multiplier = 1
; perimeters extrusion width = 0.39mm
; infill extrusion width = 0.39mm
; solid infill extrusion width = 0.39mm
; top infill extrusion width = 0.39mm

G21 ; set units to millimeters
M107
G92 E0	;reset extruder location
G1 E5	;Prime extruder
G28	;Go Home
;G1 E20	Prime extruder
G90 ; use absolute coordinates
G92 E0
M82 ; use absolute distances for extrusion
G1 F1080.000 E-1.00000
G92 E0
G1 Z0.250 F4500.000
G1 X31.177 Y35.081
G1 F1080.000 E1.00000
G1 X32.057 Y34.491 F1800.000 E1.04006
G1 X76.847 Y13.021 E2.91801
G1 X77.387 Y12.811 E2.93992
G1 X79.267 Y12.241 E3.01419
G1 X79.617 Y12.151 E3.02786
G1 X79.987 Y12.101 E3.04197
G1 X81.907 Y11.911 E3.11492
G1 X82.277 Y11.891 E3.12893
G1 X82.677 Y11.911 E3.14407
G1 X84.627 Y12.101 E3.21815
G1 X84.987 Y12.151 E3.23189
G1 X85.347 Y12.241 E3.24592
G1 X87.227 Y12.811 E3.32020
G1 X87.577 Y12.941 E3.33431
G1 X87.907 Y13.091 E3.34802
G1 X89.637 Y14.011 E3.42210
G1 X89.957 Y14.201 E3.43617
G1 X90.257 Y14.431 E3.45046
G1 X92.037 Y15.911 E3.53799
G1 X92.287 Y16.191 E3.55218
G1 X93.767 Y18.011 E3.64087
G1 X93.957 Y18.331 E3.65494
G1 X94.877 Y20.061 E3.72902
G1 X95.027 Y20.391 E3.74273
G1 X95.157 Y20.741 E3.75685
G1 X95.727 Y22.621 E3.83112
G1 X95.817 Y22.981 E3.84515
G1 X95.867 Y23.341 E3.85889
G1 X96.057 Y25.291 E3.93297
G1 X96.077 Y25.661 E3.94698
G1 X96.057 Y26.031 E3.96099
G1 X95.867 Y27.981 E4.03506
G1 X84.037 Y110.861 E7.20040
G1 X83.737 Y111.891 E7.24097
G1 X83.157 Y112.801 E7.28177
G1 X82.347 Y113.501 E7.32224
G1 X81.367 Y113.951 E7.36301
G1 X80.307 Y114.101 E7.40349
G1 X60.257 Y114.101 E8.16155
G1 X59.277 Y113.971 E8.19893
G1 X58.367 Y113.591 E8.23622
G1 X57.587 Y112.991 E8.27342
G1 X31.017 Y86.361 E9.69571
G1 X30.417 Y85.581 E9.73292
G1 X30.047 Y84.671 E9.77006
G1 X29.917 Y83.701 E9.80706
G1 X29.917 Y37.891 E11.53908
G1 X30.067 Y36.841 E11.57918
G1 X30.497 Y35.881 E11.61895
G1 X31.140 Y35.125 E11.65646
G1 X31.437 Y35.361 F4500.000
G1 X32.227 Y34.841 F1800.000 E11.69222
G1 X77.017 Y13.371 E13.57018
G1 X77.497 Y13.181 E13.58969
G1 X79.377 Y12.611 E13.66397
G1 X79.697 Y12.531 E13.67644
G1 X80.027 Y12.481 E13.68906
G1 X81.947 Y12.291 E13.76201
G1 X82.637 Y12.291 E13.78810
G1 X84.587 Y12.481 E13.86217
G1 X84.917 Y12.531 E13.87479
G1 X85.237 Y12.611 E13.88726
G1 X87.117 Y13.181 E13.96154
G1 X87.427 Y13.291 E13.97397
G1 X87.727 Y13.431 E13.98649
G1 X89.457 Y14.351 E14.06057
G1 X89.747 Y14.521 E14.07328
G1 X90.017 Y14.721 E14.08599
G1 X91.527 Y15.961 E14.15986
G1 X91.767 Y16.191 E14.17243
G1 X91.987 Y16.431 E14.18474
G1 X93.447 Y18.221 E14.27207
G1 X94.537 Y20.241 E14.35886
G1 X94.677 Y20.541 E14.37137
G1 X94.787 Y20.851 E14.38381
G1 X95.357 Y22.731 E14.45809
G1 X95.437 Y23.051 E14.47056
G1 X95.487 Y23.381 E14.48318
G1 X95.677 Y25.331 E14.55725
G1 X95.687 Y25.661 E14.56973
G1 X95.677 Y25.991 E14.58222
G1 X95.487 Y27.941 E14.65629
G1 X83.657 Y110.811 E17.82126
G1 X83.387 Y111.731 E17.85751
G1 X82.867 Y112.551 E17.89422
G1 X82.137 Y113.181 E17.93068
G1 X81.257 Y113.581 E17.96723
G1 X80.307 Y113.711 E18.00348
G1 X60.257 Y113.711 E18.76154
G1 X58.957 Y113.461 E18.81159
G1 X57.857 Y112.721 E18.86172
G1 X31.287 Y86.091 E20.28401
G1 X30.557 Y84.991 E20.33392
G1 X30.307 Y83.701 E20.38360
G1 X30.307 Y37.891 E22.11562
G1 X30.437 Y36.951 E22.15150
G1 X30.827 Y36.091 E22.18720
G1 X31.400 Y35.405 E22.22098
G1 F1080.000 E21.22098
G92 E0
G1 X79.313 Y25.663 F4500.000
G1 F1080.000 E1.00000
G1 X79.714 Y24.164 F1800.000 E1.05868
G1 X80.810 Y23.064 E1.11738
G1 X82.311 Y22.663 E1.17612
G1 X83.811 Y23.064 E1.23482
G1 X84.910 Y24.163 E1.29357
G1 X85.311 Y25.663 E1.35228
G1 X84.910 Y27.161 E1.41091
G1 X83.811 Y28.260 E1.46966
G1 X82.311 Y28.661 E1.52836
G1 X80.810 Y28.260 E1.58709
G1 X79.714 Y27.160 E1.64578
G1 X79.328 Y25.719 E1.70221
G1 X79.711 Y25.663 F4500.000
G1 X80.059 Y24.363 F1800.000 E1.75310
G1 X81.010 Y23.409 E1.80400
G1 X82.311 Y23.061 E1.85493
G1 X83.612 Y23.409 E1.90583
G1 X84.565 Y24.362 E1.95679
G1 X84.913 Y25.663 E2.00770
G1 X84.565 Y26.962 E2.05853
G1 X83.612 Y27.915 E2.10948
G1 X82.311 Y28.263 E2.16039
G1 X81.010 Y27.915 E2.21131
G1 X80.059 Y26.961 E2.26221
G1 X79.726 Y25.719 E2.31084
G1 X80.110 Y25.663 F4500.000
G1 X80.404 Y24.562 F1800.000 E2.35395
G1 X81.209 Y23.754 E2.39705
G1 X82.311 Y23.460 E2.44017
G1 X83.413 Y23.754 E2.48328
G1 X84.220 Y24.561 E2.52643
G1 X84.514 Y25.663 E2.56954
G1 X84.220 Y26.763 E2.61258
G1 X83.413 Y27.570 E2.65573
G1 X82.311 Y27.864 E2.69884
G1 X81.209 Y27.570 E2.74196
G1 X80.404 Y26.762 E2.78506
G1 X80.125 Y25.719 E2.82591
G1 X80.459 Y25.500 F4500.000
G1 F1080.000 E1.82591
G92 E0
G1 X73.278 Y25.663 F4500.000
G1 F1080.000 E1.00000
G1 X73.451 Y23.900 F1800.000 E1.06697
G1 X73.966 Y22.205 E1.13393
G1 X74.801 Y20.644 E1.20086
G1 X75.925 Y19.274 E1.26786
G1 X77.292 Y18.151 E1.33477
G1 X78.855 Y17.316 E1.40176
G1 X80.550 Y16.801 E1.46873
G1 X82.311 Y16.628 E1.53564
G1 X84.074 Y16.801 E1.60262
G1 X85.769 Y17.316 E1.66958
G1 X87.330 Y18.151 E1.73651
G1 X88.699 Y19.275 E1.80350
G1 X89.823 Y20.644 E1.87048
G1 X90.658 Y22.205 E1.93739
G1 X91.171 Y23.900 E2.00435
G1 X91.346 Y25.663 E2.07134
G1 X91.171 Y27.424 E2.13826
G1 X90.658 Y29.119 E2.20523
G1 X89.823 Y30.682 E2.27219
G1 X88.700 Y32.049 E2.33911
G1 X87.330 Y33.173 E2.40610
G1 X85.769 Y34.008 E2.47303
G1 X84.074 Y34.523 E2.53999
G1 X81.365 Y34.789 E2.64291
G1 X81.363 Y34.895 E2.64692
G1 X77.243 Y35.301 E2.80346
G1 X72.373 Y36.780 E2.99589
G1 X67.884 Y39.179 E3.18833
G1 X63.947 Y42.409 E3.38086
G1 X60.719 Y46.344 E3.57331
G1 X58.320 Y50.833 E3.76575
G1 X56.841 Y55.706 E3.95829
G1 X56.342 Y60.773 E4.15078
G1 X56.841 Y65.838 E4.34321
G1 X58.320 Y70.710 E4.53570
G1 X60.719 Y75.200 E4.72819
G1 X63.947 Y79.135 E4.92061
G1 X67.884 Y82.365 E5.11314
G1 X72.373 Y84.764 E5.30559
G1 X77.245 Y86.243 E5.49808
G1 X79.347 Y86.449 E5.57795
G1 X79.347 Y109.377 E6.44481
G1 X61.225 Y109.377 E7.12996
G1 X61.225 Y87.282 E7.96534
G1 X58.255 Y84.844 E8.11064
G1 X56.603 Y82.739 E8.21180
G1 X34.649 Y82.739 E9.04185
G1 X34.649 Y38.861 E10.70081
G1 X56.607 Y38.861 E11.53100
G1 X58.260 Y36.696 E11.63400
G1 X63.404 Y32.475 E11.88559
G1 X69.287 Y29.328 E12.13783
G1 X73.514 Y28.046 E12.30485
G1 X73.284 Y25.720 E12.39324
G1 F1080.000 E11.39324
G92 E0
G1 X90.145 Y20.429 F4500.000
G1 F1080.000 E1.00000
G1 X91.015 Y22.057 F1800.000 E1.06978
G1 X91.550 Y23.824 E1.13960
G1 X91.733 Y25.663 E1.20946
G1 X91.550 Y27.500 E1.27925
G1 X91.015 Y29.267 E1.34907
G1 X90.145 Y30.897 E1.41892
G1 X88.973 Y32.323 E1.48870
G1 X87.545 Y33.495 E1.55855
G1 X85.917 Y34.365 E1.62835
G1 X84.150 Y34.902 E1.69818
G1 X81.744 Y35.139 E1.78959
G1 X81.742 Y35.245 E1.79360
G1 X77.319 Y35.680 E1.96162
G1 X72.521 Y37.137 E2.15120
G1 X68.099 Y39.501 E2.34078
G1 X64.221 Y42.683 E2.53045
G1 X61.040 Y46.559 E2.72002
G1 X58.677 Y50.981 E2.90960
G1 X57.220 Y55.782 E3.09928
G1 X56.729 Y60.773 E3.28890
G1 X57.220 Y65.763 E3.47846
G1 X58.677 Y70.562 E3.66811
G1 X61.041 Y74.985 E3.85771
G1 X64.221 Y78.861 E4.04727
G1 X68.099 Y82.043 E4.23693
G1 X72.521 Y84.407 E4.42652
G1 X77.320 Y85.864 E4.61614
G1 X79.732 Y86.100 E4.70776
G1 X79.732 Y109.762 E5.60236
G1 X60.840 Y109.762 E6.31662
G1 X60.840 Y87.464 E7.15967
G1 X57.978 Y85.115 E7.29967
G1 X56.416 Y83.124 E7.39536
G1 X34.264 Y83.124 E8.23287
G1 X34.264 Y38.476 E9.92093
G1 X56.417 Y38.476 E10.75848
G1 X57.981 Y36.427 E10.85597
G1 X63.189 Y32.153 E11.11069
G1 X69.139 Y28.971 E11.36580
G1 X73.100 Y27.770 E11.52230
G1 X72.891 Y25.663 E11.60236
G1 X73.072 Y23.824 E11.67220
G1 X73.609 Y22.057 E11.74203
G1 X74.479 Y20.429 E11.81183
G1 X75.651 Y19.001 E11.88168
G1 X77.077 Y17.829 E11.95146
G1 X78.707 Y16.959 E12.02132
G1 X80.474 Y16.422 E12.09115
G1 X82.311 Y16.241 E12.16093
G1 X84.150 Y16.422 E12.23079
G1 X85.917 Y16.959 E12.30061
G1 X87.545 Y17.829 E12.37041
G1 X88.973 Y19.001 E12.44026
G1 X90.108 Y20.385 E12.50792
G1 X90.458 Y20.204 F4500.000
G1 X91.372 Y21.909 F1800.000 E12.58108
G1 X91.929 Y23.749 E12.65376
G1 X92.120 Y25.663 E12.72649
G1 X91.929 Y27.575 E12.79915
G1 X91.372 Y29.415 E12.87183
G1 X90.466 Y31.112 E12.94455
G1 X89.246 Y32.596 E13.01720
G1 X87.760 Y33.816 E13.08991
G1 X86.065 Y34.722 E13.16257
G1 X84.225 Y35.281 E13.23527
G1 X82.122 Y35.488 E13.31518
G1 X82.120 Y35.594 E13.31919
G1 X77.395 Y36.059 E13.49869
G1 X72.669 Y37.494 E13.68543
G1 X68.314 Y39.822 E13.87215
G1 X64.494 Y42.956 E14.05894
G1 X61.362 Y46.774 E14.24564
G1 X59.034 Y51.129 E14.43235
G1 X57.599 Y55.857 E14.61917
G1 X57.116 Y60.773 E14.80593
G1 X57.599 Y65.687 E14.99261
G1 X59.034 Y70.415 E15.17942
G1 X61.362 Y74.770 E15.36614
G1 X64.494 Y78.588 E15.55283
G1 X68.314 Y81.722 E15.73963
G1 X72.669 Y84.050 E15.92635
G1 X77.395 Y85.485 E16.11310
G1 X80.117 Y85.751 E16.21648
G1 X80.117 Y110.147 E17.13883
G1 X60.455 Y110.147 E17.88219
G1 X60.455 Y87.646 E18.73290
G1 X57.701 Y85.385 E18.86762
G1 X56.229 Y83.509 E18.95782
G1 X33.879 Y83.509 E19.80281
G1 X33.879 Y38.091 E21.51997
G1 X56.226 Y38.091 E22.36487
G1 X57.702 Y36.158 E22.45685
G1 X62.974 Y31.832 E22.71470
G1 X68.991 Y28.614 E22.97267
G1 X72.686 Y27.493 E23.11866
G1 X72.504 Y25.663 E23.18820
G1 X72.693 Y23.749 E23.26092
G1 X73.252 Y21.909 E23.33362
G1 X74.158 Y20.214 E23.40627
G1 X75.378 Y18.728 E23.47899
G1 X76.862 Y17.508 E23.55164
G1 X78.559 Y16.602 E23.62436
G1 X80.399 Y16.043 E23.69706
G1 X82.311 Y15.854 E23.76971
G1 X84.225 Y16.043 E23.84243
G1 X86.065 Y16.602 E23.91513
G1 X87.760 Y17.508 E23.98779
G1 X89.246 Y18.728 E24.06050
G1 X90.421 Y20.159 E24.13051
G1 X90.276 Y20.543 F4500.000
G1 F1080.000 E23.13051
G92 E0
G1 X90.760 Y23.504 F4500.000
G1 F1080.000 E1.00000
G1 X90.760 Y27.820 F1800.000 E1.16350
G1 X90.374 Y29.058 E1.21264
G1 X90.374 Y22.266 E1.46998
G1 X89.988 Y21.545 E1.50096
G1 X89.988 Y29.780 E1.81297
G1 X89.603 Y30.502 E1.84398
G1 X89.603 Y20.824 E2.21067
G1 X89.217 Y20.345 E2.23394
G1 X89.217 Y30.980 E2.63684
G1 X88.832 Y31.449 E2.65985
G1 X88.832 Y19.875 E3.09833
G1 X88.446 Y19.427 E3.12073
G1 X88.446 Y31.897 E3.59312
G1 X88.060 Y32.213 E3.61202
G1 X88.060 Y19.111 E4.10840
G1 X87.675 Y18.795 E4.12730
G1 X87.675 Y32.529 E4.64765
G1 X87.289 Y32.846 E4.66655
G1 X87.289 Y18.478 E5.21088
G1 X86.903 Y18.239 E5.22807
G1 X86.903 Y33.085 E5.79051
G1 X86.518 Y33.291 E5.80707
G1 X86.518 Y18.033 E6.38514
G1 X86.132 Y17.827 E6.40171
G1 X86.132 Y33.497 E6.99540
G1 X85.747 Y33.704 E7.01197
G1 X85.747 Y17.620 E7.62128
G1 F1080.000 E6.62128
G92 E0
G1 X79.191 Y17.506 F4500.000
G1 F1080.000 E1.00000
G1 X79.191 Y25.040 F1800.000 E1.28545
G1 X79.577 Y23.907 E1.33081
G1 X79.577 Y17.388 E1.57776
G1 X79.962 Y17.271 E1.59303
G1 X79.962 Y23.520 E1.82977
G1 X80.348 Y23.133 E1.85046
G1 X80.348 Y17.154 E2.07698
G1 X80.733 Y17.063 E2.09199
G1 X80.733 Y22.796 E2.30919
G1 X81.119 Y22.693 E2.32431
G1 X81.119 Y17.025 E2.53904
G1 X81.505 Y16.987 E2.55372
G1 X81.505 Y22.590 E2.76598
G1 X81.890 Y22.487 E2.78110
G1 X81.890 Y16.949 E2.99089
G1 X82.276 Y16.911 E3.00557
G1 X82.276 Y22.384 E3.21289
G1 X82.662 Y22.468 E3.22785
G1 X82.662 Y16.942 E3.43719
G1 X83.047 Y16.980 E3.45187
G1 X83.047 Y22.571 E3.66368
G1 X83.433 Y22.674 E3.67880
G1 X83.433 Y17.018 E3.89309
G1 X83.818 Y17.056 E3.90777
G1 X83.818 Y22.778 E4.12452
G1 X84.204 Y23.063 E4.14270
G1 X84.204 Y17.132 E4.36739
G1 X84.590 Y17.249 E4.38266
G1 X84.590 Y23.449 E4.61753
G1 X84.975 Y23.834 E4.63819
G1 X84.975 Y17.366 E4.88323
G1 X85.361 Y17.484 E4.89849
G1 X85.361 Y24.771 E5.17456
G1 X85.361 Y26.554 F4500.000
G1 X85.361 Y33.840 F1800.000 E5.45060
G1 X84.975 Y33.958 E5.46587
G1 X84.975 Y27.490 E5.71091
G1 X84.590 Y27.875 E5.73157
G1 X84.590 Y34.075 E5.96643
G1 X84.204 Y34.192 E5.98170
G1 X84.204 Y28.261 E6.20640
G1 X83.818 Y28.546 E6.22457
G1 X83.818 Y34.268 E6.44133
G1 X83.433 Y34.306 E6.45601
G1 X83.433 Y28.650 E6.67029
G1 X83.047 Y28.753 E6.68541
G1 X83.047 Y34.344 E6.89723
G1 X82.662 Y34.382 E6.91191
G1 X82.662 Y28.856 E7.12125
G1 X82.276 Y28.940 E7.13620
G1 X82.276 Y34.419 E7.34379
G1 X81.890 Y34.457 E7.35847
G1 X81.890 Y28.837 E7.57139
G1 X81.505 Y28.734 E7.58652
G1 X81.505 Y34.495 E7.80479
G1 X81.119 Y34.533 E7.81947
G1 X81.119 Y28.631 E8.04308
G1 X80.733 Y28.528 E8.05821
G1 X80.733 Y34.677 E8.29118
G1 X80.348 Y34.715 E8.30586
G1 X80.348 Y28.191 E8.55305
G1 X79.962 Y27.804 E8.57374
G1 X79.962 Y34.753 E8.83701
G1 X79.577 Y34.791 E8.85169
G1 X79.577 Y27.417 E9.13105
G1 X79.191 Y26.285 E9.17636
G1 X79.191 Y34.829 E9.50005
G1 X78.805 Y34.867 E9.51473
G1 X78.805 Y17.659 E10.16667
G1 X78.420 Y17.865 E10.18323
G1 X78.420 Y34.905 E10.82881
G1 X78.034 Y34.943 E10.84349
G1 X78.034 Y18.071 E11.48271
G1 X77.648 Y18.277 E11.49927
G1 X77.648 Y34.981 E12.13212
G1 X77.263 Y35.019 E12.14680
G1 X77.263 Y18.536 E12.77127
G1 X76.877 Y18.853 E12.79018
G1 X76.877 Y35.121 E13.40650
G1 X76.492 Y35.238 E13.42177
G1 X76.492 Y19.170 E14.03052
G1 X76.106 Y19.493 E14.04960
G1 X76.106 Y35.355 E14.65052
G1 X75.720 Y35.472 E14.66579
G1 X75.720 Y19.963 E15.25335
G1 X75.335 Y20.433 E15.27638
G1 X75.335 Y35.589 E15.85057
G1 X74.949 Y35.706 E15.86584
G1 X74.949 Y20.958 E16.42457
G1 X74.563 Y21.680 E16.45555
G1 X74.563 Y35.823 E16.99140
G1 X74.178 Y35.940 E17.00666
G1 X74.178 Y22.468 E17.51708
G1 X73.792 Y23.737 E17.56734
G1 X73.792 Y28.020 E17.72962
G1 X73.792 Y28.254 F4500.000
G1 X73.792 Y36.057 F1800.000 E18.02527
G1 X73.407 Y36.175 E18.04054
G1 X73.407 Y28.371 E18.33620
G1 X73.021 Y28.487 E18.35146
G1 X73.021 Y36.292 E18.64713
G1 X72.635 Y36.409 E18.66240
G1 X72.635 Y28.604 E18.95807
G1 X72.250 Y28.721 E18.97333
G1 X72.250 Y36.530 E19.26915
G1 X71.864 Y36.736 E19.28572
G1 X71.864 Y28.838 E19.58491
G1 X71.478 Y28.955 E19.60018
G1 X71.478 Y36.942 E19.90275
G1 X71.093 Y37.148 E19.91932
G1 X71.093 Y29.072 E20.22527
G1 X70.707 Y29.189 E20.24054
G1 X70.707 Y37.354 E20.54987
G1 X70.322 Y37.560 E20.56644
G1 X70.322 Y29.306 E20.87915
G1 X69.936 Y29.423 E20.89441
G1 X69.936 Y37.766 E21.21050
G1 X69.550 Y37.972 E21.22707
G1 X69.550 Y29.540 E21.54654
G1 X69.165 Y29.710 E21.56251
G1 X69.165 Y38.178 E21.88334
G1 X68.779 Y38.384 E21.89990
G1 X68.779 Y29.916 E22.22073
G1 X68.393 Y30.122 E22.23730
G1 X68.393 Y38.591 E22.55812
G1 X68.008 Y38.797 E22.57468
G1 X68.008 Y30.329 E22.89550
G1 X67.622 Y30.535 E22.91207
G1 X67.622 Y39.033 E23.23403
G1 X67.237 Y39.350 E23.25292
G1 X67.237 Y30.741 E23.57906
G1 X66.851 Y30.947 E23.59562
G1 X66.851 Y39.666 E23.92593
G1 X66.465 Y39.982 E23.94483
G1 X66.465 Y31.154 E24.27931
G1 X66.080 Y31.360 E24.29588
G1 X66.080 Y40.299 E24.63453
G1 X65.694 Y40.615 E24.65343
G1 X65.694 Y31.566 E24.99626
G1 X65.308 Y31.773 E25.01283
G1 X65.308 Y40.932 E25.35983
G1 X64.923 Y41.248 E25.37873
G1 X64.923 Y31.979 E25.72991
G1 X64.537 Y32.185 E25.74648
G1 X64.537 Y41.565 E26.10183
G1 X64.151 Y41.881 E26.12073
G1 X64.151 Y32.391 E26.48025
G1 X63.766 Y32.598 E26.49682
G1 X63.766 Y42.198 E26.86052
G1 X63.380 Y42.661 E26.88336
G1 X63.380 Y32.855 E27.25485
G1 X62.995 Y33.172 E27.27375
G1 X62.995 Y43.131 E27.65106
G1 X62.609 Y43.601 E27.67409
G1 X62.609 Y33.488 E28.05722
G1 X62.223 Y33.804 E28.07612
G1 X62.223 Y44.071 E28.46507
G1 X61.838 Y44.541 E28.48810
G1 X61.838 Y34.121 E28.88286
G1 X61.452 Y34.437 E28.90176
G1 X61.452 Y45.011 E29.30234
G1 X61.066 Y45.481 E29.32538
G1 X61.066 Y34.754 E29.73178
G1 X60.681 Y35.070 E29.75067
G1 X60.681 Y45.951 E30.16289
G1 X60.295 Y46.545 E30.18973
G1 X60.295 Y35.386 E30.61247
G1 X59.910 Y35.703 E30.63137
G1 X59.910 Y47.267 E31.06947
G1 X59.524 Y47.988 E31.10046
G1 X59.524 Y36.019 E31.55391
G1 X59.138 Y36.336 E31.57281
G1 X59.138 Y48.710 E32.04161
G1 X58.753 Y49.432 E32.07261
G1 X58.753 Y36.652 E32.55677
G1 X58.367 Y37.015 E32.57683
G1 X58.367 Y50.153 E33.07458
G1 X57.981 Y50.988 E33.10941
G1 X57.981 Y37.520 E33.61965
G1 X57.596 Y38.025 E33.64373
G1 X57.596 Y52.258 E34.18295
G1 X57.210 Y53.529 E34.23326
G1 X57.210 Y38.530 E34.80148
G1 X56.825 Y39.036 E34.82556
G1 X56.825 Y54.800 E35.42278
G1 F1080.000 E34.42278
G92 E0
G1 X56.439 Y56.942 F4500.000
