; generated by Slic3r 0.9.10b on 2013-06-29 at 11:33:07

; layer_height = .25
; perimeters = 3
; top_solid_layers = 2
; bottom_solid_layers = 2
; fill_density = 0.3
; perimeter_speed = 30
; infill_speed = 60
; travel_speed = 75
; nozzle_diameter = 0.35
; filament_diameter = 1.8
; extrusion_multiplier = 1
; perimeters extrusion width = 0.39mm
; infill extrusion width = 0.39mm
; solid infill extrusion width = 0.39mm
; top infill extrusion width = 0.39mm

G21 ; set units to millimeters
M107
G92 E0	;reset extruder location
G1 E5	;Prime extruder
G28	;Go Home
;G1 E20	Prime extruder
G90 ; use absolute coordinates
G92 E0
M82 ; use absolute distances for extrusion
G1 F1080.000 E-1.00000
G92 E0
G1 Z0.250 F4500.000
G1 X33.425 Y8.360
G1 F1080.000 E1.00000
G1 X33.715 Y7.310 F1200.000 E1.04119
G1 X34.285 Y6.390 E1.08210
G1 X35.105 Y5.670 E1.12336
G1 X36.085 Y5.210 E1.16429
G1 X37.165 Y5.050 E1.20557
G1 X57.155 Y5.050 E1.96137
G1 X58.335 Y5.240 E2.00656
G1 X59.405 Y5.790 E2.05204
G1 X103.075 Y38.240 E4.10908
G1 X103.895 Y39.080 E4.15346
G1 X104.415 Y40.120 E4.19743
G1 X104.595 Y41.270 E4.24144
G1 X104.595 Y87.360 E5.98404
G1 X104.445 Y88.410 E6.02414
G1 X104.005 Y89.380 E6.06441
G1 X103.315 Y90.190 E6.10464
G1 X102.425 Y90.770 E6.14480
G1 X40.585 Y119.820 E8.72802
G1 X40.085 Y120.020 E8.74838
G1 X38.215 Y120.590 E8.82229
G1 X37.865 Y120.680 E8.83596
G1 X35.545 Y120.930 E8.92418
G1 X35.165 Y120.950 E8.93857
G1 X34.785 Y120.930 E8.95295
G1 X32.465 Y120.680 E9.04118
G1 X32.105 Y120.590 E9.05521
G1 X30.235 Y120.020 E9.12912
G1 X29.895 Y119.890 E9.14288
G1 X29.565 Y119.740 E9.15659
G1 X27.835 Y118.820 E9.23067
G1 X27.515 Y118.630 E9.24474
G1 X27.225 Y118.410 E9.25851
G1 X25.415 Y116.920 E9.34714
G1 X23.925 Y115.110 E9.43578
G1 X23.705 Y114.820 E9.44955
G1 X23.515 Y114.500 E9.46362
G1 X22.595 Y112.770 E9.53770
G1 X22.445 Y112.440 E9.55140
G1 X22.315 Y112.100 E9.56517
G1 X21.745 Y110.230 E9.63908
G1 X21.655 Y109.870 E9.65311
G1 X21.415 Y107.530 E9.74205
G1 X21.395 Y107.170 E9.75568
G1 X21.415 Y106.800 E9.76969
G1 X21.615 Y104.760 E9.84719
G1 X33.418 Y8.417 E13.51701
G1 X33.805 Y8.410 F4500.000
G1 X34.065 Y7.470 F1200.000 E13.55388
G1 X34.575 Y6.640 E13.59072
G1 X35.315 Y5.990 E13.62795
G1 X36.195 Y5.580 E13.66466
G1 X37.165 Y5.440 E13.70171
G1 X57.155 Y5.440 E14.45751
G1 X58.215 Y5.610 E14.49810
G1 X59.175 Y6.100 E14.53885
G1 X102.845 Y38.550 E16.59589
G1 X103.575 Y39.300 E16.63546
G1 X104.045 Y40.240 E16.67519
G1 X104.205 Y41.270 E16.71460
G1 X104.205 Y87.360 E18.45720
G1 X104.075 Y88.300 E18.49308
G1 X103.685 Y89.170 E18.52913
G1 X103.065 Y89.900 E18.56534
G1 X102.265 Y90.420 E18.60142
G1 X40.425 Y119.470 E21.18463
G1 X39.975 Y119.650 E21.20296
G1 X38.105 Y120.220 E21.27687
G1 X37.785 Y120.300 E21.28934
G1 X37.465 Y120.350 E21.30159
G1 X35.515 Y120.550 E21.37570
G1 X35.165 Y120.560 E21.38894
G1 X34.825 Y120.550 E21.40180
G1 X32.865 Y120.350 E21.47629
G1 X32.535 Y120.300 E21.48891
G1 X32.215 Y120.220 E21.50138
G1 X30.345 Y119.650 E21.57529
G1 X30.045 Y119.540 E21.58737
G1 X29.745 Y119.400 E21.59989
G1 X28.015 Y118.480 E21.67397
G1 X27.735 Y118.310 E21.68636
G1 X27.465 Y118.110 E21.69906
G1 X25.945 Y116.870 E21.77323
G1 X25.695 Y116.640 E21.78607
G1 X25.465 Y116.390 E21.79892
G1 X24.225 Y114.870 E21.87308
G1 X24.025 Y114.600 E21.88579
G1 X23.855 Y114.320 E21.89817
G1 X22.935 Y112.590 E21.97225
G1 X22.795 Y112.290 E21.98477
G1 X22.685 Y111.990 E21.99685
G1 X22.115 Y110.120 E22.07077
G1 X22.035 Y109.790 E22.08360
G1 X21.985 Y109.460 E22.09622
G1 X21.795 Y107.500 E22.17068
G1 X21.785 Y107.170 E22.18316
G1 X21.795 Y106.840 E22.19564
G1 X21.985 Y104.890 E22.26972
G1 X33.798 Y8.467 E25.94259
G1 F1080.000 E24.94259
G92 E0
G1 X35.165 Y104.181 F4500.000
G1 F1080.000 E1.00000
G1 X36.666 Y104.582 F1200.000 E1.05872
G1 X37.763 Y105.681 E1.11745
G1 X38.164 Y107.179 E1.17610
G1 X37.763 Y108.679 E1.23480
G1 X36.665 Y109.777 E1.29351
G1 X35.165 Y110.178 E1.35221
G1 X33.666 Y109.777 E1.41088
G1 X32.569 Y108.680 E1.46956
G1 X32.166 Y107.179 E1.52829
G1 X32.569 Y105.681 E1.58697
G1 X33.666 Y104.582 E1.64568
G1 X35.110 Y104.195 E1.70217
G1 X35.165 Y104.579 F4500.000
G1 X36.466 Y104.927 F1200.000 E1.75309
G1 X37.418 Y105.880 E1.80401
G1 X37.766 Y107.179 E1.85488
G1 X37.418 Y108.480 E1.90579
G1 X36.466 Y109.432 E1.95669
G1 X35.165 Y109.780 E2.00760
G1 X33.866 Y109.432 E2.05847
G1 X32.914 Y108.480 E2.10935
G1 X32.565 Y107.179 E2.16028
G1 X32.914 Y105.880 E2.21117
G1 X33.865 Y104.927 E2.26208
G1 X35.110 Y104.594 E2.31077
G1 X35.165 Y104.977 F4500.000
G1 X36.267 Y105.272 F1200.000 E2.35389
G1 X37.073 Y106.079 E2.39701
G1 X37.368 Y107.179 E2.44008
G1 X37.073 Y108.281 E2.48320
G1 X36.267 Y109.087 E2.52629
G1 X35.165 Y109.382 E2.56941
G1 X34.065 Y109.087 E2.61248
G1 X33.259 Y108.281 E2.65557
G1 X32.963 Y107.179 E2.69870
G1 X33.259 Y106.079 E2.74179
G1 X34.065 Y105.272 E2.78491
G1 X35.110 Y104.992 E2.82580
G1 X35.328 Y105.326 F4500.000
G1 F1080.000 E1.82580
G92 E0
G1 X35.257 Y98.137 F4500.000
G1 F1080.000 E1.00000
G1 X35.257 Y97.794 F1200.000 E1.01299
G1 X41.821 Y97.147 E1.26239
G1 X48.099 Y95.242 E1.51045
G1 X53.885 Y92.149 E1.75850
G1 X58.958 Y87.987 E2.00659
G1 X63.120 Y82.915 E2.25467
G1 X66.213 Y77.128 E2.50272
G1 X68.118 Y70.850 E2.75078
G1 X68.760 Y64.320 E2.99885
G1 X68.118 Y57.790 E3.24695
G1 X66.213 Y51.512 E3.49502
G1 X63.120 Y45.725 E3.74307
G1 X58.958 Y40.653 E3.99115
G1 X53.885 Y36.491 E4.23924
G1 X48.099 Y33.398 E4.48729
G1 X41.821 Y31.493 E4.73535
G1 X37.756 Y31.093 E4.88980
G1 X37.756 Y23.029 E5.19470
G1 X38.128 Y23.066 E5.20883
G1 X38.128 Y9.782 E5.71109
G1 X56.203 Y9.782 E6.39451
G1 X56.203 Y28.630 E7.10714
G1 X58.366 Y29.786 E7.19987
G1 X64.660 Y34.951 E7.50769
G1 X69.825 Y41.245 E7.81551
G1 X73.663 Y48.425 E8.12336
G1 X75.152 Y53.333 E8.31727
G1 X75.735 Y53.860 E8.34696
G1 X76.215 Y54.189 E8.36898
G1 X76.735 Y54.451 E8.39100
G1 X77.285 Y54.642 E8.41301
G1 X77.856 Y54.758 E8.43503
G1 X78.437 Y54.797 E8.45705
G1 X79.018 Y54.758 E8.47907
G1 X79.589 Y54.642 E8.50109
G1 X80.139 Y54.451 E8.52311
G1 X80.659 Y54.189 E8.54513
G1 X81.139 Y53.860 E8.56714
G1 X81.589 Y53.454 E8.59004
G1 X85.227 Y48.712 E8.81601
G1 X89.798 Y45.204 E9.03387
G1 X95.122 Y42.999 E9.25172
G1 X99.872 Y42.374 E9.43289
G1 X99.872 Y45.476 E9.55019
G1 X95.925 Y45.996 E9.70074
G1 X91.349 Y47.891 E9.88798
G1 X87.420 Y50.906 E10.07521
G1 X84.406 Y54.835 E10.26245
G1 X82.511 Y59.410 E10.44969
G1 X81.864 Y64.320 E10.63693
G1 X82.511 Y69.230 E10.82417
G1 X84.406 Y73.805 E11.01141
G1 X87.420 Y77.734 E11.19865
G1 X91.349 Y80.749 E11.38589
G1 X95.925 Y82.644 E11.57312
G1 X99.872 Y83.164 E11.72367
G1 X99.872 Y86.266 E11.84097
G1 X95.122 Y85.641 E12.02213
G1 X89.798 Y83.436 E12.23999
G1 X85.227 Y79.928 E12.45785
G1 X81.588 Y75.186 E12.68382
G1 X81.139 Y74.780 E12.70673
G1 X80.659 Y74.451 E12.72873
G1 X80.139 Y74.189 E12.75075
G1 X79.587 Y73.997 E12.77284
G1 X79.018 Y73.882 E12.79480
G1 X78.437 Y73.843 E12.81681
G1 X77.856 Y73.882 E12.83883
G1 X77.285 Y73.998 E12.86085
G1 X76.735 Y74.189 E12.88286
G1 X76.215 Y74.451 E12.90488
G1 X75.734 Y74.780 E12.92690
G1 X75.152 Y75.307 E12.95659
G1 X73.663 Y80.215 E13.15050
G1 X69.825 Y87.395 E13.45835
G1 X64.660 Y93.689 E13.76617
G1 X58.366 Y98.854 E14.07399
G1 X51.185 Y102.692 E14.38184
G1 X43.973 Y104.880 E14.66679
G1 X44.200 Y107.179 E14.75415
G1 X44.026 Y108.942 E14.82111
G1 X43.512 Y110.637 E14.88807
G1 X42.678 Y112.198 E14.95502
G1 X41.554 Y113.567 E15.02196
G1 X40.184 Y114.691 E15.08895
G1 X38.623 Y115.525 E15.15587
G1 X36.928 Y116.039 E15.22287
G1 X35.165 Y116.214 E15.28982
G1 X33.403 Y116.039 E15.35677
G1 X31.708 Y115.525 E15.42373
G1 X30.148 Y114.691 E15.49065
G1 X28.778 Y113.567 E15.55764
G1 X27.654 Y112.198 E15.62459
G1 X26.820 Y110.637 E15.69154
G1 X26.306 Y108.942 E15.75849
G1 X26.132 Y107.179 E15.82545
G1 X26.306 Y105.417 E15.89241
G1 X26.820 Y103.722 E15.95936
G1 X27.654 Y102.161 E16.02631
G1 X28.778 Y100.792 E16.09326
G1 X30.148 Y99.668 E16.16025
G1 X31.708 Y98.834 E16.22717
G1 X33.403 Y98.320 E16.29412
G1 X35.199 Y98.143 E16.36236
G1 F1080.000 E15.36236
G92 E0
G1 X56.588 Y9.397 F4500.000
G1 F1080.000 E1.00000
G1 X56.588 Y28.399 F1200.000 E1.71846
G1 X58.581 Y29.465 E1.80391
G1 X64.933 Y34.678 E2.11459
G1 X70.146 Y41.030 E2.42527
G1 X74.021 Y48.277 E2.73599
G1 X75.489 Y53.119 E2.92730
G1 X75.973 Y53.557 E2.95197
G1 X76.411 Y53.857 E2.97204
G1 X76.885 Y54.096 E2.99212
G1 X77.387 Y54.270 E3.01219
G1 X77.907 Y54.376 E3.03226
G1 X78.437 Y54.411 E3.05233
G1 X78.966 Y54.376 E3.07240
G1 X79.487 Y54.270 E3.09248
G1 X79.988 Y54.096 E3.11255
G1 X80.462 Y53.857 E3.13262
G1 X80.900 Y53.557 E3.15269
G1 X81.305 Y53.192 E3.17330
G1 X84.952 Y48.438 E3.39985
G1 X89.604 Y44.868 E3.62154
G1 X95.021 Y42.624 E3.84323
G1 X100.257 Y41.935 E4.04290
G1 X100.257 Y45.814 E4.18955
G1 X96.025 Y46.371 E4.35094
G1 X91.543 Y48.227 E4.53435
G1 X87.695 Y51.180 E4.71776
G1 X84.742 Y55.029 E4.90117
G1 X82.885 Y59.511 E5.08457
G1 X82.252 Y64.320 E5.26798
G1 X82.885 Y69.129 E5.45139
G1 X84.742 Y73.611 E5.63480
G1 X87.695 Y77.460 E5.81820
G1 X91.543 Y80.413 E6.00161
G1 X96.025 Y82.269 E6.18502
G1 X100.257 Y82.826 E6.34641
G1 X100.257 Y86.705 E6.49306
G1 X95.021 Y86.016 E6.69273
G1 X89.604 Y83.772 E6.91442
G1 X84.952 Y80.202 E7.13611
G1 X81.305 Y75.448 E7.36267
G1 X80.900 Y75.083 E7.38328
G1 X80.462 Y74.783 E7.40334
G1 X79.988 Y74.544 E7.42341
G1 X79.486 Y74.370 E7.44352
G1 X78.966 Y74.264 E7.46357
G1 X78.437 Y74.229 E7.48363
G1 X77.907 Y74.264 E7.50370
G1 X77.387 Y74.370 E7.52377
G1 X76.885 Y74.544 E7.54385
G1 X76.411 Y74.783 E7.56392
G1 X75.973 Y75.083 E7.58399
G1 X75.489 Y75.521 E7.60867
G1 X74.021 Y80.363 E7.79997
G1 X70.146 Y87.610 E8.11069
G1 X64.933 Y93.962 E8.42137
G1 X58.581 Y99.175 E8.73205
G1 X51.333 Y103.050 E9.04278
G1 X44.387 Y105.156 E9.31722
G1 X44.586 Y107.179 E9.39408
G1 X44.406 Y109.017 E9.46390
G1 X43.870 Y110.785 E9.53372
G1 X42.999 Y112.413 E9.60354
G1 X41.827 Y113.840 E9.67335
G1 X40.399 Y115.012 E9.74320
G1 X38.771 Y115.883 E9.81299
G1 X37.003 Y116.419 E9.88285
G1 X35.165 Y116.600 E9.95267
G1 X33.328 Y116.419 E10.02249
G1 X31.560 Y115.883 E10.09232
G1 X29.933 Y115.012 E10.16211
G1 X28.505 Y113.840 E10.23196
G1 X27.333 Y112.413 E10.30177
G1 X26.462 Y110.785 E10.37159
G1 X25.926 Y109.017 E10.44141
G1 X25.745 Y107.179 E10.51123
G1 X25.926 Y105.342 E10.58106
G1 X26.462 Y103.574 E10.65088
G1 X27.333 Y101.946 E10.72069
G1 X28.505 Y100.519 E10.79051
G1 X29.933 Y99.347 E10.86036
G1 X31.560 Y98.476 E10.93015
G1 X33.328 Y97.940 E10.99996
G1 X34.872 Y97.788 E11.05863
G1 X34.872 Y97.362 E11.07474
G1 X35.291 Y97.404 E11.09066
G1 X41.746 Y96.767 E11.33590
G1 X47.951 Y94.884 E11.58109
G1 X53.671 Y91.828 E11.82627
G1 X58.685 Y87.714 E12.07149
G1 X62.799 Y82.700 E12.31671
G1 X65.855 Y76.980 E12.56189
G1 X67.738 Y70.775 E12.80709
G1 X68.373 Y64.320 E13.05229
G1 X67.738 Y57.865 E13.29753
G1 X65.855 Y51.660 E13.54273
G1 X62.799 Y45.940 E13.78791
G1 X58.685 Y40.926 E14.03313
G1 X53.671 Y36.812 E14.27835
G1 X47.951 Y33.756 E14.52353
G1 X41.746 Y31.873 E14.76873
G1 X37.371 Y31.442 E14.93493
G1 X37.371 Y22.605 E15.26907
G1 X37.743 Y22.641 E15.28321
G1 X37.743 Y9.397 E15.78396
G1 X56.530 Y9.397 E16.49430
G1 X56.973 Y9.012 F4500.000
G1 X56.973 Y28.169 F1200.000 E17.21859
G1 X58.796 Y29.143 E17.29675
G1 X65.207 Y34.404 E17.61029
G1 X70.468 Y40.815 E17.92384
G1 X74.378 Y48.129 E18.23743
G1 X75.826 Y52.905 E18.42612
G1 X76.212 Y53.254 E18.44579
G1 X76.608 Y53.525 E18.46391
G1 X77.036 Y53.741 E18.48204
G1 X77.489 Y53.898 E18.50016
G1 X77.958 Y53.993 E18.51829
G1 X78.437 Y54.025 E18.53642
G1 X78.915 Y53.993 E18.55454
G1 X79.385 Y53.898 E18.57267
G1 X79.838 Y53.741 E18.59080
G1 X80.266 Y53.525 E18.60892
G1 X80.661 Y53.254 E18.62705
G1 X81.021 Y52.929 E18.64535
G1 X84.678 Y48.163 E18.87249
G1 X89.410 Y44.532 E19.09801
G1 X94.921 Y42.249 E19.32354
G1 X100.642 Y41.496 E19.54172
G1 X100.642 Y46.151 E19.71772
G1 X96.126 Y46.746 E19.88996
G1 X91.738 Y48.563 E20.06953
G1 X87.969 Y51.455 E20.24911
G1 X85.078 Y55.223 E20.42868
G1 X83.260 Y59.611 E20.60826
G1 X82.640 Y64.320 E20.78784
G1 X83.260 Y69.029 E20.96741
G1 X85.078 Y73.417 E21.14699
G1 X87.969 Y77.185 E21.32657
G1 X91.738 Y80.077 E21.50614
G1 X96.126 Y81.894 E21.68572
G1 X100.642 Y82.489 E21.85796
G1 X100.642 Y87.144 E22.03395
G1 X94.921 Y86.390 E22.25214
G1 X89.410 Y84.108 E22.47766
G1 X84.678 Y80.477 E22.70318
G1 X81.021 Y75.711 E22.93032
G1 X80.661 Y75.386 E22.94863
G1 X80.266 Y75.115 E22.96675
G1 X79.838 Y74.899 E22.98488
G1 X79.385 Y74.742 E23.00302
G1 X78.915 Y74.647 E23.02114
G1 X78.437 Y74.615 E23.03926
G1 X77.958 Y74.647 E23.05738
G1 X77.489 Y74.742 E23.07551
G1 X77.036 Y74.899 E23.09364
G1 X76.608 Y75.115 E23.11176
G1 X76.212 Y75.386 E23.12989
G1 X75.826 Y75.735 E23.14955
G1 X74.378 Y80.511 E23.33824
G1 X70.468 Y87.825 E23.65183
G1 X65.207 Y94.236 E23.96538
G1 X58.796 Y99.497 E24.27893
G1 X51.481 Y103.407 E24.59252
G1 X44.801 Y105.433 E24.85645
G1 X44.973 Y107.179 E24.92280
G1 X44.785 Y109.093 E24.99549
G1 X44.227 Y110.933 E25.06818
G1 X43.321 Y112.628 E25.14086
G1 X42.101 Y114.114 E25.21355
G1 X40.614 Y115.334 E25.28626
G1 X38.919 Y116.240 E25.35891
G1 X37.079 Y116.798 E25.43164
G1 X35.165 Y116.987 E25.50433
G1 X33.252 Y116.798 E25.57702
G1 X31.412 Y116.240 E25.64971
G1 X29.718 Y115.334 E25.72236
G1 X28.231 Y114.114 E25.79507
G1 X27.011 Y112.628 E25.86776
G1 X26.105 Y110.933 E25.94044
G1 X25.547 Y109.093 E26.01313
G1 X25.359 Y107.179 E26.08582
G1 X25.547 Y105.266 E26.15851
G1 X26.105 Y103.426 E26.23119
G1 X27.011 Y101.731 E26.30388
G1 X28.231 Y100.245 E26.37656
G1 X29.718 Y99.025 E26.44928
G1 X31.412 Y98.119 E26.52193
G1 X33.252 Y97.561 E26.59461
G1 X34.487 Y97.440 E26.64152
G1 X34.487 Y96.938 E26.66050
G1 X35.291 Y97.017 E26.69104
G1 X41.670 Y96.388 E26.93341
G1 X47.803 Y94.527 E27.17574
G1 X53.456 Y91.506 E27.41806
G1 X58.411 Y87.440 E27.66041
G1 X62.477 Y82.485 E27.90276
G1 X65.498 Y76.832 E28.14508
G1 X67.359 Y70.699 E28.38741
G1 X67.987 Y64.320 E28.62974
G1 X67.359 Y57.941 E28.87212
G1 X65.498 Y51.808 E29.11445
G1 X62.477 Y46.155 E29.35676
G1 X58.411 Y41.200 E29.59912
G1 X53.456 Y37.134 E29.84147
G1 X47.803 Y34.113 E30.08379
G1 X41.670 Y32.252 E30.32612
G1 X36.986 Y31.791 E30.50408
G1 X36.986 Y22.180 E30.86746
G1 X37.358 Y22.217 E30.88159
G1 X37.358 Y9.012 E31.38084
G1 X56.915 Y9.012 E32.12028
G1 X56.781 Y9.345 F4500.000
G1 X55.575 Y10.061
G1 X55.575 Y37.517 F1200.000 E33.15860
G1 X55.190 Y37.201 E33.17743
G1 X55.190 Y10.061 E34.20381
G1 X54.806 Y10.061 E34.21837
G1 X54.806 Y36.885 E35.23280
G1 X54.421 Y36.569 E35.25163
G1 X54.421 Y10.061 E36.25412
G1 X54.036 Y10.061 E36.26867
G1 X54.036 Y36.255 E37.25927
G1 X53.651 Y36.049 E37.27578
G1 X53.651 Y10.061 E38.25860
G1 X53.266 Y10.061 E38.27316
G1 X53.266 Y35.843 E39.24820
G1 X52.881 Y35.638 E39.26470
G1 X52.881 Y10.061 E40.23197
G1 X52.496 Y10.061 E40.24652
G1 X52.496 Y35.432 E41.20600
G1 F1080.000 E40.20600
G92 E0
G1 X55.960 Y28.816 F4500.000
G1 F1080.000 E1.00000
G1 X55.960 Y37.832 F1200.000 E1.34096
G1 X56.345 Y38.148 E1.35979
G1 X56.345 Y29.022 E1.70492
G1 X56.730 Y29.228 E1.72142
G1 X56.730 Y38.464 E2.07071
G1 X57.115 Y38.780 E2.08954
G1 X57.115 Y29.434 E2.44300
G1 X57.500 Y29.640 E2.45950
G1 X57.500 Y39.096 E2.81712
G1 X57.885 Y39.412 E2.83595
G1 X57.885 Y29.845 E3.19772
G1 X58.270 Y30.068 E3.21454
G1 X58.270 Y39.728 E3.57984
G1 X58.655 Y40.043 E3.59867
G1 X58.655 Y30.384 E3.96397
G1 X59.040 Y30.700 E3.98280
G1 X59.040 Y40.359 E4.34810
G1 X59.425 Y40.782 E4.36972
G1 X59.425 Y31.016 E4.73906
G1 X59.810 Y31.332 E4.75789
G1 X59.810 Y41.251 E5.13302
G1 X60.195 Y41.720 E5.15597
G1 X60.195 Y31.648 E5.53690
G1 X60.580 Y31.963 E5.55573
G1 X60.580 Y42.189 E5.94245
G1 X60.965 Y42.659 E5.96540
G1 X60.965 Y32.279 E6.35792
G1 X61.349 Y32.595 E6.37675
G1 X61.349 Y43.128 E6.77506
G1 X61.734 Y43.597 E6.79801
G1 X61.734 Y32.911 E7.20211
G1 X62.119 Y33.227 E7.22094
G1 X62.119 Y44.066 E7.63084
G1 X62.504 Y44.535 E7.65379
G1 X62.504 Y33.543 E8.06949
G1 X62.889 Y33.859 E8.08832
G1 X62.889 Y45.004 E8.50981
G1 X63.274 Y45.473 E8.53276
G1 X63.274 Y34.175 E8.96004
G1 X63.659 Y34.491 E8.97887
G1 X63.659 Y46.142 E9.41950
G1 X64.044 Y46.862 E9.45038
