; generated by Slic3r 0.9.3 on 2013-06-30 at 12:06:00

; layer_height = 0.4
; perimeters = 3
; solid_layers = 3
; fill_density = 0.4
; perimeter_speed = 30
; infill_speed = 60
; travel_speed = 130
; scale = 1
; nozzle_diameter = 0.5
; filament_diameter = 3
; extrusion_multiplier = 1
; single wall width = 0.53mm

M104 S200 ; set temperature
G28 ; home all axes
M109 S200 ; wait for temperature to be reached
G90 ; use absolute coordinates
G21 ; set units to millimeters
G92 E0
M82 ; use absolute distances for extrusion
G1 F1800.000 E-1.00000
G92 E0
G1 Z0.400 F7800.000
G1 X68.257 Y69.422
G1 F1800.000 E1.00000
G1 X112.807 Y47.922 F540.000 E2.45458
G1 X113.727 Y47.552 E2.48374
G1 X115.787 Y46.932 E2.54700
G1 X116.297 Y46.822 E2.56234
G1 X118.927 Y46.552 E2.64009
G1 X119.177 Y46.542 E2.64744
G1 X119.687 Y46.552 E2.66244
G1 X122.057 Y46.782 E2.73246
G1 X122.577 Y46.872 E2.74798
G1 X125.127 Y47.632 E2.82622
G1 X125.597 Y47.822 E2.84113
G1 X127.937 Y49.052 E2.91886
G1 X128.357 Y49.322 E2.93355
G1 X130.417 Y50.982 E3.01134
G1 X130.797 Y51.342 E3.02673
G1 X132.487 Y53.382 E3.10463
G1 X132.777 Y53.802 E3.11964
G1 X134.047 Y56.132 E3.19767
G1 X134.257 Y56.612 E3.21308
G1 X134.967 Y58.912 E3.28386
G1 X135.137 Y59.632 E3.30561
G1 X135.417 Y62.272 E3.38368
G1 X135.427 Y62.792 E3.39897
G1 X123.267 Y148.382 E5.94105
G1 X123.127 Y148.892 E5.95660
G1 X122.947 Y149.392 E5.97222
G1 X122.727 Y149.882 E5.98802
G1 X122.467 Y150.342 E6.00356
G1 X122.007 Y151.002 E6.02721
G1 X121.477 Y151.592 E6.05053
G1 X120.867 Y152.112 E6.07410
G1 X120.657 Y152.272 E6.08187
G1 X120.207 Y152.562 E6.09761
G1 X119.737 Y152.812 E6.11326
G1 X119.247 Y153.022 E6.12894
G1 X118.747 Y153.192 E6.14447
G1 X118.227 Y153.322 E6.16023
G1 X117.967 Y153.372 E6.16801
G1 X117.177 Y153.452 E6.19136
G1 X97.387 Y153.452 E6.77329
G1 X96.847 Y153.402 E6.78924
G1 X96.317 Y153.312 E6.80505
G1 X95.797 Y153.182 E6.82081
G1 X95.537 Y153.102 E6.82881
G1 X94.787 Y152.792 E6.85267
G1 X94.087 Y152.392 E6.87638
G1 X93.437 Y151.902 E6.90032
G1 X93.037 Y151.542 E6.91614
G1 X66.107 Y124.502 E8.03833
G1 X65.777 Y124.072 E8.05426
G1 X65.477 Y123.622 E8.07017
G1 X65.227 Y123.152 E8.08582
G1 X65.007 Y122.662 E8.10162
G1 X64.837 Y122.152 E8.11742
G1 X64.707 Y121.632 E8.13319
G1 X64.617 Y121.102 E8.14899
G1 X64.567 Y120.562 E8.16494
G1 X64.567 Y75.022 E9.50406
G1 X64.617 Y74.482 E9.52001
G1 X64.767 Y73.682 E9.54394
G1 X64.917 Y73.162 E9.55985
G1 X65.117 Y72.662 E9.57569
G1 X65.357 Y72.172 E9.59173
G1 X65.787 Y71.492 E9.61539
G1 X66.127 Y71.062 E9.63151
G1 X66.487 Y70.662 E9.64733
G1 X66.687 Y70.472 E9.65545
G1 X67.317 Y69.972 E9.67910
G1 X67.547 Y69.812 E9.68734
G1 X67.791 Y69.663 E9.69574
G1 F1800.000 E8.69574
G92 E0
G1 X114.929 Y64.068 F7800.000
G1 F1800.000 E1.00000
G1 X115.841 Y60.659 F540.000 E1.14690
G1 X117.308 Y59.192 E1.23327
G1 X120.718 Y58.280 E1.38018
G1 X120.718 Y59.032 E1.41148
G1 X121.316 Y59.192 E1.43725
G1 X122.783 Y60.659 E1.52362
G1 X123.319 Y62.663 E1.60997
G1 X122.783 Y64.665 E1.69623
G1 X121.316 Y66.132 E1.78259
G1 X119.312 Y66.670 E1.86898
G1 X117.308 Y66.132 E1.95537
G1 X115.841 Y64.665 E2.04173
G1 X115.682 Y64.068 E2.06743
G1 X115.454 Y64.068 E2.07689
G1 X115.930 Y63.300 F7800.000
G1 X116.530 Y61.056 F540.000 E2.17358
G1 X117.706 Y59.880 E2.24281
G1 X119.950 Y59.280 E2.33951
G1 X119.950 Y59.621 E2.35371
G1 X120.918 Y59.880 E2.39544
G1 X122.094 Y61.056 E2.46467
G1 X122.524 Y62.663 E2.53390
G1 X122.095 Y64.267 E2.60305
G1 X120.919 Y65.443 E2.67227
G1 X119.312 Y65.875 E2.74152
G1 X117.705 Y65.443 E2.81077
G1 X116.529 Y64.267 E2.88000
G1 X116.318 Y63.478 E2.91403
G1 X117.183 Y63.740 F7800.000
G1 X116.895 Y62.663 F540.000 E2.96047
G1 X116.930 Y62.532 E2.96608
G1 X116.930 Y62.532 E2.96608
G1 X117.218 Y61.454 E3.01257
G1 X118.103 Y60.569 E3.06465
G1 X119.182 Y60.280 E3.11114
G1 X119.182 Y60.280 E3.11114
G1 X119.312 Y60.245 E3.11675
G1 X120.521 Y60.569 E3.16884
G1 X121.406 Y61.454 E3.22093
G1 X121.729 Y62.663 E3.27303
G1 X121.406 Y63.870 E3.32507
G1 X120.521 Y64.755 E3.37716
G1 X119.312 Y65.080 E3.42927
G1 X118.103 Y64.755 E3.48138
G1 X117.494 Y64.146 E3.51722
G1 F1800.000 E2.51722
G92 E0
G1 X120.884 Y54.761 F7800.000
G1 F1800.000 E1.00000
G1 X122.394 Y55.219 F540.000 E1.06572
G1 X123.787 Y55.965 E1.13148
G1 X125.008 Y56.966 E1.19719
G1 X126.010 Y58.187 E1.26295
G1 X126.754 Y59.580 E1.32868
G1 X127.213 Y61.091 E1.39444
G1 X127.368 Y62.663 E1.46016
G1 X127.213 Y64.234 E1.52588
G1 X126.754 Y65.745 E1.59164
G1 X126.010 Y67.138 E1.65736
G1 X125.008 Y68.358 E1.72310
G1 X123.787 Y69.360 E1.78884
G1 X122.395 Y70.105 E1.85456
G1 X120.884 Y70.563 E1.92030
G1 X117.425 Y70.903 E2.06497
G1 X117.422 Y71.011 E2.06944
G1 X114.052 Y71.343 E2.21040
G1 X113.780 Y71.425 E2.22223
G1 X113.780 Y71.425 E2.22223
G1 X109.339 Y72.773 E2.41542
G1 X109.339 Y72.694 E2.41868
G1 X108.997 Y72.877 E2.43483
G1 X108.997 Y72.877 E2.43483
G1 X104.340 Y75.365 E2.65460
G1 X100.257 Y78.717 E2.87454
G1 X99.194 Y80.012 E2.94424
G1 X99.194 Y80.012 E2.94424
G1 X96.907 Y82.799 E3.09433
G1 X96.907 Y82.799 E3.09433
G1 X95.936 Y83.983 E3.15811
G1 X96.156 Y84.204 E3.17107
G1 X94.524 Y87.256 E3.31515
G1 X94.524 Y87.256 E3.31515
G1 X94.415 Y87.459 E3.32474
G1 X92.881 Y92.515 E3.54468
G1 X92.364 Y97.773 E3.76459
G1 X92.690 Y101.088 E3.90328
G1 X92.690 Y101.088 E3.90328
G1 X92.881 Y103.029 E3.98446
G1 X94.415 Y108.085 E4.20440
G1 X96.928 Y112.786 E4.42631
G1 X96.928 Y112.786 E4.42631
G1 X97.353 Y113.581 E4.46383
G1 X97.593 Y113.581 E4.47380
G1 X100.257 Y116.827 E4.64859
G1 X104.340 Y120.179 E4.86852
G1 X107.838 Y122.048 E5.03362
G1 X107.838 Y122.315 E5.04476
G1 X108.439 Y122.498 E5.07087
G1 X108.439 Y122.498 E5.07089
G1 X108.579 Y122.541 E5.07700
G1 X108.579 Y122.541 E5.07700
G1 X114.054 Y124.202 E5.31517
G1 X115.373 Y124.332 E5.37035
G1 X115.373 Y145.403 E6.24748
G1 X99.198 Y145.403 E6.92083
G1 X99.198 Y123.820 E7.81926
G1 X95.955 Y121.160 E7.99387
G1 X94.078 Y118.765 E8.12054
G1 X72.623 Y118.765 E9.01366
G1 X72.623 Y76.835 E10.75909
G1 X94.088 Y76.835 E11.65264
G1 X95.965 Y74.377 E11.78139
G1 X100.948 Y70.288 E12.04972
G1 X106.662 Y67.232 E12.31946
G1 X107.652 Y66.933 E12.36250
G1 X107.652 Y66.932 E12.36250
G1 X111.561 Y65.747 E12.53257
G1 X111.256 Y62.663 E12.66159
G1 X111.411 Y61.091 E12.72732
G1 X111.870 Y59.580 E12.79307
G1 X112.614 Y58.187 E12.85881
G1 X113.616 Y56.966 E12.92456
G1 X114.837 Y55.965 E12.99028
G1 X116.230 Y55.219 E13.05604
G1 X117.740 Y54.761 E13.12175
G1 X119.312 Y54.606 E13.18749
G1 X120.361 Y54.710 E13.23138
G1 X121.034 Y54.004 F7800.000
G1 X122.690 Y54.507 F540.000 E13.30340
G1 X124.216 Y55.323 E13.37545
G1 X125.553 Y56.420 E13.44746
G1 X126.651 Y57.758 E13.51951
G1 X127.467 Y59.285 E13.59154
G1 X127.969 Y60.941 E13.66359
G1 X128.139 Y62.663 E13.73561
G1 X127.969 Y64.384 E13.80764
G1 X127.467 Y66.041 E13.87968
G1 X126.651 Y67.566 E13.95171
G1 X125.553 Y68.904 E14.02374
G1 X124.216 Y70.002 E14.09577
G1 X122.690 Y70.817 E14.16779
G1 X121.034 Y71.320 E14.23982
G1 X118.173 Y71.601 E14.35948
G1 X118.170 Y71.708 E14.36395
G1 X114.204 Y72.099 E14.52988
G1 X109.295 Y73.588 E14.74341
G1 X108.571 Y73.975 E14.77757
G1 X108.571 Y73.975 E14.77757
G1 X104.769 Y76.007 E14.95702
G1 X100.802 Y79.263 E15.17066
G1 X100.229 Y79.961 E15.20825
G1 X100.229 Y79.961 E15.20825
G1 X97.552 Y83.224 E15.38394
G1 X97.552 Y83.224 E15.38395
G1 X96.970 Y83.933 E15.42211
G1 X97.101 Y84.064 E15.42982
G1 X95.128 Y87.754 E15.60405
G1 X93.638 Y92.666 E15.81769
G1 X93.136 Y97.773 E16.03130
G1 X93.537 Y101.856 E16.20210
G1 X93.537 Y101.856 E16.20210
G1 X93.638 Y102.878 E16.24488
G1 X95.128 Y107.790 E16.45852
G1 X97.389 Y112.018 E16.65813
G1 X97.389 Y112.018 E16.65813
G1 X97.565 Y112.349 E16.67375
G1 X97.566 Y112.349 E16.67376
G1 X97.813 Y112.813 E16.69565
G1 X97.956 Y112.813 E16.70158
G1 X100.802 Y116.281 E16.88834
G1 X104.769 Y119.537 E17.10197
G1 X108.606 Y121.588 E17.28307
G1 X108.606 Y121.746 E17.28968
G1 X109.206 Y121.929 E17.31579
G1 X109.206 Y121.929 E17.31580
G1 X109.297 Y121.956 E17.31976
G1 X109.297 Y121.956 E17.31976
G1 X114.205 Y123.445 E17.53324
G1 X116.141 Y123.636 E17.61423
G1 X116.141 Y146.171 E18.55228
G1 X98.430 Y146.171 E19.28957
G1 X98.430 Y124.184 E20.20483
G1 X95.403 Y121.700 E20.36784
G1 X93.704 Y119.533 E20.48246
G1 X71.855 Y119.533 E21.39198
G1 X71.855 Y76.067 E23.20134
G1 X93.708 Y76.067 E24.11105
G1 X95.409 Y73.840 E24.22769
G1 X100.519 Y69.646 E24.50289
G1 X106.367 Y66.520 E24.77893
G1 X106.884 Y66.363 E24.80141
G1 X106.884 Y66.363 E24.80142
G1 X110.735 Y65.195 E24.96894
G1 X110.485 Y62.663 E25.07488
G1 X110.655 Y60.941 E25.14691
G1 X111.157 Y59.285 E25.21895
G1 X111.973 Y57.758 E25.29098
G1 X113.071 Y56.420 E25.36304
G1 X114.408 Y55.323 E25.43505
G1 X115.934 Y54.507 E25.50710
G1 X117.590 Y54.004 E25.57912
G1 X119.312 Y53.835 E25.65115
G1 X120.512 Y53.953 E25.70133
G1 X121.185 Y53.248 F7800.000
G1 X122.985 Y53.794 F540.000 E25.77965
G1 X124.645 Y54.682 E25.85800
G1 X126.099 Y55.875 E25.93630
G1 X127.293 Y57.330 E26.01465
G1 X128.180 Y58.989 E26.09298
G1 X128.726 Y60.790 E26.17131
G1 X128.911 Y62.663 E26.24964
G1 X128.726 Y64.535 E26.32797
G1 X128.180 Y66.336 E26.40630
G1 X127.293 Y67.995 E26.48462
G1 X126.099 Y69.449 E26.56295
G1 X124.645 Y70.643 E26.64127
G1 X122.985 Y71.530 E26.71960
G1 X121.185 Y72.076 E26.79792
G1 X118.922 Y72.299 E26.89256
G1 X118.919 Y72.406 E26.89703
G1 X114.355 Y72.855 E27.08794
G1 X109.590 Y74.301 E27.29521
G1 X105.198 Y76.648 E27.50253
G1 X101.348 Y79.808 E27.70987
G1 X101.264 Y79.910 E27.71534
G1 X101.264 Y79.910 E27.71534
G1 X98.189 Y83.658 E27.91716
G1 X98.189 Y83.658 E27.91716
G1 X98.005 Y83.882 E27.92921
G1 X98.047 Y83.923 E27.93166
G1 X95.841 Y88.050 E28.12644
G1 X94.395 Y92.816 E28.33378
G1 X93.907 Y97.773 E28.54110
G1 X94.385 Y102.624 E28.74402
G1 X94.385 Y102.624 E28.74402
G1 X94.395 Y102.728 E28.74838
G1 X95.841 Y107.494 E28.95572
G1 X98.189 Y111.887 E29.16307
G1 X98.189 Y111.887 E29.16307
G1 X98.274 Y112.045 E29.17055
G1 X98.319 Y112.045 E29.17244
G1 X101.348 Y115.736 E29.37117
G1 X105.198 Y118.896 E29.57850
G1 X109.374 Y121.127 E29.77562
G1 X109.374 Y121.177 E29.77769
G1 X109.590 Y121.243 E29.78708
G1 X109.590 Y121.243 E29.78709
G1 X109.974 Y121.359 E29.80380
G1 X109.974 Y121.359 E29.80380
G1 X114.356 Y122.689 E29.99440
G1 X116.909 Y122.940 E30.10121
G1 X116.909 Y146.938 E31.10018
G1 X97.662 Y146.938 E31.90139
G1 X97.662 Y124.547 E32.83350
G1 X94.850 Y122.240 E32.98490
G1 X93.330 Y120.301 E33.08748
G1 X71.087 Y120.301 E34.01340
G1 X71.087 Y75.300 E35.88668
G1 X93.328 Y75.300 E36.81254
G1 X94.853 Y73.303 E36.91710
G1 X100.090 Y69.005 E37.19915
G1 X100.725 Y68.665 E37.22910
G1 X100.725 Y68.665 E37.22910
G1 X106.072 Y65.807 E37.48150
G1 X106.116 Y65.793 E37.48342
G1 X106.116 Y65.793 E37.48342
G1 X109.909 Y64.643 E37.64841
G1 X109.713 Y62.663 E37.73127
G1 X109.898 Y60.790 E37.80960
G1 X110.444 Y58.989 E37.88793
G1 X111.331 Y57.330 E37.96625
G1 X112.525 Y55.875 E38.04461
G1 X113.979 Y54.682 E38.12291
G1 X115.639 Y53.794 E38.20125
G1 X117.439 Y53.248 E38.27958
G1 X119.312 Y53.063 E38.35791
G1 X120.662 Y53.196 E38.41438
G1 F1800.000 E37.41438
G92 E0
G1 X119.859 Y55.097 F7800.000
G1 F1800.000 E1.00000
G1 X126.877 Y62.114 F1080.000 E1.41608
G1 X126.547 Y60.690 E1.47737
G1 X121.282 Y55.425 E1.78954
G1 X124.091 Y57.140 E1.92749
G1 X124.833 Y57.883 E1.97153
G1 F1800.000 E0.97153
G92 E0
G1 X121.432 Y57.765 F7800.000
G1 F1800.000 E1.00000
G1 X118.698 Y55.031 F1080.000 E1.16211
G1 X117.702 Y55.129 F7800.000
G1 X120.569 Y57.996 F1080.000 E1.33209
G1 X121.114 Y57.446 F7800.000
G1 X126.944 Y63.276 F1080.000 E1.67777
G1 X126.845 Y64.272 F7800.000
G1 X123.332 Y60.759 F1080.000 E1.88607
G1 X123.732 Y62.253 E1.95092
G1 X126.619 Y65.140 E2.12210
G1 X126.341 Y65.955 F7800.000
G1 X123.517 Y63.132 F1080.000 E2.28951
G1 X123.286 Y63.995 F7800.000
G1 X125.960 Y66.669 F1080.000 E2.44804
G1 X125.531 Y67.334 F7800.000
G1 X122.993 Y64.797 F1080.000 E2.59847
G1 X122.446 Y65.345 F7800.000
G1 X125.037 Y67.935 F1080.000 E2.75208
G1 X124.481 Y68.473 F7800.000
G1 X121.899 Y65.892 F1080.000 E2.90515
G1 X121.352 Y66.438 F7800.000
G1 X123.880 Y68.966 F1080.000 E3.05504
G1 X123.195 Y69.376 F7800.000
G1 X120.495 Y66.676 F1080.000 E3.21511
G1 X119.633 Y66.908 F7800.000
G1 X122.482 Y69.757 F1080.000 E3.38403
G1 X121.644 Y70.014 F7800.000
G1 X118.644 Y67.014 F1080.000 E3.56192
G1 X117.148 Y66.612 E3.62687
G1 X120.748 Y70.213 E3.84036
G1 X119.753 Y70.311 F7800.000
G1 X113.907 Y64.464 F1080.000 E4.18700
G1 X114.374 Y64.932 F7800.000
G1 X111.663 Y62.221 F1080.000 E4.34773
G1 X111.761 Y61.226 F7800.000
G1 X114.605 Y64.069 F1080.000 E4.51632
G1 X114.836 Y63.206 F7800.000
G1 X111.961 Y60.330 F1080.000 E4.68680
G1 X112.217 Y59.493 F7800.000
G1 X115.067 Y62.342 F1080.000 E4.85575
G1 X115.298 Y61.479 F7800.000
G1 X112.599 Y58.779 F1080.000 E5.01580
G1 X113.008 Y58.094 F7800.000
G1 X115.535 Y60.622 F1080.000 E5.16566
G1 X116.082 Y60.075 F7800.000
G1 X113.501 Y57.493 F1080.000 E5.31872
G1 X114.038 Y56.937 F7800.000
G1 X116.629 Y59.528 F1080.000 E5.47234
G1 X117.177 Y58.980 F7800.000
G1 X114.640 Y56.443 F1080.000 E5.62277
G1 X115.305 Y56.015 F7800.000
G1 X117.979 Y58.688 F1080.000 E5.78129
G1 X118.843 Y58.457 F7800.000
G1 X116.019 Y55.633 F1080.000 E5.94873
G1 X116.833 Y55.355 F7800.000
G1 X119.705 Y58.227 F1080.000 E6.11901
G1 F1800.000 E5.11901
G92 E0
G1 X111.768 Y63.420 F7800.000
G1 F1800.000 E1.00000
G1 X118.757 Y70.409 F1080.000 E1.41436
G1 X117.759 Y70.506 F7800.000
G1 X111.888 Y64.635 F1080.000 E1.76248
G1 X112.008 Y65.850 E1.81365
G1 X116.861 Y70.702 E2.10138
G1 X115.865 Y70.801 F7800.000
G1 X111.230 Y66.166 F1080.000 E2.37618
G1 X110.391 Y66.420 F7800.000
G1 X114.869 Y70.898 F1080.000 E2.64171
G1 X113.936 Y71.059 F7800.000
G1 X109.551 Y66.675 F1080.000 E2.90168
G1 X108.711 Y66.930 F7800.000
G1 X113.096 Y71.314 F1080.000 E3.16166
G1 X112.256 Y71.569 F7800.000
G1 X107.871 Y67.184 F1080.000 E3.42165
G1 X107.031 Y67.439 F7800.000
G1 X111.416 Y71.824 F1080.000 E3.68164
G1 X110.577 Y72.078 F7800.000
G1 X109.736 Y71.237 F1080.000 E3.73154
G1 X110.351 Y71.852 F7800.000
G1 X106.252 Y67.753 F1080.000 E3.97462
G1 X105.539 Y68.134 F7800.000
G1 X109.638 Y72.234 F1080.000 E4.21769
G1 X108.925 Y72.615 F7800.000
G1 X104.825 Y68.515 F1080.000 E4.46076
G1 X104.112 Y68.897 F7800.000
G1 X108.211 Y72.996 F1080.000 E4.70381
G1 X107.498 Y73.377 F7800.000
G1 X103.399 Y69.278 F1080.000 E4.94686
G1 X102.686 Y69.659 F7800.000
G1 X106.785 Y73.758 F1080.000 E5.18990
G1 X106.072 Y74.139 F7800.000
G1 X101.973 Y70.040 F1080.000 E5.43294
G1 X101.260 Y70.422 F7800.000
G1 X105.359 Y74.520 F1080.000 E5.67596
G1 X104.645 Y74.902 F7800.000
G1 X100.619 Y70.875 F1080.000 E5.91471
G1 X100.017 Y71.368 F7800.000
G1 X103.987 Y75.338 F1080.000 E6.15008
G1 X103.387 Y75.831 F7800.000
G1 X99.417 Y71.861 F1080.000 E6.38546
G1 X98.816 Y72.354 F7800.000
G1 X102.786 Y76.324 F1080.000 E6.62083
G1 X102.184 Y76.818 F7800.000
G1 X98.215 Y72.848 F1080.000 E6.85621
G1 X97.613 Y73.341 F7800.000
G1 X101.583 Y77.311 F1080.000 E7.09159
G1 X100.982 Y77.805 F7800.000
G1 X97.012 Y73.835 F1080.000 E7.32697
G1 X96.412 Y74.327 F7800.000
G1 X100.382 Y78.297 F1080.000 E7.56235
G1 X99.835 Y78.845 F7800.000
G1 X95.882 Y74.893 F1080.000 E7.79669
G1 X95.408 Y75.513 F7800.000
G1 X99.341 Y79.446 F1080.000 E8.02987
G1 X98.848 Y80.047 F7800.000
G1 X94.935 Y76.134 F1080.000 E8.26190
G1 X94.461 Y76.755 F7800.000
G1 X98.355 Y80.649 F1080.000 E8.49278
G1 X97.862 Y81.249 F7800.000
G1 X93.844 Y77.231 F1080.000 E8.73101
G1 X92.750 Y77.231 E8.77690
G1 X97.369 Y81.850 E9.05076
G1 X96.875 Y82.452 F7800.000
G1 X91.655 Y77.232 F1080.000 E9.36027
G1 X90.561 Y77.232 E9.40615
