; generated by Slic3r 0.9.3 on 2013-06-22 at 17:42:57

; layer_height = .25
; perimeters = 3
; solid_layers = 2
; fill_density = 0.3
; perimeter_speed = 30
; infill_speed = 60
; travel_speed = 75
; scale = 1
; nozzle_diameter = 0.35
; filament_diameter = 1.8
; extrusion_multiplier = 1
; single wall width = 0.39mm

M107
G92 E0	;reset extruder location
G1 E5	;Prime extruder
G28	;Go Home
;G1 E20	Prime extruder
G90 ; use absolute coordinates
G21 ; set units to millimeters
G92 E0
M82 ; use absolute distances for extrusion
G1 F1080.000 E-1.00000
G92 E0
G1 Z0.250 F4500.000
G1 X41.922 Y24.607
G1 F1080.000 E1.00000
G1 X42.062 Y24.447 F1200.000 E1.00804
G1 X42.382 Y24.167 E1.02411
G1 X42.552 Y24.037 E1.03221
G1 X42.912 Y23.807 E1.04836
G1 X43.292 Y23.627 E1.06426
G1 X43.492 Y23.547 E1.07240
G1 X43.692 Y23.487 E1.08029
G1 X44.112 Y23.387 E1.09662
G1 X44.322 Y23.357 E1.10464
G1 X44.742 Y23.337 E1.12054
G1 X90.662 Y23.357 E2.85671
G1 X91.072 Y23.427 E2.87243
G1 X91.272 Y23.477 E2.88023
G1 X91.662 Y23.617 E2.89590
G1 X91.852 Y23.697 E2.90369
G1 X92.222 Y23.897 E2.91959
G1 X92.562 Y24.137 E2.93533
G1 X92.882 Y24.407 E2.95116
G1 X93.292 Y24.877 E2.97474
G1 X93.412 Y25.057 E2.98292
G1 X93.612 Y25.417 E2.99849
G1 X93.782 Y25.797 E3.01423
G1 X93.852 Y25.997 E3.02224
G1 X101.982 Y58.307 E4.28192
G1 X103.092 Y66.737 E4.60339
G1 X103.102 Y67.137 E4.61852
G1 X103.072 Y67.537 E4.63369
G1 X101.952 Y75.967 E4.95522
G1 X101.792 Y76.537 E4.97760
G1 X98.462 Y84.587 E5.30697
G1 X98.172 Y85.097 E5.32915
G1 X92.882 Y91.997 E5.65788
G1 X92.602 Y92.287 E5.67312
G1 X92.462 Y92.417 E5.68035
G1 X85.712 Y97.607 E6.00227
G1 X85.382 Y97.827 E6.01727
G1 X85.212 Y97.927 E6.02472
G1 X77.172 Y101.267 E6.35389
G1 X76.652 Y101.447 E6.37470
G1 X76.572 Y101.467 E6.37781
G1 X76.142 Y101.547 E6.39435
G1 X67.782 Y102.637 E6.71311
G1 X67.592 Y102.647 E6.72030
G1 X67.192 Y102.637 E6.73543
G1 X58.762 Y101.527 E7.05691
G1 X58.622 Y101.497 E7.06232
G1 X58.472 Y101.477 E7.06804
G1 X58.042 Y101.357 E7.08492
G1 X25.252 Y90.167 E8.39487
G1 X24.882 Y89.987 E8.41042
G1 X24.702 Y89.887 E8.41821
G1 X24.362 Y89.657 E8.43373
G1 X24.052 Y89.397 E8.44903
G1 X23.772 Y89.097 E8.46454
G1 X23.532 Y88.777 E8.47967
G1 X23.322 Y88.427 E8.49510
G1 X23.152 Y88.047 E8.51084
G1 X23.022 Y87.667 E8.52602
G1 X22.932 Y87.267 E8.54152
G1 X22.902 Y87.067 E8.54917
G1 X22.902 Y47.007 E10.06378
G1 X22.932 Y46.797 E10.07181
G1 X23.092 Y46.177 E10.09601
G1 X23.252 Y45.787 E10.11195
G1 X23.462 Y45.417 E10.12804
G1 X23.572 Y45.247 E10.13569
G1 X23.702 Y45.077 E10.14379
G1 X41.660 Y24.902 E11.16499
G1 X42.212 Y24.867 F4500.000
G1 X42.352 Y24.717 F1200.000 E11.17275
G1 X42.652 Y24.447 E11.18801
G1 X42.992 Y24.217 E11.20353
G1 X43.352 Y24.027 E11.21892
G1 X43.732 Y23.877 E11.23436
G1 X44.332 Y23.747 E11.25758
G1 X44.742 Y23.727 E11.27310
G1 X90.242 Y23.727 E12.99339
G1 X90.632 Y23.747 E13.00815
G1 X91.012 Y23.817 E13.02276
G1 X91.392 Y23.927 E13.03772
G1 X91.752 Y24.077 E13.05246
G1 X92.092 Y24.277 E13.06738
G1 X92.252 Y24.387 E13.07472
G1 X92.552 Y24.637 E13.08948
G1 X92.692 Y24.767 E13.09671
G1 X92.942 Y25.067 E13.11147
G1 X93.162 Y25.387 E13.12615
G1 X93.342 Y25.737 E13.14104
G1 X93.532 Y26.287 E13.16304
G1 X101.522 Y57.977 E14.39869
G1 X102.702 Y66.767 E14.73401
G1 X102.712 Y66.947 E14.74082
G1 X102.712 Y67.127 E14.74763
G1 X102.702 Y67.307 E14.75445
G1 X101.532 Y76.067 E15.08859
G1 X101.432 Y76.407 E15.10199
G1 X98.112 Y84.417 E15.42982
G1 X98.032 Y84.577 E15.43658
G1 X97.842 Y84.877 E15.45001
G1 X92.582 Y91.747 E15.77715
G1 X92.332 Y92.007 E15.79078
G1 X92.202 Y92.127 E15.79747
G1 X85.332 Y97.397 E16.12484
G1 X85.032 Y97.587 E16.13826
G1 X84.872 Y97.667 E16.14503
G1 X77.022 Y100.907 E16.46611
G1 X76.552 Y101.067 E16.48488
G1 X76.472 Y101.087 E16.48800
G1 X67.752 Y102.247 E16.82060
G1 X67.582 Y102.257 E16.82704
G1 X67.402 Y102.257 E16.83384
G1 X67.222 Y102.247 E16.84066
G1 X58.682 Y101.117 E17.16636
G1 X58.292 Y101.027 E17.18149
G1 X25.382 Y89.797 E18.49622
G1 X25.192 Y89.717 E18.50402
G1 X24.842 Y89.517 E18.51926
G1 X24.522 Y89.287 E18.53416
G1 X24.222 Y89.017 E18.54942
G1 X23.962 Y88.707 E18.56471
G1 X23.742 Y88.377 E18.57971
G1 X23.642 Y88.197 E18.58749
G1 X23.482 Y87.837 E18.60239
G1 X23.362 Y87.447 E18.61782
G1 X23.322 Y87.257 E18.62516
G1 X23.292 Y87.057 E18.63280
G1 X23.282 Y47.217 E20.13910
G1 X23.332 Y46.817 E20.15434
G1 X23.422 Y46.417 E20.16984
G1 X23.492 Y46.217 E20.17785
G1 X23.572 Y46.027 E20.18565
G1 X23.762 Y45.667 E20.20104
G1 X23.872 Y45.497 E20.20870
G1 X24.002 Y45.327 E20.21679
G1 X41.950 Y25.162 E21.23746
G1 F1080.000 E20.23746
G92 E0
G1 X89.282 Y28.095 F4500.000
G1 F1080.000 E1.00000
G1 X89.282 Y45.190 F1200.000 E1.78570
G1 X94.216 Y51.621 E2.15821
G1 X97.298 Y59.061 E2.52834
G1 X98.349 Y67.045 E2.89846
G1 X97.298 Y75.030 E3.26859
G1 X94.216 Y82.470 E3.63871
G1 X89.314 Y88.859 E4.00884
G1 X82.925 Y93.762 E4.37896
G1 X75.484 Y96.844 E4.74908
G1 X67.500 Y97.895 E5.11921
G1 X59.516 Y96.844 E5.48933
G1 X52.075 Y93.762 E5.85946
G1 X45.686 Y88.859 E6.22958
G1 X43.257 Y85.694 E6.41297
G1 X27.640 Y85.694 E7.13072
G1 X27.640 Y48.397 E8.84484
G1 X37.770 Y48.397 E9.31041
G1 X45.718 Y43.454 E9.74057
G1 X45.718 Y28.095 E10.44645
G1 X52.282 Y28.095 E10.74815
G1 X52.282 Y48.445 E11.68341
G1 X50.368 Y49.913 E11.79430
G1 X46.518 Y54.931 E12.08499
G1 X44.097 Y60.775 E12.37567
G1 X43.276 Y67.014 E12.66491
G1 X43.276 Y67.014 E12.66491
G1 X43.272 Y67.045 E12.66636
G1 X44.097 Y73.316 E12.95705
G1 X46.518 Y79.159 E13.24773
G1 X50.368 Y84.177 E13.53842
G1 X55.386 Y88.028 E13.82911
G1 X61.229 Y90.448 E14.11979
G1 X67.195 Y91.233 E14.39632
G1 X67.195 Y91.314 E14.40002
G1 X73.771 Y90.448 E14.70486
G1 X79.614 Y88.028 E14.99555
G1 X84.632 Y84.177 E15.28624
G1 X88.482 Y79.159 E15.57693
G1 X90.903 Y73.316 E15.86761
G1 X91.748 Y66.898 E16.16513
G1 X91.748 Y66.898 E16.16513
G1 X91.878 Y65.910 E16.21092
G1 X91.579 Y65.910 E16.22465
G1 X91.007 Y61.563 E16.42616
G1 X91.007 Y61.563 E16.42616
G1 X90.903 Y60.775 E16.46272
G1 X88.328 Y54.559 E16.77193
G1 X88.197 Y54.559 E16.77797
G1 X84.632 Y49.913 E17.04709
G1 X84.254 Y49.624 E17.06896
G1 X84.254 Y49.624 E17.06896
G1 X82.718 Y48.445 E17.15798
G1 X82.718 Y28.095 E18.09324
G1 X88.888 Y28.095 E18.37681
G1 X89.766 Y27.611 F4500.000
G1 X89.766 Y45.026 F1200.000 E19.17720
G1 X94.639 Y51.377 E19.54509
G1 X97.770 Y58.935 E19.92107
G1 X98.837 Y67.045 E20.29706
G1 X97.770 Y75.156 E20.67304
G1 X94.639 Y82.714 E21.04902
G1 X89.659 Y89.204 E21.42500
G1 X83.169 Y94.184 E21.80098
G1 X75.611 Y97.315 E22.17696
G1 X67.500 Y98.383 E22.55294
G1 X59.389 Y97.315 E22.92892
G1 X51.831 Y94.184 E23.30490
G1 X45.341 Y89.204 E23.68088
G1 X43.019 Y86.177 E23.85622
G1 X27.156 Y86.177 E24.58524
G1 X27.156 Y47.913 E26.34385
G1 X37.632 Y47.913 E26.82530
G1 X45.234 Y43.185 E27.23676
G1 X45.234 Y27.611 E27.95252
G1 X52.766 Y27.611 E28.29870
G1 X52.766 Y48.683 E29.26717
G1 X50.713 Y50.258 E29.38609
G1 X46.940 Y55.175 E29.67093
G1 X44.569 Y60.901 E29.95576
G1 X43.760 Y67.045 E30.24059
G1 X44.569 Y73.190 E30.52542
G1 X46.940 Y78.915 E30.81025
G1 X50.713 Y83.832 E31.09508
G1 X55.630 Y87.605 E31.37991
G1 X61.356 Y89.977 E31.66474
G1 X61.801 Y90.035 E31.68541
G1 X61.801 Y90.035 E31.68541
G1 X67.500 Y90.786 E31.94957
G1 X67.678 Y90.762 E31.95785
G1 X67.678 Y90.762 E31.95785
G1 X73.644 Y89.977 E32.23440
G1 X79.370 Y87.605 E32.51923
G1 X84.287 Y83.832 E32.80407
G1 X88.060 Y78.915 E33.08890
G1 X90.431 Y73.190 E33.37373
G1 X91.181 Y67.497 E33.63761
G1 X91.181 Y67.497 E33.63761
G1 X91.249 Y66.976 E33.66177
G1 X91.249 Y66.976 E33.66177
G1 X91.326 Y66.394 E33.68875
G1 X91.154 Y66.394 E33.69663
G1 X90.455 Y61.079 E33.94300
G1 X90.455 Y61.079 E33.94300
G1 X90.431 Y60.901 E33.95127
G1 X88.005 Y55.043 E34.24269
G1 X87.958 Y55.043 E34.24484
G1 X84.287 Y50.258 E34.52200
G1 X82.234 Y48.683 E34.64093
G1 X82.234 Y27.611 E35.60940
G1 X89.372 Y27.611 E35.93745
G1 X90.250 Y27.127 F4500.000
G1 X90.250 Y44.862 F1200.000 E36.75253
G1 X95.062 Y51.133 E37.11580
G1 X98.241 Y58.808 E37.49763
G1 X99.326 Y67.045 E37.87947
G1 X98.241 Y75.282 E38.26131
G1 X95.062 Y82.958 E38.64314
G1 X90.004 Y89.549 E39.02498
G1 X83.413 Y94.607 E39.40681
G1 X75.737 Y97.786 E39.78865
G1 X67.500 Y98.871 E40.17049
G1 X59.263 Y97.786 E40.55232
G1 X51.587 Y94.607 E40.93416
G1 X51.423 Y94.481 E40.94366
G1 X51.423 Y94.481 E40.94366
G1 X44.996 Y89.549 E41.31600
G1 X42.780 Y86.661 E41.48330
G1 X26.672 Y86.661 E42.22359
G1 X26.672 Y47.429 E44.02668
G1 X37.494 Y47.429 E44.52402
G1 X44.750 Y42.916 E44.91676
G1 X44.750 Y27.127 E45.64241
G1 X53.250 Y27.127 E46.03307
G1 X53.250 Y48.922 E47.03474
G1 X51.058 Y50.604 E47.16171
G1 X47.363 Y55.419 E47.44069
G1 X45.040 Y61.027 E47.71966
G1 X44.248 Y67.045 E47.99864
G1 X45.040 Y73.063 E48.27761
G1 X47.363 Y78.671 E48.55659
G1 X51.058 Y83.487 E48.83556
G1 X55.874 Y87.182 E49.11454
G1 X61.482 Y89.505 E49.39351
G1 X67.500 Y90.297 E49.67249
G1 X73.518 Y89.505 E49.95146
G1 X79.126 Y87.182 E50.23044
G1 X83.942 Y83.487 E50.50941
G1 X87.637 Y78.671 E50.78839
G1 X89.960 Y73.063 E51.06736
G1 X90.750 Y67.060 E51.34566
G1 X90.750 Y67.060 E51.34566
G1 X90.774 Y66.878 E51.35409
G1 X90.730 Y66.878 E51.35612
G1 X89.960 Y61.027 E51.62734
G1 X87.681 Y55.527 E51.90097
G1 X87.681 Y55.527 E51.90097
G1 X87.637 Y55.419 E51.90631
G1 X83.942 Y50.604 E52.18529
G1 X81.750 Y48.922 E52.31226
G1 X81.750 Y27.127 E53.31393
G1 X89.856 Y27.127 E53.68646
G1 X88.660 Y28.184 F4500.000
G1 X88.660 Y54.490 F1200.000 E54.89633
G1 X88.176 Y54.131 F4500.000
G1 X88.176 Y28.184 F1200.000 E56.08967
G1 X87.691 Y28.184 F4500.000
G1 X87.691 Y53.499 F1200.000 E57.25394
G1 X87.207 Y52.867 E57.29056
G1 X87.207 Y28.184 E58.42578
G1 X86.723 Y28.184 F4500.000
G1 X86.723 Y52.235 F1200.000 E59.53193
G1 X86.239 Y51.603 E59.56855
G1 X86.239 Y28.184 E60.64564
G1 X85.754 Y28.184 F4500.000
G1 X85.754 Y50.971 F1200.000 E61.69368
G1 X85.270 Y50.340 E61.73029
G1 X85.270 Y28.184 E62.74927
G1 X84.786 Y28.184 F4500.000
G1 X84.786 Y49.816 F1200.000 E63.74415
G1 X84.301 Y49.444 F4500.000
G1 X84.301 Y28.184 F1200.000 E64.72194
G1 X83.817 Y28.184 F4500.000
G1 X83.817 Y49.073 F1200.000 E65.68264
G1 X83.333 Y48.701 F4500.000
G1 X83.333 Y28.184 F1200.000 E66.62625
G1 F1080.000 E65.62625
G92 E0
G1 X89.144 Y45.411 F4500.000
G1 F1080.000 E1.00000
G1 X89.144 Y55.659 F1200.000 E1.47134
G1 X89.629 Y56.828 E1.52955
G1 X89.629 Y46.042 E2.02564
G1 X90.113 Y46.673 E2.06223
G1 X90.113 Y57.998 E2.58306
G1 X90.597 Y59.167 E2.64126
G1 X90.597 Y47.304 E3.18685
G1 X91.081 Y47.936 E3.22344
G1 X91.081 Y60.336 E3.79376
G1 X91.566 Y62.498 E3.89565
G1 X91.566 Y48.567 E4.53637
G1 X92.050 Y49.198 E4.57296
G1 X92.050 Y65.821 E5.33749
G1 F1080.000 E4.33749
G92 E0
G1 X92.050 Y67.914 F4500.000
G1 F1080.000 E1.00000
G1 X92.050 Y84.893 F1200.000 E1.78089
G1 X91.566 Y85.524 E1.81748
G1 X91.566 Y71.593 E2.45820
G1 X91.081 Y73.755 E2.56009
G1 X91.081 Y86.155 E3.13042
G1 X90.597 Y86.786 E3.16701
G1 X90.597 Y74.924 E3.71259
G1 X90.113 Y76.093 E3.77080
G1 X90.113 Y87.417 E4.29163
G1 X89.629 Y88.049 E4.32822
G1 X89.629 Y77.262 E4.82431
G1 X89.144 Y78.431 E4.88251
G1 X89.144 Y88.680 E5.35386
G1 X88.660 Y89.145 F4500.000
G1 X88.660 Y79.328 F1200.000 E5.80536
G1 X88.176 Y79.960 E5.84195
G1 X88.176 Y89.517 E6.28152
G1 X87.691 Y89.889 F4500.000
G1 X87.691 Y80.591 F1200.000 E6.70915
G1 X87.207 Y81.222 E6.74575
G1 X87.207 Y90.260 E7.16144
G1 X86.723 Y90.632 F4500.000
G1 X86.723 Y81.853 F1200.000 E7.56520
G1 X86.239 Y82.484 E7.60179
G1 X86.239 Y91.003 E7.99361
G1 X85.754 Y91.375 F4500.000
G1 X85.754 Y83.115 F1200.000 E8.37350
G1 X85.270 Y83.746 E8.41009
G1 X85.270 Y91.747 E8.77804
G1 X84.786 Y92.118 F4500.000
G1 X84.786 Y84.275 F1200.000 E9.13878
G1 X84.301 Y84.647 F4500.000
G1 X84.301 Y92.490 F1200.000 E9.49951
G1 X83.817 Y92.861 F4500.000
G1 X83.817 Y85.018 F1200.000 E9.86024
G1 X83.333 Y85.390 F4500.000
G1 X83.333 Y93.233 F1200.000 E10.22098
G1 X82.849 Y93.605 F4500.000
G1 X82.849 Y85.761 F1200.000 E10.58171
G1 X82.364 Y86.133 F4500.000
G1 X82.364 Y93.864 F1200.000 E10.93731
G1 X81.880 Y94.065 F4500.000
G1 X81.880 Y86.505 F1200.000 E11.28503
G1 X81.396 Y86.876 F4500.000
G1 X81.396 Y94.266 F1200.000 E11.62490
G1 X80.911 Y94.466 F4500.000
G1 X80.911 Y87.248 F1200.000 E11.95689
G1 X80.427 Y87.619 F4500.000
G1 X80.427 Y94.667 F1200.000 E12.28103
G1 X79.943 Y94.867 F4500.000
G1 X79.943 Y87.991 F1200.000 E12.59729
G1 X79.458 Y88.221 F4500.000
G1 X79.458 Y95.068 F1200.000 E12.91219
G1 X78.974 Y95.269 F4500.000
G1 X78.974 Y88.422 F1200.000 E13.22708
G1 X78.490 Y88.623 F4500.000
G1 X78.490 Y95.469 F1200.000 E13.54198
G1 X78.006 Y95.670 F4500.000
G1 X78.006 Y88.823 F1200.000 E13.85687
G1 X77.521 Y89.024 F4500.000
G1 X77.521 Y95.870 F1200.000 E14.17176
G1 X77.037 Y96.071 F4500.000
G1 X77.037 Y89.224 F1200.000 E14.48666
G1 X76.553 Y89.425 F4500.000
G1 X76.553 Y96.272 F1200.000 E14.80155
G1 X76.068 Y96.472 F4500.000
G1 X76.068 Y89.626 F1200.000 E15.11644
G1 X75.584 Y89.826 F4500.000
G1 X75.584 Y96.673 F1200.000 E15.43134
G1 X75.100 Y96.801 F4500.000
G1 X75.100 Y90.027 F1200.000 E15.74288
G1 X74.616 Y90.227 F4500.000
G1 X74.616 Y96.864 F1200.000 E16.04812
G1 X74.131 Y96.928 F4500.000
G1 X74.131 Y90.428 F1200.000 E16.34707
G1 X73.647 Y90.558 F4500.000
G1 X73.647 Y96.992 F1200.000 E16.64298
G1 X73.163 Y97.056 F4500.000
G1 X73.163 Y90.622 F1200.000 E16.93888
G1 X72.678 Y90.686 F4500.000
G1 X72.678 Y97.119 F1200.000 E17.23479
G1 X72.194 Y97.183 F4500.000
G1 X72.194 Y90.749 F1200.000 E17.53069
G1 X71.710 Y90.813 F4500.000
G1 X71.710 Y97.247 F1200.000 E17.82660
G1 X71.226 Y97.311 F4500.000
G1 X71.226 Y90.877 F1200.000 E18.12251
G1 X70.741 Y90.941 F4500.000
G1 X70.741 Y97.374 F1200.000 E18.41842
G1 X70.257 Y97.438 F4500.000
G1 X70.257 Y91.004 F1200.000 E18.71432
G1 X69.773 Y91.068 F4500.000
G1 X69.773 Y97.502 F1200.000 E19.01023
G1 X69.288 Y97.566 F4500.000
G1 X69.288 Y91.132 F1200.000 E19.30613
G1 X68.804 Y91.196 F4500.000
G1 X68.804 Y97.629 F1200.000 E19.60204
G1 X68.320 Y97.693 F4500.000
G1 X68.320 Y91.259 F1200.000 E19.89795
G1 X67.836 Y91.323 F4500.000
G1 X67.836 Y97.757 F1200.000 E20.19385
G1 X67.351 Y97.781 F4500.000
G1 X67.351 Y91.387 F1200.000 E20.48796
G1 X66.867 Y91.451 F4500.000
G1 X66.867 Y97.718 F1200.000 E20.77620
G1 X66.383 Y97.654 F4500.000
G1 X66.383 Y91.220 F1200.000 E21.07211
G1 X65.898 Y91.156 F4500.000
G1 X65.898 Y97.590 F1200.000 E21.36802
G1 X65.414 Y97.526 F4500.000
G1 X65.414 Y91.093 F1200.000 E21.66392
G1 X64.930 Y91.029 F4500.000
G1 X64.930 Y97.463 F1200.000 E21.95983
G1 X64.446 Y97.399 F4500.000
G1 X64.446 Y90.965 F1200.000 E22.25573
G1 X63.961 Y90.901 F4500.000
G1 X63.961 Y97.335 F1200.000 E22.55164
G1 X63.477 Y97.271 F4500.000
G1 X63.477 Y90.838 F1200.000 E22.84755
G1 X62.993 Y90.774 F4500.000
G1 X62.993 Y97.208 F1200.000 E23.14346
G1 X62.508 Y97.144 F4500.000
G1 X62.508 Y90.710 F1200.000 E23.43936
G1 X62.024 Y90.646 F4500.000
G1 X62.024 Y97.080 F1200.000 E23.73527
G1 X61.540 Y97.016 F4500.000
G1 X61.540 Y90.583 F1200.000 E24.03118
G1 X61.056 Y90.505 F4500.000
G1 X61.056 Y96.953 F1200.000 E24.32770
G1 X60.571 Y96.889 F4500.000
G1 X60.571 Y90.305 F1200.000 E24.63052
G1 X60.087 Y90.104 F4500.000
G1 X60.087 Y96.825 F1200.000 E24.93963
G1 X59.603 Y96.750 F4500.000
G1 X59.603 Y89.904 F1200.000 E25.25452
G1 X59.118 Y89.703 F4500.000
G1 X59.118 Y96.550 F1200.000 E25.56941
G1 X58.634 Y96.349 F4500.000
G1 X58.634 Y89.502 F1200.000 E25.88431
G1 X58.150 Y89.302 F4500.000
G1 X58.150 Y96.148 F1200.000 E26.19920
G1 X57.666 Y95.948 F4500.000
G1 X57.666 Y89.101 F1200.000 E26.51409
G1 X57.181 Y88.901 F4500.000
G1 X57.181 Y95.747 F1200.000 E26.82899
G1 X56.697 Y95.547 F4500.000
G1 X56.697 Y88.700 F1200.000 E27.14388
G1 X56.213 Y88.499 F4500.000
G1 X56.213 Y95.346 F1200.000 E27.45877
G1 X55.728 Y95.145 F4500.000
G1 X55.728 Y88.299 F1200.000 E27.77367
G1 X55.244 Y88.098 F4500.000
G1 X55.244 Y94.945 F1200.000 E28.08856
G1 X54.760 Y94.744 F4500.000
G1 X54.760 Y87.763 F1200.000 E28.40966
G1 X54.276 Y87.391 F4500.000
G1 X54.276 Y94.544 F1200.000 E28.73863
G1 X53.791 Y94.343 F4500.000
G1 X53.791 Y87.020 F1200.000 E29.07546
G1 X53.307 Y86.648 F4500.000
G1 X53.307 Y94.143 F1200.000 E29.42016
G1 X52.823 Y93.942 F4500.000
