; generated by Slic3r 0.9.10b on 2013-06-29 at 12:19:19

; layer_height = .25
; perimeters = 3
; top_solid_layers = 2
; bottom_solid_layers = 2
; fill_density = 0.3
; perimeter_speed = 30
; infill_speed = 60
; travel_speed = 75
; nozzle_diameter = 0.35
; filament_diameter = 1.8
; extrusion_multiplier = 1
; perimeters extrusion width = 0.39mm
; infill extrusion width = 0.39mm
; solid infill extrusion width = 0.39mm
; top infill extrusion width = 0.39mm

G21 ; set units to millimeters
M107
G92 E0	;reset extruder location
G1 E5	;Prime extruder
G28	;Go Home
;G1 E20	Prime extruder
G90 ; use absolute coordinates
G92 E0
M82 ; use absolute distances for extrusion
G1 F1080.000 E-1.00000
G92 E0
G1 Z0.250 F4500.000
G1 X33.959 Y14.101
G1 F1080.000 E1.00000
G1 X34.539 Y13.191 F1800.000 E1.04080
G1 X35.349 Y12.491 E1.08128
G1 X36.329 Y12.041 E1.12205
G1 X37.389 Y11.891 E1.16252
G1 X57.389 Y11.891 E1.91870
G1 X58.409 Y12.031 E1.95762
G1 X59.359 Y12.451 E1.99690
G1 X102.629 Y38.971 E3.91570
G1 X103.379 Y39.571 E3.95201
G1 X103.949 Y40.341 E3.98824
G1 X104.309 Y41.231 E4.02453
G1 X104.429 Y42.181 E4.06074
G1 X104.429 Y88.271 E5.80334
G1 X104.249 Y89.421 E5.84735
G1 X103.729 Y90.461 E5.89131
G1 X102.919 Y91.291 E5.93516
G1 X101.889 Y91.831 E5.97913
G1 X40.259 Y113.181 E8.44513
G1 X38.389 Y113.751 E8.51905
G1 X38.029 Y113.841 E8.53308
G1 X35.709 Y114.081 E8.62126
G1 X35.339 Y114.101 E8.63527
G1 X34.969 Y114.081 E8.64928
G1 X33.019 Y113.891 E8.72336
G1 X32.659 Y113.841 E8.73710
G1 X32.299 Y113.751 E8.75113
G1 X30.419 Y113.181 E8.82540
G1 X30.069 Y113.051 E8.83952
G1 X29.739 Y112.901 E8.85322
G1 X28.009 Y111.981 E8.92731
G1 X27.689 Y111.791 E8.94138
G1 X25.869 Y110.311 E9.03007
G1 X25.589 Y110.061 E9.04426
G1 X25.349 Y109.791 E9.05792
G1 X23.879 Y107.981 E9.14608
G1 X23.689 Y107.661 E9.16015
G1 X22.769 Y105.931 E9.23423
G1 X22.619 Y105.601 E9.24794
G1 X22.489 Y105.251 E9.26205
G1 X21.919 Y103.371 E9.33633
G1 X21.829 Y103.011 E9.35036
G1 X21.779 Y102.651 E9.36410
G1 X21.589 Y100.701 E9.43818
G1 X21.569 Y100.331 E9.45219
G1 X21.589 Y99.961 E9.46620
G1 X21.799 Y97.841 E9.54674
G1 X33.659 Y15.121 E12.70626
G1 X33.943 Y14.156 E12.74427
G1 X34.309 Y14.251 F4500.000
G1 X34.829 Y13.441 F1800.000 E12.78067
G1 X35.559 Y12.811 E12.81712
G1 X36.439 Y12.411 E12.85367
G1 X37.389 Y12.281 E12.88992
G1 X57.389 Y12.281 E13.64610
G1 X58.309 Y12.401 E13.68117
G1 X59.159 Y12.771 E13.71622
G1 X102.429 Y39.291 E15.63503
G1 X103.289 Y40.051 E15.67842
G1 X103.849 Y41.051 E15.72175
G1 X104.039 Y42.181 E15.76508
G1 X104.039 Y88.271 E17.50768
G1 X103.879 Y89.301 E17.54709
G1 X103.419 Y90.231 E17.58632
G1 X102.689 Y90.981 E17.62589
G1 X101.769 Y91.471 E17.66530
G1 X40.269 Y112.771 E20.12604
G1 X38.279 Y113.381 E20.20473
G1 X37.949 Y113.461 E20.21757
G1 X37.619 Y113.511 E20.23019
G1 X35.669 Y113.701 E20.30427
G1 X35.009 Y113.701 E20.32922
G1 X33.059 Y113.511 E20.40330
G1 X32.729 Y113.461 E20.41592
G1 X32.409 Y113.381 E20.42839
G1 X30.529 Y112.811 E20.50266
G1 X30.219 Y112.701 E20.51510
G1 X29.919 Y112.561 E20.52762
G1 X27.899 Y111.471 E20.61440
G1 X26.109 Y110.011 E20.70173
G1 X25.639 Y109.551 E20.72660
G1 X24.399 Y108.041 E20.80047
G1 X24.199 Y107.771 E20.81318
G1 X23.109 Y105.751 E20.89996
G1 X22.969 Y105.451 E20.91248
G1 X22.859 Y105.141 E20.92491
G1 X22.289 Y103.261 E20.99919
G1 X22.209 Y102.941 E21.01166
G1 X22.159 Y102.611 E21.02428
G1 X21.969 Y100.661 E21.09835
G1 X21.969 Y100.001 E21.12331
G1 X22.179 Y97.901 E21.20310
G1 X34.039 Y15.181 E24.36262
G1 X34.293 Y14.306 E24.39705
G1 F1080.000 E23.39705
G92 E0
G1 X62.715 Y51.035 F4500.000
G1 F1080.000 E1.00000
G1 X63.354 Y50.643 F1800.000 E1.02834
G1 X64.045 Y50.356 E1.05662
G1 X64.775 Y50.182 E1.08503
G1 X65.520 Y50.122 E1.11326
G1 X66.270 Y50.182 E1.14170
G1 X66.998 Y50.357 E1.17003
G1 X67.689 Y50.643 E1.19829
G1 X68.329 Y51.034 E1.22665
G1 X68.901 Y51.522 E1.25509
G1 X69.387 Y52.094 E1.28346
G1 X69.777 Y52.731 E1.31171
G1 X70.066 Y53.422 E1.34002
G1 X70.240 Y54.154 E1.36845
G1 X70.256 Y54.357 E1.37616
G1 X70.298 Y54.899 E1.39671
G1 X70.240 Y55.646 E1.42504
G1 X70.066 Y56.378 E1.45349
G1 X69.777 Y57.069 E1.48179
G1 X69.387 Y57.706 E1.51004
G1 X68.901 Y58.278 E1.53841
G1 X68.329 Y58.766 E1.56685
G1 X67.689 Y59.157 E1.59521
G1 X66.998 Y59.443 E1.62347
G1 X66.267 Y59.618 E1.65190
G1 X65.521 Y59.676 E1.68020
G1 X64.777 Y59.618 E1.70841
G1 X64.045 Y59.444 E1.73687
G1 X63.354 Y59.157 E1.76515
G1 X63.179 Y59.051 E1.77288
G1 X62.715 Y58.765 E1.79349
G1 X62.143 Y58.278 E1.82190
G1 X61.656 Y57.707 E1.85026
G1 X61.266 Y57.069 E1.87856
G1 X60.979 Y56.378 E1.90682
G1 X60.931 Y56.179 E1.91457
G1 X60.803 Y55.646 E1.93529
G1 X60.744 Y54.899 E1.96363
G1 X60.803 Y54.154 E1.99189
G1 X60.979 Y53.422 E2.02034
G1 X61.266 Y52.731 E2.04861
G1 X61.656 Y52.093 E2.07690
G1 X62.143 Y51.522 E2.10527
G1 X62.671 Y51.072 E2.13149
G1 X62.941 Y51.347 F4500.000
G1 X63.529 Y50.987 F1800.000 E2.15754
G1 X64.164 Y50.724 E2.18355
G1 X64.836 Y50.563 E2.20965
G1 X65.520 Y50.508 E2.23562
G1 X66.209 Y50.564 E2.26174
G1 X66.879 Y50.724 E2.28778
G1 X67.514 Y50.987 E2.31378
G1 X68.102 Y51.347 E2.33985
G1 X68.628 Y51.795 E2.36597
G1 X69.074 Y52.320 E2.39203
G1 X69.433 Y52.907 E2.41803
G1 X69.698 Y53.542 E2.44405
G1 X69.859 Y54.214 E2.47017
G1 X69.872 Y54.387 E2.47673
G1 X69.912 Y54.899 E2.49615
G1 X69.859 Y55.586 E2.52220
G1 X69.698 Y56.258 E2.54833
G1 X69.433 Y56.893 E2.57435
G1 X69.074 Y57.480 E2.60035
G1 X68.628 Y58.005 E2.62641
G1 X68.102 Y58.453 E2.65253
G1 X67.514 Y58.813 E2.67860
G1 X66.879 Y59.076 E2.70460
G1 X66.207 Y59.237 E2.73070
G1 X65.521 Y59.290 E2.75673
G1 X64.837 Y59.237 E2.78268
G1 X64.164 Y59.076 E2.80882
G1 X63.529 Y58.813 E2.83483
G1 X63.380 Y58.722 E2.84141
G1 X62.941 Y58.453 E2.86087
G1 X62.416 Y58.005 E2.88697
G1 X61.969 Y57.480 E2.91304
G1 X61.610 Y56.893 E2.93907
G1 X61.346 Y56.258 E2.96506
G1 X61.305 Y56.089 E2.97164
G1 X61.185 Y55.586 E2.99120
G1 X61.130 Y54.899 E3.01726
G1 X61.185 Y54.214 E3.04324
G1 X61.346 Y53.542 E3.06938
G1 X61.610 Y52.907 E3.09536
G1 X61.969 Y52.320 E3.12139
G1 X62.416 Y51.795 E3.14746
G1 X62.897 Y51.384 E3.17138
G1 X63.168 Y51.659 F4500.000
G1 X63.703 Y51.331 F1800.000 E3.19512
G1 X64.283 Y51.091 E3.21886
G1 X64.896 Y50.945 E3.24267
G1 X65.521 Y50.894 E3.26637
G1 X66.148 Y50.945 E3.29017
G1 X66.759 Y51.091 E3.31391
G1 X67.339 Y51.331 E3.33765
G1 X67.876 Y51.659 E3.36144
G1 X68.355 Y52.068 E3.38523
G1 X68.761 Y52.546 E3.40898
G1 X69.089 Y53.083 E3.43274
G1 X69.331 Y53.661 E3.45647
G1 X69.477 Y54.274 E3.48028
G1 X69.489 Y54.417 E3.48569
G1 X69.526 Y54.899 E3.50398
G1 X69.477 Y55.526 E3.52775
G1 X69.331 Y56.139 E3.55157
G1 X69.089 Y56.717 E3.57529
G1 X68.761 Y57.254 E3.59905
G1 X68.355 Y57.732 E3.62280
G1 X67.876 Y58.141 E3.64659
G1 X67.339 Y58.469 E3.67038
G1 X66.759 Y58.709 E3.69412
G1 X66.148 Y58.855 E3.71788
G1 X65.521 Y58.904 E3.74165
G1 X64.896 Y58.855 E3.76534
G1 X64.283 Y58.709 E3.78916
G1 X63.703 Y58.469 E3.81290
G1 X63.581 Y58.394 E3.81832
G1 X63.168 Y58.141 E3.83664
G1 X62.689 Y57.732 E3.86043
G1 X62.281 Y57.254 E3.88421
G1 X61.953 Y56.717 E3.90798
G1 X61.713 Y56.139 E3.93168
G1 X61.679 Y55.999 E3.93710
G1 X61.566 Y55.526 E3.95550
G1 X61.516 Y54.899 E3.97928
G1 X61.566 Y54.274 E4.00298
G1 X61.713 Y53.661 E4.02680
G1 X61.953 Y53.083 E4.05050
G1 X62.281 Y52.546 E4.07427
G1 X62.689 Y52.068 E4.09805
G1 X63.124 Y51.697 E4.11965
G1 X63.515 Y51.825 F4500.000
G1 F1080.000 E3.11965
G92 E0
G1 X64.774 Y70.582 F4500.000
G1 F1080.000 E1.00000
G1 X65.522 Y70.522 F1800.000 E1.02837
G1 X66.270 Y70.582 E1.05674
G1 X66.997 Y70.756 E1.08501
G1 X67.690 Y71.043 E1.11339
G1 X68.329 Y71.434 E1.14170
G1 X68.901 Y71.922 E1.17014
G1 X69.387 Y72.494 E1.19851
G1 X69.776 Y73.129 E1.22668
G1 X70.066 Y73.823 E1.25509
G1 X70.240 Y74.552 E1.28344
G1 X70.298 Y75.299 E1.31177
G1 X70.256 Y75.842 E1.33237
G1 X70.240 Y76.046 E1.34010
G1 X70.066 Y76.775 E1.36844
G1 X69.777 Y77.468 E1.39681
G1 X69.386 Y78.107 E1.42515
G1 X68.901 Y78.676 E1.45340
G1 X68.330 Y79.164 E1.48180
G1 X67.689 Y79.556 E1.51021
G1 X66.998 Y79.842 E1.53847
G1 X66.268 Y80.016 E1.56685
G1 X65.521 Y80.076 E1.59520
G1 X64.775 Y80.016 E1.62347
G1 X64.045 Y79.842 E1.65188
G1 X63.354 Y79.556 E1.68016
G1 X62.713 Y79.163 E1.70856
G1 X62.143 Y78.676 E1.73692
G1 X61.657 Y78.108 E1.76517
G1 X61.550 Y77.934 E1.77291
G1 X61.265 Y77.468 E1.79355
G1 X60.979 Y76.776 E1.82188
G1 X60.804 Y76.046 E1.85025
G1 X60.744 Y75.299 E1.87858
G1 X60.804 Y74.552 E1.90691
G1 X60.931 Y74.021 E1.92757
G1 X60.979 Y73.822 E1.93528
G1 X61.266 Y73.129 E1.96365
G1 X61.656 Y72.493 E1.99187
G1 X62.143 Y71.922 E2.02024
G1 X62.715 Y71.435 E2.04864
G1 X63.352 Y71.043 E2.07693
G1 X64.046 Y70.756 E2.10533
G1 X64.718 Y70.595 E2.13143
G1 X64.835 Y70.963 F4500.000
G1 X65.521 Y70.908 F1800.000 E2.15747
G1 X66.209 Y70.963 E2.18355
G1 X66.878 Y71.123 E2.20955
G1 X67.515 Y71.387 E2.23562
G1 X68.102 Y71.747 E2.26167
G1 X68.628 Y72.195 E2.28778
G1 X69.074 Y72.720 E2.31384
G1 X69.433 Y73.305 E2.33978
G1 X69.699 Y73.942 E2.36588
G1 X69.859 Y74.612 E2.39193
G1 X69.912 Y75.299 E2.41797
G1 X69.872 Y75.813 E2.43745
G1 X69.859 Y75.986 E2.44402
G1 X69.699 Y76.656 E2.47007
G1 X69.433 Y77.293 E2.49615
G1 X69.073 Y77.880 E2.52220
G1 X68.628 Y78.403 E2.54817
G1 X68.103 Y78.851 E2.57427
G1 X67.514 Y79.212 E2.60037
G1 X66.879 Y79.475 E2.62637
G1 X66.208 Y79.635 E2.65244
G1 X65.521 Y79.690 E2.67850
G1 X64.836 Y79.635 E2.70449
G1 X64.164 Y79.475 E2.73060
G1 X63.529 Y79.212 E2.75661
G1 X62.941 Y78.851 E2.78269
G1 X62.416 Y78.403 E2.80876
G1 X61.969 Y77.881 E2.83475
G1 X61.879 Y77.733 E2.84132
G1 X61.609 Y77.293 E2.86082
G1 X61.346 Y76.656 E2.88687
G1 X61.185 Y75.986 E2.91294
G1 X61.130 Y75.299 E2.93898
G1 X61.185 Y74.612 E2.96503
G1 X61.305 Y74.111 E2.98453
G1 X61.346 Y73.942 E2.99109
G1 X61.610 Y73.305 E3.01716
G1 X61.969 Y72.720 E3.04313
G1 X62.416 Y72.195 E3.06920
G1 X62.941 Y71.747 E3.09530
G1 X63.528 Y71.387 E3.12131
G1 X64.165 Y71.123 E3.14739
G1 X64.779 Y70.977 E3.17124
G1 X64.896 Y71.344 F4500.000
G1 X65.521 Y71.294 F1800.000 E3.19496
G1 X66.148 Y71.344 E3.21875
G1 X66.759 Y71.491 E3.24248
G1 X67.339 Y71.731 E3.26624
G1 X67.876 Y72.059 E3.29003
G1 X68.355 Y72.468 E3.31382
G1 X68.761 Y72.946 E3.33757
G1 X69.089 Y73.481 E3.36128
G1 X69.331 Y74.062 E3.38506
G1 X69.477 Y74.672 E3.40881
G1 X69.526 Y75.299 E3.43257
G1 X69.489 Y75.783 E3.45092
G1 X69.477 Y75.926 E3.45633
G1 X69.331 Y76.536 E3.48008
G1 X69.089 Y77.117 E3.50387
G1 X68.761 Y77.653 E3.52764
G1 X68.355 Y78.130 E3.55133
G1 X67.876 Y78.539 E3.57512
G1 X67.339 Y78.867 E3.59892
G1 X66.759 Y79.108 E3.62266
G1 X66.148 Y79.254 E3.64641
G1 X65.521 Y79.304 E3.67020
G1 X64.896 Y79.254 E3.69390
G1 X64.283 Y79.108 E3.71771
G1 X63.703 Y78.867 E3.74145
G1 X63.168 Y78.539 E3.76520
G1 X62.689 Y78.130 E3.78899
G1 X62.282 Y77.654 E3.81271
G1 X62.207 Y77.532 E3.81812
G1 X61.953 Y77.117 E3.83649
G1 X61.713 Y76.537 E3.86025
G1 X61.566 Y75.926 E3.88401
G1 X61.516 Y75.299 E3.90777
G1 X61.566 Y74.672 E3.93154
G1 X61.679 Y74.201 E3.94988
G1 X61.713 Y74.061 E3.95529
G1 X61.953 Y73.481 E3.97905
G1 X62.281 Y72.946 E4.00277
G1 X62.689 Y72.468 E4.02655
G1 X63.168 Y72.059 E4.05034
G1 X63.703 Y71.731 E4.07408
G1 X64.284 Y71.491 E4.09784
G1 X64.840 Y71.358 E4.11944
G1 X65.130 Y71.649 F4500.000
G1 F1080.000 E3.11944
G92 E0
G1 X37.938 Y98.840 F4500.000
G1 F1080.000 E1.00000
G1 X38.339 Y100.337 F1800.000 E1.05860
G1 X37.938 Y101.836 E1.11729
G1 X36.842 Y102.936 E1.17599
G1 X35.341 Y103.337 E1.23471
G1 X33.841 Y102.936 E1.29341
G1 X32.742 Y101.837 E1.35217
G1 X32.341 Y100.337 E1.41089
G1 X32.742 Y98.839 E1.46951
G1 X33.841 Y97.740 E1.52826
G1 X35.341 Y97.339 E1.58696
G1 X36.841 Y97.740 E1.64568
G1 X37.897 Y98.799 E1.70221
G1 X37.593 Y99.039 F4500.000
G1 X37.941 Y100.337 F1800.000 E1.75302
G1 X37.593 Y101.637 E1.80392
G1 X36.642 Y102.591 E1.85482
G1 X35.341 Y102.939 E1.90574
G1 X34.040 Y102.591 E1.95665
G1 X33.087 Y101.638 E2.00760
G1 X32.739 Y100.337 E2.05852
G1 X33.087 Y99.038 E2.10935
G1 X34.040 Y98.085 E2.16030
G1 X35.341 Y97.738 E2.21120
G1 X36.642 Y98.085 E2.26212
G1 X37.552 Y98.998 E2.31084
G1 X37.248 Y99.238 F4500.000
G1 X37.542 Y100.337 F1800.000 E2.35387
G1 X37.248 Y101.438 E2.39698
G1 X36.443 Y102.246 E2.44008
G1 X35.341 Y102.540 E2.48320
G1 X34.239 Y102.246 E2.52631
G1 X33.432 Y101.439 E2.56946
G1 X33.138 Y100.337 E2.61257
G1 X33.432 Y99.237 E2.65561
G1 X34.239 Y98.430 E2.69876
G1 X35.341 Y98.136 E2.74187
G1 X36.443 Y98.430 E2.78499
G1 X37.207 Y99.197 E2.82590
G1 X37.027 Y99.553 F4500.000
G1 F1080.000 E1.82590
G92 E0
G1 X44.140 Y97.953 F4500.000
G1 F1080.000 E1.00000
G1 X44.374 Y100.337 F1800.000 E1.09055
G1 X44.201 Y102.100 E1.15754
G1 X43.686 Y103.795 E1.22450
G1 X42.851 Y105.356 E1.29143
G1 X41.727 Y106.726 E1.35842
G1 X40.360 Y107.849 E1.42534
G1 X38.797 Y108.684 E1.49232
G1 X37.102 Y109.199 E1.55929
G1 X35.341 Y109.372 E1.62621
G1 X33.578 Y109.199 E1.69319
G1 X31.883 Y108.684 E1.76015
G1 X30.322 Y107.849 E1.82708
G1 X28.953 Y106.725 E1.89406
G1 X27.829 Y105.356 E1.96105
G1 X26.994 Y103.795 E2.02796
G1 X26.481 Y102.100 E2.09492
G1 X26.306 Y100.337 E2.16191
G1 X26.481 Y98.576 E2.22883
G1 X26.994 Y96.881 E2.29579
G1 X27.829 Y95.318 E2.36276
G1 X28.952 Y93.951 E2.42968
G1 X30.322 Y92.827 E2.49667
G1 X31.883 Y91.992 E2.56360
G1 X33.578 Y91.477 E2.63056
G1 X36.277 Y91.212 E2.73310
G1 X36.280 Y91.105 E2.73712
G1 X40.407 Y90.699 E2.89393
G1 X45.279 Y89.220 E3.08641
G1 X49.768 Y86.821 E3.27887
G1 X53.705 Y83.591 E3.47141
G1 X56.933 Y79.654 E3.66388
G1 X59.334 Y75.167 E3.85630
G1 X60.811 Y70.293 E4.04884
G1 X61.310 Y65.227 E4.24132
G1 X60.811 Y60.163 E4.43372
G1 X59.334 Y55.289 E4.62627
G1 X56.933 Y50.800 E4.81875
G1 X53.705 Y46.865 E5.01117
G1 X49.768 Y43.635 E5.20370
G1 X45.279 Y41.236 E5.39615
G1 X40.408 Y39.757 E5.58863
G1 X38.305 Y39.551 E5.66851
G1 X38.305 Y31.470 E5.97403
G1 X38.353 Y31.474 E5.97585
G1 X38.353 Y16.623 E6.53733
G1 X56.429 Y16.623 E7.22075
G1 X56.429 Y38.718 E8.05613
G1 X59.405 Y41.162 E8.20175
G1 X63.784 Y46.496 E8.46266
G1 X75.221 Y54.463 E8.98966
G1 X75.559 Y54.769 E9.00690
G1 X76.040 Y55.101 E9.02898
G1 X76.562 Y55.363 E9.05108
G1 X77.111 Y55.553 E9.07304
G1 X77.678 Y55.668 E9.09492
G1 X78.263 Y55.710 E9.11709
G1 X78.845 Y55.668 E9.13915
G1 X79.412 Y55.553 E9.16103
G1 X79.964 Y55.363 E9.18309
G1 X80.485 Y55.100 E9.20517
G1 X80.964 Y54.770 E9.22718
G1 X81.414 Y54.365 E9.25006
G1 X85.053 Y49.623 E9.47605
G1 X89.624 Y46.115 E9.69389
G1 X94.948 Y43.910 E9.91176
G1 X99.699 Y43.286 E10.09293
G1 X99.699 Y46.387 E10.21019
G1 X95.750 Y46.908 E10.36080
G1 X91.176 Y48.803 E10.54798
G1 X87.247 Y51.817 E10.73521
G1 X84.231 Y55.746 E10.92248
G1 X82.336 Y60.322 E11.10975
G1 X81.691 Y65.231 E11.29695
G1 X82.336 Y70.142 E11.48423
G1 X84.231 Y74.716 E11.67143
G1 X87.247 Y78.645 E11.85870
G1 X91.176 Y81.659 E12.04592
G1 X95.750 Y83.556 E12.23315
G1 X99.699 Y84.076 E12.38374
G1 X99.699 Y87.178 E12.50102
G1 X94.948 Y86.552 E12.68219
G1 X89.624 Y84.347 E12.90007
G1 X85.053 Y80.839 E13.11792
G1 X81.414 Y76.097 E13.34391
G1 X80.963 Y75.691 E13.36686
G1 X80.484 Y75.363 E13.38882
G1 X79.966 Y75.102 E13.41075
G1 X79.412 Y74.908 E13.43292
G1 X78.779 Y74.789 E13.45727
G1 X78.263 Y74.755 E13.47682
G1 X77.681 Y74.793 E13.49888
G1 X77.108 Y74.909 E13.52098
G1 X76.561 Y75.101 E13.54293
G1 X76.041 Y75.363 E13.56492
G1 X75.560 Y75.692 E13.58696
G1 X75.221 Y75.998 E13.60423
G1 X63.784 Y83.960 E14.13110
G1 X59.405 Y89.293 E14.39201
G1 X54.248 Y93.525 E14.64425
G1 X48.365 Y96.672 E14.89649
G1 X44.196 Y97.937 E15.06122
G1 F1080.000 E14.06122
G92 E0
G1 X26.102 Y98.500 F4500.000
G1 F1080.000 E1.00000
G1 X26.637 Y96.733 F1800.000 E1.06982
G1 X27.507 Y95.103 E1.13967
G1 X28.679 Y93.677 E1.20945
G1 X30.107 Y92.505 E1.27930
G1 X31.735 Y91.635 E1.34910
G1 X33.502 Y91.098 E1.41893
G1 X35.902 Y90.862 E1.51009
G1 X35.905 Y90.756 E1.51411
G1 X40.332 Y90.320 E1.68230
G1 X45.131 Y88.863 E1.87191
G1 X49.553 Y86.499 E2.06150
G1 X53.431 Y83.317 E2.25117
G1 X56.611 Y79.439 E2.44078
G1 X58.977 Y75.019 E2.63033
G1 X60.432 Y70.218 E2.82000
G1 X60.923 Y65.227 E3.00962
G1 X60.432 Y60.238 E3.19916
G1 X58.977 Y55.437 E3.38883
G1 X56.611 Y51.015 E3.57845
G1 X53.431 Y47.139 E3.76801
G1 X49.553 Y43.957 E3.95767
