; generated by Slic3r 0.9.3 on 2013-06-30 at 12:09:08

; layer_height = .25
; perimeters = 2
; solid_layers = 2
; fill_density = 0.3
; perimeter_speed = 35
; infill_speed = 60
; travel_speed = 75
; scale = 1
; nozzle_diameter = 0.35
; filament_diameter = 1.8
; extrusion_multiplier = 1
; single wall width = 0.39mm

M107
G92 E0	;reset extruder location
G1 E5	;Prime extruder
G28	;Go Home
;G1 E20	Prime extruder
G90 ; use absolute coordinates
G21 ; set units to millimeters
G92 E0
M82 ; use absolute distances for extrusion
G1 F1080.000 E-2.00000
G92 E0
G1 Z0.250 F4500.000
G1 X32.287 Y34.732
G1 F1080.000 E2.00000
G1 X76.937 Y13.242 F1200.000 E3.87351
G1 X77.467 Y13.042 E3.89493
G1 X79.447 Y12.432 E3.97326
G1 X79.747 Y12.372 E3.98483
G1 X82.237 Y12.132 E4.07941
G1 X82.377 Y12.132 E4.08470
G1 X84.867 Y12.372 E4.17928
G1 X85.167 Y12.432 E4.19085
G1 X87.417 Y13.132 E4.27994
G1 X87.817 Y13.312 E4.29652
G1 X89.507 Y14.212 E4.36892
G1 X89.887 Y14.452 E4.38591
G1 X91.597 Y15.842 E4.46923
G1 X91.917 Y16.142 E4.48581
G1 X93.427 Y17.952 E4.57493
G1 X93.757 Y18.462 E4.59790
G1 X94.657 Y20.152 E4.67029
G1 X94.837 Y20.562 E4.68722
G1 X95.527 Y22.802 E4.77584
G1 X95.587 Y23.092 E4.78704
G1 X95.837 Y25.592 E4.88203
G1 X95.837 Y25.742 E4.88770
G1 X83.767 Y110.822 E8.13667
G1 X83.657 Y111.222 E8.15235
G1 X83.517 Y111.612 E8.16802
G1 X83.427 Y111.802 E8.17597
G1 X83.217 Y112.162 E8.19173
G1 X83.097 Y112.332 E8.19959
G1 X82.687 Y112.802 E8.22318
G1 X82.537 Y112.942 E8.23093
G1 X82.377 Y113.072 E8.23873
G1 X82.207 Y113.192 E8.24660
G1 X81.847 Y113.412 E8.26255
G1 X81.667 Y113.502 E8.27016
G1 X81.277 Y113.662 E8.28609
G1 X81.087 Y113.722 E8.29363
G1 X80.677 Y113.812 E8.30950
G1 X80.467 Y113.842 E8.31752
G1 X80.057 Y113.862 E8.33304
G1 X60.087 Y113.842 E9.08808
G1 X59.877 Y113.812 E9.09610
G1 X59.457 Y113.712 E9.11242
G1 X59.257 Y113.652 E9.12032
G1 X59.057 Y113.572 E9.12846
G1 X58.677 Y113.392 E9.14436
G1 X58.317 Y113.162 E9.16051
G1 X57.987 Y112.902 E9.17639
G1 X31.107 Y85.962 E10.61526
G1 X30.967 Y85.792 E10.62359
G1 X30.727 Y85.452 E10.63932
G1 X30.617 Y85.272 E10.64730
G1 X30.517 Y85.082 E10.65541
G1 X30.357 Y84.692 E10.67135
G1 X30.197 Y84.072 E10.69556
G1 X30.167 Y83.862 E10.70358
G1 X30.167 Y37.722 E12.44807
G1 X30.197 Y37.512 E12.45609
G1 X30.297 Y37.092 E12.47242
G1 X30.357 Y36.892 E12.48031
G1 X30.437 Y36.692 E12.48845
G1 X30.617 Y36.312 E12.50435
G1 X30.847 Y35.952 E12.52050
G1 X31.107 Y35.622 E12.53639
G1 X31.407 Y35.322 E12.55243
G1 X31.567 Y35.182 E12.56047
G1 X31.917 Y34.942 E12.57651
G1 X31.944 Y34.925 E12.57770
G1 X32.107 Y35.282 F4500.000
G1 X32.277 Y35.182 F1200.000 E12.58515
G1 X77.107 Y13.602 E14.46627
G1 X77.587 Y13.412 E14.48579
G1 X79.547 Y12.812 E14.56329
G1 X79.817 Y12.752 E14.57375
G1 X79.947 Y12.732 E14.57872
G1 X82.247 Y12.522 E14.66604
G1 X82.367 Y12.522 E14.67058
G1 X84.667 Y12.732 E14.75790
G1 X84.797 Y12.752 E14.76287
G1 X85.067 Y12.812 E14.77333
G1 X87.277 Y13.492 E14.86075
G1 X87.397 Y13.542 E14.86567
G1 X89.557 Y14.692 E14.95819
G1 X91.547 Y16.322 E15.05544
G1 X91.727 Y16.502 E15.06507
G1 X93.037 Y18.082 E15.14267
G1 X93.197 Y18.302 E15.15295
G1 X93.347 Y18.532 E15.16334
G1 X94.427 Y20.582 E15.25094
G1 X94.477 Y20.702 E15.25586
G1 X95.177 Y23.022 E15.34748
G1 X95.207 Y23.152 E15.35252
G1 X95.227 Y23.282 E15.35750
G1 X95.447 Y25.592 E15.44523
G1 X95.447 Y25.732 E15.45052
G1 X83.417 Y110.562 E18.68992
G1 X83.337 Y110.942 E18.70460
G1 X83.217 Y111.312 E18.71931
G1 X83.057 Y111.662 E18.73386
G1 X82.857 Y111.992 E18.74845
G1 X82.747 Y112.152 E18.75579
G1 X82.487 Y112.442 E18.77052
G1 X82.347 Y112.582 E18.77800
G1 X82.207 Y112.702 E18.78497
G1 X81.887 Y112.932 E18.79987
G1 X81.727 Y113.032 E18.80701
G1 X81.557 Y113.122 E18.81428
G1 X81.197 Y113.272 E18.82902
G1 X81.017 Y113.332 E18.83620
G1 X80.637 Y113.422 E18.85096
G1 X80.447 Y113.452 E18.85824
G1 X80.057 Y113.472 E18.87300
G1 X60.307 Y113.462 E19.61972
G1 X60.097 Y113.442 E19.62770
G1 X59.697 Y113.372 E19.64305
G1 X59.497 Y113.322 E19.65084
G1 X59.117 Y113.172 E19.66629
G1 X58.927 Y113.082 E19.67424
G1 X58.747 Y112.982 E19.68202
G1 X58.577 Y112.872 E19.68968
G1 X58.417 Y112.752 E19.69724
G1 X31.387 Y85.692 E21.14332
G1 X31.257 Y85.532 E21.15112
G1 X31.027 Y85.192 E21.16664
G1 X30.837 Y84.832 E21.18203
G1 X30.687 Y84.452 E21.19748
G1 X30.597 Y84.052 E21.21298
G1 X30.567 Y83.852 E21.22062
G1 X30.537 Y83.442 E21.23617
G1 X30.557 Y37.742 E22.96402
G1 X30.587 Y37.542 E22.97167
G1 X30.627 Y37.352 E22.97901
G1 X30.747 Y36.962 E22.99444
G1 X30.907 Y36.602 E23.00933
G1 X31.107 Y36.252 E23.02457
G1 X31.357 Y35.932 E23.03993
G1 X31.627 Y35.652 E23.05463
G1 X31.787 Y35.511 E23.06268
G1 F1080.000 E21.06268
G92 E0
G1 X79.549 Y25.663 F4500.000
G1 F1080.000 E2.00000
G1 X79.919 Y24.281 F1200.000 E2.06574
G1 X80.930 Y23.269 E2.13148
G1 X82.312 Y22.900 E2.19721
G1 X83.694 Y23.269 E2.26295
G1 X84.705 Y24.281 E2.32869
G1 X85.075 Y25.663 E2.39443
G1 X84.705 Y27.043 E2.46012
G1 X83.694 Y28.054 E2.52583
G1 X82.312 Y28.425 E2.59160
G1 X80.930 Y28.054 E2.65737
G1 X79.919 Y27.043 E2.72308
G1 X79.651 Y26.044 E2.77065
G1 X80.050 Y25.663 F4500.000
G1 X80.353 Y24.531 F1200.000 E2.82448
G1 X81.181 Y23.703 E2.87828
G1 X82.312 Y23.401 E2.93211
G1 X83.443 Y23.703 E2.98593
G1 X84.271 Y24.531 E3.03974
G1 X84.574 Y25.663 E3.09356
G1 X84.271 Y26.793 E3.14734
G1 X83.443 Y27.621 E3.20114
G1 X82.312 Y27.924 E3.25498
G1 X81.181 Y27.621 E3.30882
G1 X80.353 Y26.793 E3.36262
G1 X80.152 Y26.043 E3.39828
G1 F1080.000 E1.39828
G92 E0
G1 X60.996 Y109.605 F4500.000
G1 F1080.000 E2.00000
G1 X60.996 Y87.389 F1200.000 E3.02102
G1 X58.091 Y85.005 E3.19374
G1 X56.493 Y82.967 E3.31278
G1 X34.421 Y82.967 E4.32719
G1 X34.421 Y38.633 E6.36471
G1 X56.494 Y38.633 E7.37916
G1 X58.095 Y36.537 E7.50040
G1 X63.277 Y32.284 E7.80852
G1 X69.200 Y29.117 E8.11722
G1 X73.268 Y27.883 E8.31259
G1 X73.048 Y25.663 E8.41515
G1 X73.227 Y23.856 E8.49860
G1 X73.754 Y22.118 E8.58207
G1 X74.610 Y20.516 E8.66552
G1 X75.762 Y19.112 E8.74901
G1 X77.166 Y17.961 E8.83243
G1 X78.767 Y17.104 E8.91591
G1 X80.505 Y16.577 E8.99936
G1 X82.312 Y16.399 E9.08281
G1 X84.119 Y16.577 E9.16627
G1 X85.857 Y17.104 E9.24972
G1 X87.458 Y17.961 E9.33320
G1 X88.862 Y19.112 E9.41662
G1 X90.014 Y20.516 E9.50010
G1 X90.870 Y22.118 E9.58356
G1 X91.397 Y23.856 E9.66702
G1 X91.576 Y25.662 E9.75048
G1 X91.397 Y27.470 E9.83393
G1 X90.870 Y29.207 E9.91739
G1 X90.014 Y30.809 E10.00084
G1 X88.862 Y32.212 E10.08430
G1 X87.458 Y33.364 E10.16775
G1 X85.857 Y34.220 E10.25120
G1 X84.119 Y34.747 E10.33465
G1 X81.596 Y34.995 E10.45116
G1 X81.593 Y35.103 E10.45609
G1 X77.289 Y35.527 E10.65487
G1 X72.462 Y36.991 E10.88672
G1 X72.006 Y37.235 E10.91046
G1 X72.006 Y37.235 E10.91046
G1 X68.675 Y39.015 E11.08406
G1 X68.528 Y38.945 E11.09153
G1 X64.110 Y42.571 E11.35418
G1 X60.474 Y47.004 E11.61769
G1 X60.545 Y47.154 E11.62536
G1 X58.531 Y50.921 E11.82168
G1 X58.428 Y51.260 E11.83794
G1 X58.428 Y51.260 E11.83794
G1 X57.185 Y55.358 E12.03475
G1 X57.185 Y55.358 E12.03476
G1 X57.066 Y55.751 E12.05362
G1 X56.609 Y60.394 E12.26808
G1 X56.609 Y60.394 E12.26808
G1 X56.572 Y60.773 E12.28554
G1 X57.066 Y65.793 E12.51742
G1 X58.260 Y69.732 E12.70656
G1 X58.054 Y69.732 E12.71603
G1 X60.910 Y75.073 E12.99440
G1 X64.111 Y78.973 E13.22627
G1 X68.528 Y82.599 E13.48891
G1 X68.675 Y82.529 E13.49638
G1 X72.462 Y84.553 E13.69373
G1 X72.550 Y84.579 E13.69795
G1 X72.550 Y84.579 E13.69795
G1 X72.559 Y84.582 E13.69837
G1 X72.559 Y84.582 E13.69837
G1 X77.290 Y86.018 E13.92561
G1 X79.575 Y86.243 E14.03115
G1 X79.575 Y109.605 E15.10483
G1 X61.390 Y109.605 E15.94059
G1 X60.512 Y110.088 F4500.000
G1 X60.512 Y87.618 F1200.000 E16.97333
G1 X57.743 Y85.345 E17.13798
G1 X56.257 Y83.451 E17.24863
G1 X33.937 Y83.451 E18.27445
G1 X33.937 Y38.150 E20.35646
G1 X56.254 Y38.150 E21.38215
G1 X57.744 Y36.198 E21.49498
G1 X63.007 Y31.879 E21.80786
G1 X69.014 Y28.668 E22.12095
G1 X72.748 Y27.536 E22.30025
G1 X72.562 Y25.663 E22.38675
G1 X72.750 Y23.761 E22.47459
G1 X73.305 Y21.932 E22.56243
G1 X74.206 Y20.246 E22.65026
G1 X75.419 Y18.768 E22.73813
G1 X76.896 Y17.556 E22.82593
G1 X78.581 Y16.655 E22.91379
G1 X80.410 Y16.100 E23.00162
G1 X82.312 Y15.913 E23.08946
G1 X84.214 Y16.100 E23.17730
G1 X86.043 Y16.655 E23.26513
G1 X87.728 Y17.556 E23.35299
G1 X89.205 Y18.768 E23.44079
G1 X90.418 Y20.246 E23.52866
G1 X91.319 Y21.932 E23.61649
G1 X91.874 Y23.761 E23.70433
G1 X92.062 Y25.663 E23.79217
G1 X91.874 Y27.564 E23.88001
G1 X91.319 Y29.393 E23.96785
G1 X90.418 Y31.079 E24.05568
G1 X89.205 Y32.556 E24.14351
G1 X87.728 Y33.769 E24.23134
G1 X86.043 Y34.669 E24.31918
G1 X84.214 Y35.224 E24.40701
G1 X82.068 Y35.435 E24.50611
G1 X82.065 Y35.543 E24.51104
G1 X77.385 Y36.003 E24.72720
G1 X72.648 Y37.440 E24.95470
G1 X68.688 Y39.556 E25.16105
G1 X68.598 Y39.514 E25.16562
G1 X64.454 Y42.915 E25.41199
G1 X61.042 Y47.074 E25.65923
G1 X61.086 Y47.168 E25.66402
G1 X58.980 Y51.107 E25.86934
G1 X57.543 Y55.845 E26.09690
G1 X57.058 Y60.773 E26.32444
G1 X57.543 Y65.699 E26.55193
G1 X58.913 Y70.216 E26.76887
G1 X58.862 Y70.216 E26.77122
G1 X61.314 Y74.803 E27.01029
G1 X64.454 Y78.629 E27.23778
G1 X68.598 Y82.030 E27.48415
G1 X68.688 Y81.988 E27.48873
G1 X72.648 Y84.104 E27.69508
G1 X77.385 Y85.541 E27.92259
G1 X80.059 Y85.805 E28.04608
G1 X80.059 Y110.088 E29.16216
G1 X60.906 Y110.088 E30.04240
G1 X61.544 Y109.515 F4500.000
G1 X61.544 Y76.214 F1200.000 E31.57418
G1 X62.028 Y76.804 F4500.000
G1 X62.028 Y109.515 F1200.000 E33.07880
G1 X62.513 Y109.515 F4500.000
G1 X62.513 Y77.394 F1200.000 E34.55629
G1 X62.997 Y77.985 F4500.000
G1 X62.997 Y109.515 F1200.000 E36.00662
G1 X63.481 Y109.515 F4500.000
G1 X63.481 Y78.575 F1200.000 E37.42982
G1 X63.966 Y79.086 F4500.000
G1 X63.966 Y109.515 F1200.000 E38.82951
G1 X64.450 Y109.515 F4500.000
G1 X64.450 Y79.483 F1200.000 E40.21090
G1 X64.935 Y79.881 F4500.000
G1 X64.935 Y109.515 F1200.000 E41.57402
G1 X65.419 Y109.515 F4500.000
G1 X65.419 Y80.278 F1200.000 E42.91885
G1 X65.903 Y80.676 F4500.000
G1 X65.903 Y109.515 F1200.000 E44.24539
G1 X66.388 Y109.515 F4500.000
G1 X66.388 Y81.073 F1200.000 E45.55364
G1 X66.872 Y81.471 F4500.000
G1 X66.872 Y109.515 F1200.000 E46.84361
G1 X67.356 Y109.515 F4500.000
G1 X67.356 Y81.869 F1200.000 E48.11529
G1 X67.841 Y82.266 F4500.000
G1 X67.841 Y109.515 F1200.000 E49.36869
G1 X68.325 Y109.515 F4500.000
G1 X68.325 Y82.664 F1200.000 E50.60380
G1 X68.809 Y82.755 F4500.000
G1 X68.809 Y109.515 F1200.000 E51.83469
G1 X69.294 Y109.515 F4500.000
G1 X69.294 Y83.014 F1200.000 E53.05368
G1 X69.778 Y83.273 F4500.000
G1 X69.778 Y109.515 F1200.000 E54.26077
G1 X70.262 Y109.515 F4500.000
G1 X70.262 Y83.532 F1200.000 E55.45595
G1 X70.747 Y83.791 F4500.000
G1 X70.747 Y109.515 F1200.000 E56.63922
G1 X71.231 Y109.515 F4500.000
G1 X71.231 Y84.049 F1200.000 E57.81059
G1 X71.715 Y84.308 F4500.000
G1 X71.715 Y109.515 F1200.000 E58.97006
G1 X72.200 Y109.515 F4500.000
G1 X72.200 Y84.585 F1200.000 E60.11681
G1 X72.684 Y84.731 F4500.000
G1 X72.684 Y109.515 F1200.000 E61.25680
G1 X73.168 Y109.515 F4500.000
G1 X73.168 Y84.878 F1200.000 E62.39003
G1 X73.653 Y85.025 F4500.000
G1 X73.653 Y109.515 F1200.000 E63.51651
G1 X74.137 Y109.515 F4500.000
G1 X74.137 Y85.172 F1200.000 E64.63622
G1 X74.622 Y85.319 F4500.000
G1 X74.622 Y109.515 F1200.000 E65.74917
G1 X75.106 Y109.515 F4500.000
G1 X75.106 Y85.466 F1200.000 E66.85537
G1 X75.590 Y85.613 F4500.000
G1 X75.590 Y109.515 F1200.000 E67.95480
G1 X76.075 Y109.515 F4500.000
G1 X76.075 Y85.760 F1200.000 E69.04747
G1 X76.559 Y85.907 F4500.000
G1 X76.559 Y109.515 F1200.000 E70.13339
G1 X77.043 Y109.515 F4500.000
G1 X77.043 Y86.054 F1200.000 E71.21255
G1 X77.528 Y86.133 F4500.000
G1 X77.528 Y109.515 F1200.000 E72.28807
G1 X78.012 Y109.515 F4500.000
G1 X78.012 Y86.181 F1200.000 E73.36140
G1 X78.496 Y86.228 F4500.000
G1 X78.496 Y109.515 F1200.000 E74.43254
G1 X78.981 Y109.515 F4500.000
G1 X78.981 Y86.276 F1200.000 E75.50147
G1 F1080.000 E73.50147
G92 E0
G1 X61.060 Y87.210 F4500.000
G1 F1080.000 E2.00000
G1 X61.060 Y75.624 F1200.000 E2.53292
G1 F1080.000 E0.53292
G92 E0
G1 X56.701 Y82.877 F4500.000
G1 F1080.000 E2.00000
G1 X56.701 Y65.862 F1200.000 E2.78266
G1 F1080.000 E0.78266
G92 E0
G1 X56.216 Y61.707 F4500.000
G1 F1080.000 E2.00000
G1 X56.216 Y82.877 F1200.000 E2.97379
G1 X55.732 Y82.877 F4500.000
G1 X55.732 Y38.723 F1200.000 E5.00480
G1 X55.248 Y38.723 F4500.000
G1 X55.248 Y82.877 F1200.000 E7.03580
G1 X54.763 Y82.877 F4500.000
G1 X54.763 Y38.723 F1200.000 E9.06681
G1 X54.279 Y38.723 F4500.000
G1 X54.279 Y82.877 F1200.000 E11.09781
G1 X53.794 Y82.877 F4500.000
G1 X53.794 Y38.723 F1200.000 E13.12881
G1 X53.310 Y38.723 F4500.000
G1 X53.310 Y82.877 F1200.000 E15.15982
G1 X52.826 Y82.877 F4500.000
G1 X52.826 Y38.723 F1200.000 E17.19082
G1 X52.341 Y38.723 F4500.000
G1 X52.341 Y82.877 F1200.000 E19.22183
G1 X51.857 Y82.877 F4500.000
G1 X51.857 Y38.723 F1200.000 E21.25283
G1 X51.373 Y38.723 F4500.000
G1 X51.373 Y82.877 F1200.000 E23.28383
G1 X50.888 Y82.877 F4500.000
G1 X50.888 Y38.723 F1200.000 E25.31484
G1 X50.404 Y38.723 F4500.000
G1 X50.404 Y82.877 F1200.000 E27.34584
G1 X49.920 Y82.877 F4500.000
G1 X49.920 Y38.723 F1200.000 E29.37685
G1 X49.435 Y38.723 F4500.000
G1 X49.435 Y82.877 F1200.000 E31.40785
G1 X48.951 Y82.877 F4500.000
G1 X48.951 Y38.723 F1200.000 E33.43885
G1 X48.467 Y38.723 F4500.000
G1 X48.467 Y82.877 F1200.000 E35.46986
G1 X47.982 Y82.877 F4500.000
G1 X47.982 Y38.723 F1200.000 E37.50086
G1 X47.498 Y38.723 F4500.000
G1 X47.498 Y82.877 F1200.000 E39.53187
G1 X47.014 Y82.877 F4500.000
G1 X47.014 Y38.723 F1200.000 E41.56287
G1 X46.529 Y38.723 F4500.000
G1 X46.529 Y82.877 F1200.000 E43.59387
G1 X46.045 Y82.877 F4500.000
G1 X46.045 Y38.723 F1200.000 E45.62488
G1 X45.561 Y38.723 F4500.000
G1 X45.561 Y82.877 F1200.000 E47.65588
G1 X45.076 Y82.877 F4500.000
G1 X45.076 Y38.723 F1200.000 E49.68689
G1 X44.592 Y38.723 F4500.000
G1 X44.592 Y82.877 F1200.000 E51.71789
G1 X44.107 Y82.877 F4500.000
G1 X44.107 Y38.723 F1200.000 E53.74889
G1 X43.623 Y38.723 F4500.000
G1 X43.623 Y82.877 F1200.000 E55.77990
G1 X43.139 Y82.877 F4500.000
G1 X43.139 Y38.723 F1200.000 E57.81090
G1 X42.654 Y38.723 F4500.000
G1 X42.654 Y82.877 F1200.000 E59.84191
G1 X42.170 Y82.877 F4500.000
G1 X42.170 Y38.723 F1200.000 E61.87291
G1 X41.686 Y38.723 F4500.000
G1 X41.686 Y82.877 F1200.000 E63.90391
G1 X41.201 Y82.877 F4500.000
G1 X41.201 Y38.723 F1200.000 E65.93492
G1 X40.717 Y38.723 F4500.000
G1 X40.717 Y82.877 F1200.000 E67.96592
G1 X40.233 Y82.877 F4500.000
G1 X40.233 Y38.723 F1200.000 E69.99692
G1 X39.748 Y38.723 F4500.000
G1 X39.748 Y82.877 F1200.000 E72.02793
G1 X39.264 Y82.877 F4500.000
G1 X39.264 Y38.723 F1200.000 E74.05893
G1 X38.780 Y38.723 F4500.000
G1 X38.780 Y82.877 F1200.000 E76.08994
G1 X38.295 Y82.877 F4500.000
G1 X38.295 Y38.723 F1200.000 E78.12094
G1 X37.811 Y38.723 F4500.000
G1 X37.811 Y82.877 F1200.000 E80.15194
G1 X37.327 Y82.877 F4500.000
G1 X37.327 Y38.723 F1200.000 E82.18295
G1 X36.842 Y38.723 F4500.000
G1 X36.842 Y82.877 F1200.000 E84.21395
G1 X36.358 Y82.877 F4500.000
G1 X36.358 Y38.723 F1200.000 E86.24496
G1 X35.874 Y38.723 F4500.000
G1 X35.874 Y82.877 F1200.000 E88.27596
G1 X35.389 Y82.877 F4500.000
G1 X35.389 Y38.723 F1200.000 E90.30696
G1 X34.905 Y38.723 F4500.000
G1 X34.905 Y82.877 F1200.000 E92.33797
G1 F1080.000 E90.33797
G92 E0
G1 X57.185 Y83.460 F4500.000
G1 F1080.000 E2.00000
G1 X57.185 Y67.459 F1200.000 E2.73602
G1 X57.669 Y69.643 E2.83895
G1 X57.669 Y84.078 E3.50291
G1 X58.154 Y84.696 F4500.000
G1 X58.154 Y70.549 F1200.000 E4.15361
G1 X58.638 Y71.455 E4.20087
G1 X58.638 Y85.223 E4.83414
G1 X59.122 Y85.620 F4500.000
