; generated by Slic3r 0.9.3 on 2013-06-09 at 19:06:01

; layer_height = .25
; perimeters = 3
; solid_layers = 2
; fill_density = 0.3
; perimeter_speed = 30
; infill_speed = 60
; travel_speed = 75
; scale = 1
; nozzle_diameter = 0.35
; filament_diameter = 1.8
; extrusion_multiplier = 1
; single wall width = 0.39mm

M107
G92 E0	;reset extruder location
G1 E5	;Prime extruder
G28	;Go Home
;G1 E20	Prime extruder
G90 ; use absolute coordinates
G21 ; set units to millimeters
G92 E0
M82 ; use absolute distances for extrusion
G1 F1080.000 E-1.00000
G92 E0
G1 Z0.250 F4500.000
G1 X29.480 Y29.110
G1 F1080.000 E1.00000
G1 X29.820 Y28.900 F1200.000 E1.01511
G1 X33.870 Y27.200 E1.18118
G1 X34.010 Y27.160 E1.18668
G1 X34.150 Y27.110 E1.19230
G1 X34.300 Y27.080 E1.19809
G1 X34.440 Y27.040 E1.20359
G1 X38.500 Y26.500 E1.35845
G1 X38.990 Y26.470 E1.37701
G1 X86.990 Y26.470 E3.19182
G1 X87.480 Y26.500 E3.21038
G1 X91.500 Y27.030 E3.36369
G1 X91.690 Y27.070 E3.37103
G1 X92.070 Y27.190 E3.38610
G1 X96.000 Y28.810 E3.54681
G1 X96.180 Y28.900 E3.55442
G1 X96.520 Y29.110 E3.56953
G1 X98.220 Y30.430 E3.65091
G1 X98.380 Y30.570 E3.65895
G1 X98.670 Y30.890 E3.67527
G1 X98.800 Y31.060 E3.68336
G1 X99.030 Y31.420 E3.69952
G1 X99.220 Y31.810 E3.71592
G1 X99.300 Y32.010 E3.72406
G1 X99.370 Y32.220 E3.73243
G1 X99.460 Y32.640 E3.74867
G1 X99.510 Y33.060 E3.76466
G1 X99.510 Y56.930 E4.66716
G1 X99.460 Y57.370 E4.68390
G1 X99.420 Y57.590 E4.69235
G1 X99.290 Y58.020 E4.70934
G1 X99.110 Y58.420 E4.72592
G1 X99.000 Y58.620 E4.73455
G1 X74.750 Y95.010 E6.38792
G1 X74.590 Y95.200 E6.39731
G1 X74.420 Y95.380 E6.40667
G1 X74.240 Y95.550 E6.41603
G1 X72.670 Y96.770 E6.49120
G1 X72.340 Y96.990 E6.50620
G1 X72.170 Y97.090 E6.51366
G1 X68.070 Y98.800 E6.68161
G1 X67.690 Y98.920 E6.69668
G1 X67.500 Y98.960 E6.70402
G1 X63.280 Y99.510 E6.86492
G1 X63.090 Y99.520 E6.87212
G1 X62.690 Y99.510 E6.88725
G1 X58.490 Y98.960 E7.04740
G1 X58.300 Y98.920 E7.05474
G1 X57.920 Y98.800 E7.06981
G1 X53.990 Y97.180 E7.23052
G1 X53.810 Y97.090 E7.23813
G1 X53.470 Y96.880 E7.25324
G1 X51.750 Y95.540 E7.33568
G1 X51.400 Y95.200 E7.35413
G1 X51.250 Y95.010 E7.36328
G1 X26.980 Y58.620 E9.01706
G1 X26.870 Y58.420 E9.02569
G1 X26.690 Y58.020 E9.04228
G1 X26.620 Y57.810 E9.05065
G1 X26.560 Y57.590 E9.05927
G1 X26.490 Y57.150 E9.07611
G1 X26.460 Y56.710 E9.09279
G1 X26.470 Y33.060 E9.98696
G1 X26.520 Y32.630 E10.00333
G1 X26.610 Y32.210 E10.01957
G1 X26.760 Y31.810 E10.03572
G1 X26.850 Y31.610 E10.04401
G1 X27.060 Y31.230 E10.06043
G1 X27.320 Y30.880 E10.07691
G1 X27.460 Y30.720 E10.08495
G1 X27.770 Y30.420 E10.10126
G1 X29.161 Y29.342 E10.16781
G1 X29.560 Y29.530 F4500.000
G1 X29.850 Y29.330 F1200.000 E10.18112
G1 X30.000 Y29.240 E10.18774
G1 X30.160 Y29.160 E10.19450
G1 X34.010 Y27.570 E10.35199
G1 X34.390 Y27.450 E10.36706
G1 X38.550 Y26.890 E10.52576
G1 X38.990 Y26.860 E10.54243
G1 X86.990 Y26.860 E12.35725
G1 X87.430 Y26.890 E12.37392
G1 X91.600 Y27.450 E12.53300
G1 X91.940 Y27.550 E12.54640
G1 X95.830 Y29.160 E12.70557
G1 X96.150 Y29.330 E12.71927
G1 X96.300 Y29.430 E12.72609
G1 X97.970 Y30.730 E12.80611
G1 X98.270 Y31.020 E12.82188
G1 X98.520 Y31.340 E12.83724
G1 X98.740 Y31.700 E12.85319
G1 X98.830 Y31.880 E12.86080
G1 X98.910 Y32.070 E12.86859
G1 X99.030 Y32.460 E12.88402
G1 X99.070 Y32.660 E12.89173
G1 X99.120 Y33.070 E12.90735
G1 X99.120 Y56.930 E13.80946
G1 X99.100 Y57.150 E13.81781
G1 X99.010 Y57.590 E13.83479
G1 X98.950 Y57.800 E13.84305
G1 X98.780 Y58.210 E13.85983
G1 X98.680 Y58.400 E13.86795
G1 X74.440 Y94.770 E15.52047
G1 X74.300 Y94.940 E15.52880
G1 X73.990 Y95.260 E15.54565
G1 X72.290 Y96.560 E15.62656
G1 X71.990 Y96.750 E15.63999
G1 X71.830 Y96.830 E15.64675
G1 X67.940 Y98.440 E15.80592
G1 X67.600 Y98.540 E15.81932
G1 X63.250 Y99.120 E15.98525
G1 X63.080 Y99.130 E15.99169
G1 X62.900 Y99.130 E15.99849
G1 X62.720 Y99.120 E16.00531
G1 X58.390 Y98.540 E16.17048
G1 X58.050 Y98.440 E16.18388
G1 X54.160 Y96.830 E16.34305
G1 X53.840 Y96.660 E16.35675
G1 X53.690 Y96.560 E16.36357
G1 X52.010 Y95.250 E16.44412
G1 X51.850 Y95.100 E16.45241
G1 X51.700 Y94.940 E16.46070
G1 X51.560 Y94.770 E16.46903
G1 X27.300 Y58.400 E18.12197
G1 X27.200 Y58.210 E18.13009
G1 X27.110 Y58.010 E18.13838
G1 X27.030 Y57.800 E18.14688
G1 X26.970 Y57.590 E18.15514
G1 X26.880 Y57.150 E18.17212
G1 X26.850 Y56.710 E18.18879
G1 X26.860 Y33.070 E19.08259
G1 X26.910 Y32.660 E19.09820
G1 X26.950 Y32.460 E19.10592
G1 X27.010 Y32.260 E19.11381
G1 X27.160 Y31.880 E19.12926
G1 X27.250 Y31.690 E19.13721
G1 X27.350 Y31.510 E19.14499
G1 X27.460 Y31.340 E19.15265
G1 X27.720 Y31.010 E19.16853
G1 X27.860 Y30.860 E19.17629
G1 X29.247 Y29.770 E19.24299
G1 F1080.000 E18.24299
G92 E0
G1 X60.010 Y38.064 F4500.000
G1 F1080.000 E1.00000
G1 X60.886 Y37.392 F1200.000 E1.05073
G1 X61.906 Y36.969 E1.10146
G1 X62.403 Y36.904 E1.12450
G1 X62.403 Y36.904 E1.12450
G1 X63.000 Y36.825 E1.15219
G1 X64.094 Y36.969 E1.20292
G1 X65.114 Y37.392 E1.25365
G1 X65.990 Y38.064 E1.30438
G1 X66.662 Y38.939 E1.35512
G1 X67.084 Y39.959 E1.40585
G1 X67.228 Y41.054 E1.45658
G1 X67.193 Y41.321 E1.46896
G1 X67.427 Y41.321 E1.47970
G1 X67.085 Y42.146 E1.52075
G1 X67.085 Y42.146 E1.52075
G1 X66.662 Y43.168 E1.57158
G1 X65.990 Y44.043 E1.62231
G1 X65.114 Y44.715 E1.67305
G1 X64.668 Y44.900 E1.69524
G1 X64.668 Y45.100 E1.70442
G1 X65.114 Y45.285 E1.72661
G1 X65.990 Y45.957 E1.77734
G1 X66.662 Y46.832 E1.82808
G1 X67.071 Y47.819 E1.87717
G1 X67.080 Y47.819 E1.87760
G1 X67.084 Y47.854 E1.87919
G1 X67.084 Y47.854 E1.87919
G1 X67.228 Y48.946 E1.92985
G1 X67.084 Y50.041 E1.98058
G1 X66.662 Y51.061 E2.03131
G1 X65.990 Y51.936 E2.08204
G1 X65.256 Y52.500 E2.12456
G1 X65.256 Y52.500 E2.12456
G1 X65.114 Y52.608 E2.13278
G1 X64.094 Y53.031 E2.18351
G1 X62.083 Y53.296 E2.27676
G1 X62.083 Y53.054 E2.28786
G1 X61.241 Y52.943 E2.32689
G1 X61.241 Y52.755 E2.33552
G1 X60.886 Y52.608 E2.35318
G1 X60.010 Y51.936 E2.40391
G1 X59.338 Y51.061 E2.45464
G1 X58.916 Y50.041 E2.50537
G1 X58.772 Y48.946 E2.55610
G1 X58.915 Y47.855 E2.60668
G1 X58.915 Y47.855 E2.60668
G1 X59.032 Y46.971 E2.64768
G1 X59.281 Y46.971 E2.65913
G1 X59.338 Y46.832 E2.66602
G1 X60.010 Y45.957 E2.71675
G1 X60.886 Y45.285 E2.76748
G1 X61.332 Y45.100 E2.78968
G1 X61.332 Y44.900 E2.79885
G1 X60.886 Y44.715 E2.82105
G1 X60.010 Y44.043 E2.87178
G1 X59.338 Y43.168 E2.92250
G1 X58.916 Y42.148 E2.97324
G1 X58.772 Y41.054 E3.02397
G1 X58.916 Y39.959 E3.07470
G1 X59.063 Y39.604 E3.09238
G1 X58.930 Y39.471 E3.10101
G1 X59.770 Y38.377 E3.16441
G1 X60.355 Y38.409 F4500.000
G1 X61.130 Y37.814 F1200.000 E3.20929
G1 X62.032 Y37.441 E3.25416
G1 X62.886 Y37.328 E3.29377
G1 X62.886 Y37.328 E3.29377
G1 X63.000 Y37.313 E3.29904
G1 X63.968 Y37.441 E3.34391
G1 X64.870 Y37.814 E3.38878
G1 X65.645 Y38.409 E3.43366
G1 X66.239 Y39.183 E3.47854
G1 X66.613 Y40.085 E3.52341
G1 X66.740 Y41.054 E3.56828
G1 X66.641 Y41.805 E3.60310
G1 X66.703 Y41.805 E3.60592
G1 X66.613 Y42.021 E3.61669
G1 X66.613 Y42.021 E3.61669
G1 X66.239 Y42.924 E3.66159
G1 X65.645 Y43.698 E3.70646
G1 X64.870 Y44.293 E3.75134
G1 X63.968 Y44.666 E3.79621
G1 X62.835 Y44.816 E3.84874
G1 X62.835 Y45.184 E3.86570
G1 X63.968 Y45.334 E3.91822
G1 X64.870 Y45.707 E3.96310
G1 X65.645 Y46.302 E4.00797
G1 X66.239 Y47.076 E4.05285
G1 X66.613 Y47.978 E4.09772
G1 X66.656 Y48.303 E4.11278
G1 X66.656 Y48.303 E4.11278
G1 X66.740 Y48.946 E4.14260
G1 X66.613 Y49.915 E4.18747
G1 X66.239 Y50.817 E4.23235
G1 X65.645 Y51.591 E4.27722
G1 X64.870 Y52.186 E4.32210
G1 X63.968 Y52.559 E4.36697
G1 X62.566 Y52.744 E4.43194
G1 X62.566 Y52.630 E4.43719
G1 X61.725 Y52.519 E4.47621
G1 X61.725 Y52.432 E4.48020
G1 X61.130 Y52.186 E4.50979
G1 X60.355 Y51.591 E4.55466
G1 X59.761 Y50.817 E4.59954
G1 X59.387 Y49.914 E4.64441
G1 X59.260 Y48.946 E4.68929
G1 X59.387 Y47.981 E4.73405
G1 X59.387 Y47.981 E4.73405
G1 X59.456 Y47.455 E4.75844
G1 X59.604 Y47.455 E4.76524
G1 X59.761 Y47.076 E4.78406
G1 X60.355 Y46.302 E4.82894
G1 X61.130 Y45.707 E4.87382
G1 X61.926 Y45.378 E4.91342
G1 X61.926 Y45.378 E4.91342
G1 X62.032 Y45.334 E4.91869
G1 X62.566 Y45.263 E4.94347
G1 X62.566 Y44.737 E4.96767
G1 X61.725 Y44.626 E5.00669
G1 X61.725 Y44.539 E5.01068
G1 X61.130 Y44.293 E5.04027
G1 X60.355 Y43.698 E5.08515
G1 X59.761 Y42.924 E5.13002
G1 X59.387 Y42.022 E5.17490
G1 X59.260 Y41.054 E5.21977
G1 X59.387 Y40.085 E5.26464
G1 X59.634 Y39.490 E5.29426
G1 X59.572 Y39.429 E5.29824
G1 X60.115 Y38.722 E5.33921
G1 X60.700 Y38.754 F4500.000
G1 X61.374 Y38.237 F1200.000 E5.37823
G1 X62.158 Y37.912 E5.41725
G1 X63.000 Y37.801 E5.45627
G1 X63.842 Y37.912 E5.49529
G1 X64.626 Y38.237 E5.53431
G1 X65.300 Y38.754 E5.57333
G1 X65.816 Y39.427 E5.61234
G1 X66.141 Y40.212 E5.65136
G1 X66.252 Y41.054 E5.69038
G1 X66.141 Y41.895 E5.72940
G1 X65.978 Y42.288 E5.74896
G1 X65.978 Y42.288 E5.74896
G1 X65.816 Y42.680 E5.76842
G1 X65.300 Y43.353 E5.80744
G1 X64.626 Y43.870 E5.84646
G1 X63.842 Y44.195 E5.88548
G1 X63.050 Y44.299 E5.92216
G1 X63.050 Y44.299 E5.92216
G1 X63.000 Y44.306 E5.92450
G1 X62.209 Y44.201 E5.96118
G1 X62.209 Y44.201 E5.96118
G1 X62.158 Y44.195 E5.96351
G1 X61.374 Y43.870 E6.00253
G1 X61.102 Y43.662 E6.01827
G1 X61.102 Y43.662 E6.01827
G1 X60.700 Y43.353 E6.04155
G1 X60.184 Y42.680 E6.08057
G1 X59.859 Y41.895 E6.11959
G1 X59.748 Y41.054 E6.15861
G1 X59.859 Y40.212 E6.19763
G1 X60.184 Y39.427 E6.23665
G1 X60.215 Y39.387 E6.23900
G1 X60.215 Y39.387 E6.23900
G1 X60.460 Y39.067 E6.25754
G1 F1080.000 E5.25754
G92 E0
G1 X62.158 Y45.805 F4500.000
G1 F1080.000 E1.00000
G1 X63.000 Y45.694 F1200.000 E1.03902
G1 X63.842 Y45.805 E1.07804
G1 X64.626 Y46.130 E1.11706
G1 X65.300 Y46.647 E1.15607
G1 X65.816 Y47.320 E1.19509
G1 X66.141 Y48.105 E1.23411
G1 X66.252 Y48.946 E1.27313
G1 X66.141 Y49.788 E1.31215
G1 X65.816 Y50.573 E1.35117
G1 X65.300 Y51.246 E1.39019
G1 X64.626 Y51.763 E1.42921
G1 X63.842 Y52.088 E1.46823
G1 X63.050 Y52.192 E1.50491
G1 X63.050 Y52.192 E1.50491
G1 X63.000 Y52.199 E1.50724
G1 X62.209 Y52.094 E1.54393
G1 X62.209 Y52.094 E1.54393
G1 X62.158 Y52.088 E1.54626
G1 X61.374 Y51.763 E1.58528
G1 X61.110 Y51.560 E1.60057
G1 X61.110 Y51.560 E1.60057
G1 X60.700 Y51.246 E1.62430
G1 X60.184 Y50.573 E1.66332
G1 X59.859 Y49.788 E1.70234
G1 X59.748 Y48.946 E1.74136
G1 X59.859 Y48.105 E1.78034
G1 X59.859 Y48.105 E1.78034
G1 X59.881 Y47.939 E1.78807
G1 X59.927 Y47.939 E1.79023
G1 X60.184 Y47.320 E1.82099
G1 X60.700 Y46.647 E1.86001
G1 X61.374 Y46.130 E1.89903
G1 X61.794 Y45.956 E1.91992
G1 F1080.000 E0.91992
G92 E0
G1 X56.114 Y33.073 F4500.000
G1 F1080.000 E1.00000
G1 X59.436 Y31.698 F1200.000 E1.16523
G1 X63.000 Y31.228 E1.33046
G1 X66.564 Y31.698 E1.49569
G1 X69.886 Y33.073 E1.66092
G1 X70.782 Y33.761 E1.71285
G1 X70.782 Y56.239 E2.74591
G1 X69.886 Y56.927 E2.79783
G1 X66.564 Y58.302 E2.96306
G1 X63.000 Y58.772 E3.12829
G1 X59.436 Y58.302 E3.29352
G1 X56.114 Y56.927 E3.45875
G1 X55.218 Y56.239 E3.51068
G1 X55.218 Y33.761 E4.54374
G1 X55.801 Y33.313 E4.57754
G1 X55.870 Y32.651 F4500.000
G1 X59.309 Y31.226 F1200.000 E4.74863
G1 X63.000 Y30.740 E4.91971
G1 X66.691 Y31.226 E5.09080
G1 X70.130 Y32.651 E5.26188
G1 X71.266 Y33.523 E5.32771
G1 X71.266 Y56.477 E6.38270
G1 X70.130 Y57.349 E6.44852
G1 X66.691 Y58.774 E6.61961
G1 X63.000 Y59.260 E6.79069
G1 X59.309 Y58.774 E6.96178
G1 X55.870 Y57.349 E7.13287
G1 X54.734 Y56.477 E7.19869
G1 X54.734 Y33.523 E8.25368
G1 X55.557 Y32.891 E8.30138
G1 X55.626 Y32.228 F4500.000
G1 X59.183 Y30.755 F1200.000 E8.47832
G1 X63.000 Y30.252 E8.65526
G1 X66.817 Y30.755 E8.83220
G1 X70.374 Y32.228 E9.00915
G1 X71.750 Y33.284 E9.08886
G1 X71.750 Y56.716 E10.16579
G1 X70.374 Y57.772 E10.24551
G1 X66.817 Y59.245 E10.42245
G1 X63.000 Y59.748 E10.59939
G1 X62.936 Y59.739 E10.60238
G1 X62.936 Y59.739 E10.60238
G1 X59.183 Y59.245 E10.77634
G1 X55.626 Y57.772 E10.95328
G1 X54.250 Y56.716 E11.03300
G1 X54.250 Y33.284 E12.10993
G1 X55.313 Y32.468 E12.17152
G1 X56.188 Y33.232 F4500.000
G1 X56.188 Y56.768 F1200.000 E13.25861
G1 X56.675 Y57.030 F4500.000
G1 X56.675 Y32.970 F1200.000 E14.36986
G1 X57.161 Y32.769 F4500.000
G1 X57.161 Y57.231 F1200.000 E15.49973
G1 X57.648 Y57.433 F4500.000
G1 X57.648 Y32.567 F1200.000 E16.64822
G1 X58.134 Y32.366 F4500.000
G1 X58.134 Y57.634 F1200.000 E17.81532
G1 X58.621 Y57.836 F4500.000
G1 X58.621 Y50.199 F1200.000 E18.16804
G1 X59.108 Y51.160 E18.21780
G1 X59.108 Y58.037 E18.53543
G1 X59.594 Y58.230 F4500.000
G1 X59.594 Y51.795 F1200.000 E18.83266
G1 X60.081 Y52.206 F4500.000
G1 X60.081 Y58.294 F1200.000 E19.11385
G1 X60.567 Y58.358 F4500.000
G1 X60.567 Y52.579 F1200.000 E19.38074
G1 X61.054 Y53.012 F4500.000
G1 X61.054 Y58.422 F1200.000 E19.63061
G1 X61.540 Y58.486 F4500.000
G1 X61.540 Y53.076 F1200.000 E19.88047
G1 X62.027 Y53.397 F4500.000
G1 X62.027 Y58.550 F1200.000 E20.11850
G1 X62.513 Y58.614 F4500.000
G1 X62.513 Y53.332 F1200.000 E20.36245
G1 X63.000 Y53.268 F4500.000
G1 X63.000 Y58.678 F1200.000 E20.61231
G1 X63.487 Y58.614 F4500.000
G1 X63.487 Y53.204 F1200.000 E20.86218
G1 X63.973 Y53.140 F4500.000
G1 X63.973 Y58.550 F1200.000 E21.11205
G1 X64.460 Y58.486 F4500.000
G1 X64.460 Y53.009 F1200.000 E21.36503
G1 X64.946 Y52.807 F4500.000
G1 X64.946 Y58.422 F1200.000 E21.62437
G1 X65.433 Y58.358 F4500.000
G1 X65.433 Y52.579 F1200.000 E21.89127
G1 X65.919 Y52.206 F4500.000
G1 X65.919 Y58.294 F1200.000 E22.17246
G1 X66.406 Y58.230 F4500.000
G1 X66.406 Y51.795 F1200.000 E22.46968
G1 X66.892 Y51.160 E22.50660
G1 X66.892 Y58.037 E22.82423
G1 X67.379 Y57.836 F4500.000
G1 X67.379 Y50.199 F1200.000 E23.17695
G1 F1080.000 E22.17695
G92 E0
G1 X67.379 Y47.694 F4500.000
G1 F1080.000 E1.00000
G1 X67.379 Y42.306 F1200.000 E1.24885
G1 X66.892 Y43.267 E1.29862
G1 X66.892 Y46.732 E1.45866
G1 X66.406 Y46.098 E1.49557
G1 X66.406 Y43.902 E1.59704
G1 X65.919 Y44.313 F4500.000
G1 X65.919 Y45.687 F1200.000 E1.66051
G1 F1080.000 E0.66051
G92 E0
G1 X67.866 Y41.231 F4500.000
G1 F1080.000 E1.00000
G1 X67.866 Y32.366 F1200.000 E1.40948
G1 X68.352 Y32.567 F4500.000
G1 X68.352 Y57.433 F1200.000 E2.55797
G1 X67.866 Y57.634 F4500.000
G1 X67.866 Y41.132 F1200.000 E3.32020
G1 X67.379 Y39.801 E3.38564
G1 X67.379 Y32.164 E3.73836
G1 X66.892 Y31.963 F4500.000
G1 X66.892 Y38.840 F1200.000 E4.05599
G1 X66.406 Y38.205 E4.09290
G1 X66.406 Y31.770 E4.39013
G1 X65.919 Y31.706 F4500.000
G1 X65.919 Y37.794 F1200.000 E4.67132
G1 X65.433 Y37.421 F4500.000
G1 X65.433 Y31.642 F1200.000 E4.93822
G1 X64.946 Y31.578 F4500.000
G1 X64.946 Y37.193 F1200.000 E5.19756
G1 X64.460 Y36.991 F4500.000
G1 X64.460 Y31.514 F1200.000 E5.45054
G1 X63.973 Y31.450 F4500.000
G1 X63.973 Y36.860 F1200.000 E5.70040
G1 X63.487 Y36.796 F4500.000
G1 X63.487 Y31.386 F1200.000 E5.95027
G1 X63.000 Y31.322 F4500.000
G1 X63.000 Y36.732 F1200.000 E6.20013
G1 X62.513 Y36.796 F4500.000
G1 X62.513 Y31.386 F1200.000 E6.44999
G1 X62.027 Y31.450 F4500.000
G1 X62.027 Y36.860 F1200.000 E6.69986
G1 X61.540 Y36.991 F4500.000
G1 X61.540 Y31.514 F1200.000 E6.95284
G1 X61.054 Y31.578 F4500.000
G1 X61.054 Y37.193 F1200.000 E7.21217
G1 X60.567 Y37.421 F4500.000
G1 X60.567 Y31.642 F1200.000 E7.47908
G1 X60.081 Y31.706 F4500.000
G1 X60.081 Y37.794 F1200.000 E7.76026
G1 X59.594 Y38.205 F4500.000
G1 X59.594 Y31.770 F1200.000 E8.05749
G1 X59.108 Y31.963 F4500.000
G1 X59.108 Y38.840 F1200.000 E8.37512
G1 X58.621 Y39.474 E8.41203
G1 X58.621 Y32.164 E8.74964
G1 F1080.000 E7.74964
G92 E0
G1 X55.702 Y33.605 F4500.000
G1 F1080.000 E1.00000
G1 X55.702 Y56.395 F1200.000 E2.05260
G1 F1080.000 E1.05260
G92 E0
G1 X58.621 Y46.881 F4500.000
G1 F1080.000 E1.00000
G1 X58.621 Y42.306 F1200.000 E1.21132
G1 F1080.000 E0.21132
G92 E0
G1 X60.081 Y44.313 F4500.000
G1 F1080.000 E1.00000
G1 X60.081 Y45.687 F1200.000 E1.06346
G1 X59.594 Y46.098 F4500.000
G1 X59.594 Y43.902 F1200.000 E1.16492
G1 X59.108 Y43.268 E1.20184
G1 X59.108 Y46.732 E1.36188
G1 F1080.000 E0.36188
G92 E0
G1 X68.839 Y57.231 F4500.000
G1 F1080.000 E1.00000
G1 X68.839 Y32.769 F1200.000 E2.12987
G1 X69.325 Y32.970 F4500.000
G1 X69.325 Y57.030 F1200.000 E3.24112
G1 X69.812 Y56.768 F4500.000
G1 X69.812 Y33.232 F1200.000 E4.32821
G1 X70.298 Y33.605 F4500.000
G1 X70.298 Y56.395 F1200.000 E5.38081
G1 F1080.000 E4.38081
G92 E0
