; generated by Slic3r 0.9.3 on 2013-06-09 at 19:40:09

; layer_height = .25
; perimeters = 3
; solid_layers = 2
; fill_density = 0.3
; perimeter_speed = 30
; infill_speed = 60
; travel_speed = 75
; scale = 1
; nozzle_diameter = 0.35
; filament_diameter = 1.8
; extrusion_multiplier = 1
; single wall width = 0.39mm

M107
G92 E0	;reset extruder location
G1 E5	;Prime extruder
G28	;Go Home
;G1 E20	Prime extruder
G90 ; use absolute coordinates
G21 ; set units to millimeters
G92 E0
M82 ; use absolute distances for extrusion
G1 F1080.000 E-1.00000
G92 E0
G1 Z0.250 F4500.000
G1 X53.480 Y46.610
G1 F1080.000 E1.00000
G1 X53.820 Y46.400 F1200.000 E1.01511
G1 X57.740 Y44.760 E1.17577
G1 X58.260 Y44.580 E1.19657
G1 X58.300 Y44.570 E1.19813
G1 X58.730 Y44.490 E1.21467
G1 X62.700 Y43.980 E1.36600
G1 X62.890 Y43.970 E1.37320
G1 X63.290 Y43.980 E1.38832
G1 X67.500 Y44.530 E1.54885
G1 X67.690 Y44.570 E1.55619
G1 X68.070 Y44.690 E1.57126
G1 X72.000 Y46.310 E1.73197
G1 X72.180 Y46.400 E1.73958
G1 X72.520 Y46.610 E1.75469
G1 X74.220 Y47.930 E1.83607
G1 X74.380 Y48.070 E1.84411
G1 X74.670 Y48.390 E1.86043
G1 X74.800 Y48.560 E1.86853
G1 X75.030 Y48.920 E1.88468
G1 X75.220 Y49.310 E1.90108
G1 X75.300 Y49.510 E1.90922
G1 X75.370 Y49.720 E1.91759
G1 X75.460 Y50.140 E1.93383
G1 X75.510 Y50.560 E1.94983
G1 X75.510 Y75.430 E2.89013
G1 X75.460 Y75.850 E2.90612
G1 X75.370 Y76.270 E2.92236
G1 X75.300 Y76.480 E2.93073
G1 X75.220 Y76.680 E2.93887
G1 X75.030 Y77.070 E2.95527
G1 X74.800 Y77.430 E2.97143
G1 X74.670 Y77.600 E2.97952
G1 X74.380 Y77.920 E2.99585
G1 X72.520 Y79.380 E3.08525
G1 X72.180 Y79.590 E3.10036
G1 X72.000 Y79.680 E3.10796
G1 X68.070 Y81.300 E3.26868
G1 X67.690 Y81.420 E3.28375
G1 X67.500 Y81.460 E3.29109
G1 X63.280 Y82.010 E3.45199
G1 X63.090 Y82.020 E3.45918
G1 X62.690 Y82.010 E3.47431
G1 X58.490 Y81.460 E3.63447
G1 X58.300 Y81.420 E3.64181
G1 X57.920 Y81.300 E3.65687
G1 X54.000 Y79.680 E3.81724
G1 X53.820 Y79.590 E3.82485
G1 X53.320 Y79.270 E3.84729
G1 X51.770 Y78.070 E3.92141
G1 X51.460 Y77.770 E3.93772
G1 X51.320 Y77.610 E3.94576
G1 X51.060 Y77.260 E3.96224
G1 X50.850 Y76.880 E3.97866
G1 X50.680 Y76.480 E3.99509
G1 X50.610 Y76.280 E4.00310
G1 X50.520 Y75.860 E4.01934
G1 X50.470 Y75.430 E4.03571
G1 X50.470 Y50.560 E4.97601
G1 X50.520 Y50.130 E4.99238
G1 X50.610 Y49.710 E5.00862
G1 X50.760 Y49.310 E5.02477
G1 X50.850 Y49.110 E5.03306
G1 X51.060 Y48.730 E5.04947
G1 X51.320 Y48.380 E5.06596
G1 X51.460 Y48.220 E5.07400
G1 X51.770 Y47.920 E5.09031
G1 X53.161 Y46.842 E5.15685
G1 X53.560 Y47.030 F4500.000
G1 X53.850 Y46.830 F1200.000 E5.17017
G1 X54.000 Y46.740 E5.17679
G1 X54.160 Y46.660 E5.18355
G1 X57.890 Y45.120 E5.33612
G1 X58.360 Y44.960 E5.35489
G1 X58.400 Y44.950 E5.35645
G1 X58.780 Y44.880 E5.37106
G1 X62.730 Y44.370 E5.52165
G1 X62.900 Y44.360 E5.52808
G1 X63.080 Y44.360 E5.53489
G1 X63.260 Y44.370 E5.54171
G1 X67.600 Y44.950 E5.70725
G1 X67.940 Y45.050 E5.72065
G1 X71.830 Y46.660 E5.87983
G1 X72.150 Y46.830 E5.89353
G1 X72.300 Y46.930 E5.90034
G1 X73.970 Y48.230 E5.98036
G1 X74.270 Y48.520 E5.99614
G1 X74.520 Y48.840 E6.01149
G1 X74.740 Y49.200 E6.02744
G1 X74.830 Y49.380 E6.03505
G1 X74.910 Y49.570 E6.04284
G1 X75.030 Y49.960 E6.05827
G1 X75.070 Y50.160 E6.06598
G1 X75.120 Y50.570 E6.08160
G1 X75.120 Y75.420 E7.02114
G1 X75.070 Y75.830 E7.03676
G1 X75.030 Y76.030 E7.04447
G1 X74.910 Y76.420 E7.05990
G1 X74.830 Y76.610 E7.06769
G1 X74.740 Y76.790 E7.07530
G1 X74.520 Y77.150 E7.09125
G1 X74.270 Y77.470 E7.10661
G1 X73.970 Y77.760 E7.12238
G1 X72.300 Y79.060 E7.20240
G1 X72.150 Y79.160 E7.20922
G1 X71.830 Y79.330 E7.22292
G1 X67.940 Y80.940 E7.38209
G1 X67.600 Y81.040 E7.39549
G1 X63.250 Y81.620 E7.56141
G1 X63.080 Y81.630 E7.56785
G1 X62.900 Y81.630 E7.57466
G1 X62.720 Y81.620 E7.58147
G1 X58.390 Y81.040 E7.74665
G1 X58.050 Y80.940 E7.76005
G1 X54.160 Y79.330 E7.91922
G1 X54.000 Y79.250 E7.92598
G1 X53.700 Y79.060 E7.93941
G1 X52.020 Y77.770 E8.01949
G1 X51.860 Y77.630 E8.02753
G1 X51.720 Y77.480 E8.03529
G1 X51.460 Y77.150 E8.05117
G1 X51.350 Y76.980 E8.05883
G1 X51.250 Y76.800 E8.06662
G1 X51.080 Y76.420 E8.08235
G1 X51.010 Y76.230 E8.09001
G1 X50.950 Y76.030 E8.09791
G1 X50.910 Y75.830 E8.10562
G1 X50.860 Y75.420 E8.12123
G1 X50.860 Y50.570 E9.06078
G1 X50.910 Y50.160 E9.07639
G1 X50.950 Y49.960 E9.08411
G1 X51.010 Y49.760 E9.09200
G1 X51.160 Y49.380 E9.10745
G1 X51.250 Y49.190 E9.11540
G1 X51.350 Y49.010 E9.12318
G1 X51.460 Y48.840 E9.13084
G1 X51.720 Y48.510 E9.14672
G1 X51.860 Y48.360 E9.15448
G1 X53.247 Y47.270 E9.22118
G1 F1080.000 E8.22118
G92 E0
G1 X60.010 Y56.064 F4500.000
G1 F1080.000 E1.00000
G1 X60.368 Y55.789 F1200.000 E1.02072
G1 X60.368 Y55.789 E1.02073
G1 X60.886 Y55.392 E1.05074
G1 X61.906 Y54.969 E1.10146
G1 X62.405 Y54.904 E1.12463
G1 X62.405 Y54.904 E1.12463
G1 X63.000 Y54.825 E1.15220
G1 X64.094 Y54.969 E1.20293
G1 X65.114 Y55.392 E1.25365
G1 X65.990 Y56.064 E1.30439
G1 X66.447 Y56.659 E1.33887
G1 X66.546 Y56.659 E1.34342
G1 X66.660 Y56.935 E1.35713
G1 X66.660 Y56.935 E1.35713
G1 X66.982 Y57.713 E1.39586
G1 X67.052 Y57.713 E1.39905
G1 X67.218 Y58.972 E1.45743
G1 X67.571 Y58.972 E1.47368
G1 X66.662 Y61.167 E1.58288
G1 X65.990 Y62.043 E1.63362
G1 X65.254 Y62.608 E1.67628
G1 X65.254 Y62.608 E1.67628
G1 X65.114 Y62.715 E1.68436
G1 X64.668 Y62.900 E1.70656
G1 X64.668 Y63.100 E1.71574
G1 X65.114 Y63.284 E1.73791
G1 X65.551 Y63.620 E1.76323
G1 X65.731 Y63.620 E1.77153
G1 X66.019 Y63.995 E1.79328
G1 X66.019 Y63.995 E1.79328
G1 X66.662 Y64.832 E1.84177
G1 X67.084 Y65.852 E1.89251
G1 X67.228 Y66.946 E1.94323
G1 X67.084 Y68.041 E1.99396
G1 X66.662 Y69.060 E2.04468
G1 X66.662 Y69.061 E2.04469
G1 X66.546 Y69.341 E2.05865
G1 X66.447 Y69.341 E2.06320
G1 X65.990 Y69.936 E2.09768
G1 X65.114 Y70.608 E2.14841
G1 X64.095 Y71.031 E2.19914
G1 X62.080 Y71.296 E2.29253
G1 X62.080 Y71.103 E2.30140
G1 X60.886 Y70.608 E2.36080
G1 X60.010 Y69.936 E2.41153
G1 X59.338 Y69.061 E2.46226
G1 X59.282 Y68.925 E2.46900
G1 X59.032 Y68.925 E2.48049
G1 X58.916 Y68.041 E2.52147
G1 X58.916 Y68.041 E2.52148
G1 X58.772 Y66.946 E2.57221
G1 X58.918 Y65.835 E2.62375
G1 X58.918 Y65.834 E2.62375
G1 X59.032 Y64.968 E2.66393
G1 X59.282 Y64.968 E2.67541
G1 X59.338 Y64.832 E2.68215
G1 X59.590 Y64.504 E2.70119
G1 X59.590 Y64.504 E2.70119
G1 X60.010 Y63.957 E2.73289
G1 X60.368 Y63.682 E2.75361
G1 X60.368 Y63.682 E2.75361
G1 X60.886 Y63.285 E2.78363
G1 X61.332 Y63.100 E2.80581
G1 X61.332 Y62.900 E2.81498
G1 X60.886 Y62.715 E2.83719
G1 X60.010 Y62.043 E2.88791
G1 X59.790 Y61.757 E2.90452
G1 X59.582 Y61.757 E2.91408
G1 X59.409 Y61.339 E2.93484
G1 X59.409 Y61.339 E2.93484
G1 X59.102 Y60.597 E2.97175
G1 X58.975 Y60.597 E2.97759
G1 X58.930 Y60.256 E2.99343
G1 X58.613 Y60.256 E3.00798
G1 X58.765 Y59.107 E3.06121
G1 X58.765 Y59.107 E3.06121
G1 X58.916 Y57.959 E3.11444
G1 X59.518 Y56.505 E3.18680
G1 X59.672 Y56.505 E3.19385
G1 X59.770 Y56.377 E3.20127
G1 X60.355 Y56.409 F4500.000
G1 X60.852 Y56.028 F1200.000 E3.23003
G1 X60.852 Y56.028 E3.23003
G1 X61.130 Y55.814 E3.24615
G1 X62.032 Y55.441 E3.29102
G1 X62.889 Y55.328 E3.33076
G1 X62.889 Y55.328 E3.33076
G1 X63.000 Y55.313 E3.33590
G1 X63.968 Y55.441 E3.38077
G1 X64.870 Y55.814 E3.42564
G1 X65.645 Y56.409 E3.47052
G1 X66.208 Y57.143 E3.51304
G1 X66.222 Y57.143 E3.51370
G1 X66.239 Y57.184 E3.51574
G1 X66.239 Y57.184 E3.51574
G1 X66.613 Y58.085 E3.56059
G1 X66.627 Y58.197 E3.56576
G1 X66.627 Y58.197 E3.56576
G1 X66.740 Y59.054 E3.60547
G1 X66.687 Y59.456 E3.62413
G1 X66.847 Y59.456 E3.63148
G1 X66.239 Y60.924 E3.70447
G1 X65.645 Y61.698 E3.74935
G1 X64.870 Y62.293 E3.79423
G1 X63.968 Y62.666 E3.83911
G1 X62.835 Y62.816 E3.89163
G1 X62.835 Y63.184 E3.90859
G1 X63.968 Y63.334 E3.96111
G1 X64.870 Y63.707 E4.00598
G1 X65.387 Y64.104 E4.03591
G1 X65.493 Y64.104 E4.04079
G1 X65.647 Y64.304 E4.05240
G1 X65.647 Y64.304 E4.05240
G1 X65.781 Y64.479 E4.06254
G1 X65.781 Y64.479 E4.06254
G1 X66.239 Y65.076 E4.09714
G1 X66.613 Y65.978 E4.14201
G1 X66.740 Y66.946 E4.18689
G1 X66.613 Y67.914 E4.23176
G1 X66.239 Y68.817 E4.27664
G1 X66.239 Y68.817 E4.27665
G1 X66.222 Y68.857 E4.27866
G1 X66.208 Y68.857 E4.27931
G1 X65.786 Y69.407 E4.31119
G1 X65.786 Y69.407 E4.31119
G1 X65.645 Y69.591 E4.32184
G1 X65.198 Y69.934 E4.34773
G1 X65.198 Y69.934 E4.34773
G1 X64.870 Y70.186 E4.36671
G1 X63.968 Y70.559 E4.41158
G1 X62.564 Y70.744 E4.47669
G1 X62.564 Y70.629 E4.48196
G1 X62.032 Y70.559 E4.50661
G1 X61.130 Y70.186 E4.55149
G1 X60.355 Y69.591 E4.59637
G1 X59.761 Y68.817 E4.64124
G1 X59.605 Y68.441 E4.65991
G1 X59.457 Y68.441 E4.66675
G1 X59.387 Y67.914 E4.69118
G1 X59.387 Y67.914 E4.69118
G1 X59.260 Y66.946 E4.73604
G1 X59.388 Y65.973 E4.78118
G1 X59.388 Y65.973 E4.78118
G1 X59.457 Y65.452 E4.80533
G1 X59.605 Y65.452 E4.81217
G1 X59.761 Y65.076 E4.83084
G1 X59.829 Y64.988 E4.83599
G1 X59.829 Y64.988 E4.83599
G1 X60.355 Y64.302 E4.87572
G1 X60.852 Y63.921 E4.90448
G1 X60.852 Y63.921 E4.90449
G1 X61.130 Y63.707 E4.92060
G1 X62.763 Y63.031 E5.00185
G1 X62.727 Y62.758 E5.01450
G1 X62.032 Y62.666 E5.04674
G1 X61.130 Y62.293 E5.09162
G1 X60.355 Y61.698 E5.13649
G1 X60.029 Y61.273 E5.16113
G1 X59.906 Y61.273 E5.16680
G1 X59.760 Y60.921 E5.18432
G1 X59.760 Y60.921 E5.18433
G1 X59.425 Y60.114 E5.22447
G1 X59.399 Y60.114 E5.22567
G1 X59.387 Y60.021 E5.22994
G1 X59.387 Y60.021 E5.22994
G1 X59.354 Y59.772 E5.24151
G1 X59.165 Y59.772 E5.25020
G1 X59.256 Y59.078 E5.28234
G1 X59.256 Y59.078 E5.28234
G1 X59.387 Y58.085 E5.32837
G1 X59.842 Y56.988 E5.38295
G1 X59.910 Y56.988 E5.38611
G1 X60.115 Y56.722 E5.40157
G1 X60.700 Y56.754 F4500.000
G1 X61.336 Y56.266 F1200.000 E5.43837
G1 X61.336 Y56.266 E5.43837
G1 X61.374 Y56.237 E5.44059
G1 X62.158 Y55.912 E5.47960
G1 X63.000 Y55.801 E5.51862
G1 X63.842 Y55.912 E5.55764
G1 X64.626 Y56.237 E5.59666
G1 X65.300 Y56.754 E5.63568
G1 X65.816 Y57.427 E5.67470
G1 X65.899 Y57.627 E5.68461
G1 X65.899 Y57.627 E5.68461
G1 X66.141 Y58.212 E5.71372
G1 X66.252 Y59.054 E5.75274
G1 X66.141 Y59.895 E5.79175
G1 X66.123 Y59.940 E5.79398
G1 X66.123 Y59.940 E5.79398
G1 X65.816 Y60.680 E5.83077
G1 X65.300 Y61.353 E5.86979
G1 X64.626 Y61.870 E5.90881
G1 X63.842 Y62.195 E5.94783
G1 X63.000 Y62.306 E5.98685
G1 X62.158 Y62.195 E6.02587
G1 X61.374 Y61.870 E6.06489
G1 X60.700 Y61.353 E6.10390
G1 X60.267 Y60.789 E6.13659
G1 X60.229 Y60.789 E6.13836
G1 X60.184 Y60.680 E6.14377
G1 X60.184 Y60.680 E6.14377
G1 X59.859 Y59.895 E6.18282
G1 X59.824 Y59.630 E6.19514
G1 X59.824 Y59.630 E6.19514
G1 X59.779 Y59.288 E6.21098
G1 X59.717 Y59.288 E6.21381
G1 X59.748 Y59.049 E6.22488
G1 X59.748 Y59.049 E6.22488
G1 X59.859 Y58.212 E6.26370
G1 X60.165 Y57.472 E6.30048
G1 X60.165 Y57.472 E6.30048
G1 X60.184 Y57.428 E6.30272
G1 X60.460 Y57.067 E6.32361
G1 F1080.000 E5.32361
G92 E0
G1 X62.158 Y63.805 F4500.000
G1 F1080.000 E1.00000
G1 X63.000 Y63.694 F1200.000 E1.03902
G1 X63.842 Y63.805 E1.07804
G1 X64.626 Y64.130 E1.11705
G1 X65.222 Y64.588 E1.15160
G1 X65.254 Y64.588 E1.15306
G1 X65.301 Y64.649 E1.15661
G1 X65.301 Y64.649 E1.15661
G1 X65.816 Y65.320 E1.19551
G1 X66.141 Y66.105 E1.23453
G1 X66.252 Y66.946 E1.27355
G1 X66.141 Y67.788 E1.31257
G1 X65.899 Y68.373 E1.34168
G1 X65.899 Y68.373 E1.34168
G1 X65.816 Y68.572 E1.35159
G1 X65.300 Y69.246 E1.39061
G1 X64.626 Y69.763 E1.42963
G1 X63.842 Y70.088 E1.46864
G1 X63.048 Y70.192 E1.50546
G1 X63.048 Y70.192 E1.50546
G1 X63.000 Y70.199 E1.50767
G1 X62.158 Y70.088 E1.54668
G1 X61.374 Y69.763 E1.58570
G1 X60.700 Y69.246 E1.62472
G1 X60.184 Y68.573 E1.66374
G1 X59.929 Y67.957 E1.69435
G1 X59.881 Y67.957 E1.69654
G1 X59.859 Y67.788 E1.70439
G1 X59.859 Y67.788 E1.70440
G1 X59.748 Y66.946 E1.74340
G1 X59.858 Y66.106 E1.78234
G1 X59.858 Y66.106 E1.78234
G1 X59.881 Y65.936 E1.79026
G1 X59.929 Y65.936 E1.79245
G1 X60.184 Y65.320 E1.82306
G1 X60.700 Y64.647 E1.86208
G1 X61.336 Y64.159 E1.89888
G1 X61.336 Y64.159 E1.89888
G1 X61.374 Y64.130 E1.90110
G1 X61.768 Y63.967 E1.92071
G1 X61.768 Y63.967 E1.92071
G1 X61.794 Y63.956 E1.92199
G1 F1080.000 E0.92199
G92 E0
G1 X70.782 Y51.261 F4500.000
G1 F1080.000 E1.00000
G1 X70.782 Y74.739 F1200.000 E2.07902
G1 X69.886 Y75.427 E2.13095
G1 X66.564 Y76.802 E2.29618
G1 X63.000 Y77.272 E2.46141
G1 X59.436 Y76.802 E2.62664
G1 X56.114 Y75.427 E2.79187
G1 X55.218 Y74.739 E2.84379
G1 X55.218 Y51.261 E3.92281
G1 X56.114 Y50.573 E3.97474
G1 X59.436 Y49.198 E4.13997
G1 X63.000 Y48.728 E4.30520
G1 X66.564 Y49.198 E4.47043
G1 X69.886 Y50.573 E4.63566
G1 X70.469 Y51.021 E4.66946
G1 X71.266 Y51.023 F4500.000
G1 X71.266 Y74.977 F1200.000 E5.77041
G1 X70.130 Y75.849 E5.83623
G1 X66.691 Y77.274 E6.00732
G1 X63.000 Y77.760 E6.17841
G1 X59.309 Y77.274 E6.34949
G1 X55.870 Y75.849 E6.52058
G1 X54.734 Y74.977 E6.58640
G1 X54.734 Y51.023 E7.68735
G1 X55.870 Y50.151 E7.75318
G1 X59.309 Y48.726 E7.92426
G1 X63.000 Y48.240 E8.09535
G1 X66.691 Y48.726 E8.26643
G1 X70.130 Y50.151 E8.43752
G1 X70.953 Y50.782 E8.48522
G1 F1080.000 E7.48522
G92 E0
G1 X63.165 Y62.816 F4500.000
G1 F1080.000 E1.00000
G1 X63.165 Y63.184 F1200.000 E1.01696
G1 X62.252 Y63.305 E1.05928
G1 X62.252 Y62.695 E1.08729
G1 X62.774 Y62.764 E1.11149
G1 F1080.000 E0.11149
G92 E0
G1 X54.250 Y50.784 F4500.000
G1 F1080.000 E1.00000
G1 X55.626 Y49.728 F1200.000 E1.07972
G1 X59.183 Y48.255 E1.25666
G1 X63.000 Y47.752 E1.43360
G1 X66.817 Y48.255 E1.61054
G1 X70.374 Y49.728 E1.78748
G1 X71.750 Y50.784 E1.86720
G1 X71.750 Y75.216 E2.99009
G1 X70.374 Y76.272 E3.06981
G1 X66.817 Y77.745 E3.24675
G1 X63.000 Y78.248 E3.42369
G1 X59.183 Y77.745 E3.60063
G1 X55.626 Y76.272 E3.77758
G1 X54.250 Y75.216 E3.85729
G1 X54.250 Y51.178 E4.96206
G1 X55.702 Y51.105 F4500.000
G1 X55.702 Y74.895 F1200.000 E6.06085
G1 X56.188 Y75.268 F4500.000
G1 X56.188 Y50.732 F1200.000 E7.19413
G1 X56.675 Y50.470 F4500.000
G1 X56.675 Y75.530 F1200.000 E8.35157
G1 X57.161 Y75.731 F4500.000
G1 X57.161 Y50.269 F1200.000 E9.52763
G1 X57.648 Y50.067 F4500.000
G1 X57.648 Y75.933 F1200.000 E10.72231
G1 X58.134 Y76.134 F4500.000
G1 X58.134 Y60.345 F1200.000 E11.45157
G1 X58.134 Y60.581 F4500.000
G1 X58.134 Y49.866 F1200.000 E11.94651
G1 X58.621 Y49.664 F4500.000
G1 X58.621 Y57.801 F1200.000 E12.32232
G1 X59.108 Y56.626 E12.38105
G1 X59.108 Y49.463 E12.71192
G1 X59.594 Y49.270 F4500.000
G1 X59.594 Y56.205 F1200.000 E13.03224
G1 X60.081 Y55.794 F4500.000
G1 X60.081 Y49.206 F1200.000 E13.33652
G1 X60.567 Y49.142 F4500.000
G1 X60.567 Y55.421 F1200.000 E13.62652
G1 X61.054 Y55.193 F4500.000
G1 X61.054 Y49.078 F1200.000 E13.90895
G1 X61.540 Y49.014 F4500.000
G1 X61.540 Y54.991 F1200.000 E14.18503
G1 X62.027 Y54.860 F4500.000
G1 X62.027 Y48.950 F1200.000 E14.45799
G1 X62.513 Y48.886 F4500.000
G1 X62.513 Y54.796 F1200.000 E14.73095
G1 X63.000 Y54.732 F4500.000
G1 X63.000 Y48.822 F1200.000 E15.00390
G1 X63.487 Y48.886 F4500.000
G1 X63.487 Y54.796 F1200.000 E15.27686
G1 X63.973 Y54.860 F4500.000
G1 X63.973 Y48.950 F1200.000 E15.54982
G1 X64.460 Y49.014 F4500.000
G1 X64.460 Y54.991 F1200.000 E15.82590
G1 X64.946 Y55.193 F4500.000
G1 X64.946 Y49.078 F1200.000 E16.10832
G1 X65.433 Y49.142 F4500.000
G1 X65.433 Y55.421 F1200.000 E16.39832
G1 X65.919 Y55.794 F4500.000
G1 X65.919 Y49.206 F1200.000 E16.70260
G1 X66.406 Y49.270 F4500.000
G1 X66.406 Y56.206 F1200.000 E17.02293
G1 X66.892 Y56.626 F4500.000
G1 X66.892 Y49.463 F1200.000 E17.35380
G1 X67.379 Y49.664 F4500.000
G1 X67.379 Y57.624 F1200.000 E17.72143
G1 X67.866 Y58.883 F4500.000
G1 X67.866 Y49.866 F1200.000 E18.13791
G1 X68.352 Y50.067 F4500.000
G1 X68.352 Y75.933 F1200.000 E19.33259
G1 X67.866 Y76.134 F4500.000
G1 X67.866 Y59.132 F1200.000 E20.11791
G1 F1080.000 E19.11791
G92 E0
G1 X66.406 Y61.902 F4500.000
G1 F1080.000 E1.00000
G1 X66.406 Y64.098 F1200.000 E1.10147
G1 X66.892 Y64.732 E1.13838
G1 X66.892 Y61.267 E1.29843
G1 X67.379 Y60.306 E1.34819
G1 X67.379 Y65.694 E1.59704
G1 F1080.000 E0.59704
G92 E0
G1 X67.379 Y68.199 F4500.000
G1 F1080.000 E1.00000
G1 X67.379 Y76.336 F1200.000 E1.37582
G1 X66.892 Y76.537 F4500.000
G1 X66.892 Y69.374 F1200.000 E1.70669
G1 X66.406 Y69.795 F4500.000
G1 X66.406 Y76.730 F1200.000 E2.02701
G1 X65.919 Y76.794 F4500.000
G1 X65.919 Y70.206 F1200.000 E2.33129
G1 X65.433 Y70.579 F4500.000
