; generated by Slic3r 0.9.3 on 2013-06-09 at 19:05:45

; layer_height = .25
; perimeters = 3
; solid_layers = 2
; fill_density = 0.3
; perimeter_speed = 30
; infill_speed = 60
; travel_speed = 75
; scale = 1
; nozzle_diameter = 0.35
; filament_diameter = 1.8
; extrusion_multiplier = 1
; single wall width = 0.39mm

M107
G92 E0	;reset extruder location
G1 E5	;Prime extruder
G28	;Go Home
;G1 E20	Prime extruder
G90 ; use absolute coordinates
G21 ; set units to millimeters
G92 E0
M82 ; use absolute distances for extrusion
G1 F1080.000 E-1.00000
G92 E0
G1 Z0.250 F4500.000
G1 X41.480 Y47.110
G1 F1080.000 E1.00000
G1 X41.820 Y46.900 F1200.000 E1.01511
G1 X45.870 Y45.200 E1.18118
G1 X46.010 Y45.160 E1.18668
G1 X46.150 Y45.110 E1.19230
G1 X46.300 Y45.080 E1.19809
G1 X46.440 Y45.040 E1.20359
G1 X50.500 Y44.500 E1.35845
G1 X50.990 Y44.470 E1.37701
G1 X74.990 Y44.470 E2.28441
G1 X75.480 Y44.500 E2.30298
G1 X79.500 Y45.030 E2.45628
G1 X79.690 Y45.070 E2.46362
G1 X80.070 Y45.190 E2.47869
G1 X83.990 Y46.810 E2.63906
G1 X84.170 Y46.900 E2.64667
G1 X84.670 Y47.220 E2.66911
G1 X86.220 Y48.420 E2.74322
G1 X86.530 Y48.720 E2.75953
G1 X86.670 Y48.880 E2.76757
G1 X86.930 Y49.230 E2.78406
G1 X87.140 Y49.610 E2.80047
G1 X87.310 Y50.010 E2.81690
G1 X87.380 Y50.210 E2.82492
G1 X87.470 Y50.630 E2.84116
G1 X87.520 Y51.060 E2.85752
G1 X87.520 Y74.930 E3.76002
G1 X87.470 Y75.360 E3.77638
G1 X87.380 Y75.780 E3.79262
G1 X87.230 Y76.180 E3.80878
G1 X87.140 Y76.380 E3.81707
G1 X86.930 Y76.760 E3.83348
G1 X86.670 Y77.110 E3.84997
G1 X86.530 Y77.270 E3.85801
G1 X86.220 Y77.570 E3.87432
G1 X84.670 Y78.770 E3.94843
G1 X84.340 Y78.990 E3.96342
G1 X84.170 Y79.090 E3.97088
G1 X80.070 Y80.800 E4.13884
G1 X79.690 Y80.920 E4.15391
G1 X79.500 Y80.960 E4.16125
G1 X75.480 Y81.490 E4.31455
G1 X74.990 Y81.520 E4.33311
G1 X50.990 Y81.520 E5.24052
G1 X50.500 Y81.490 E5.25908
G1 X46.490 Y80.960 E5.41201
G1 X46.300 Y80.920 E5.41935
G1 X45.920 Y80.800 E5.43442
G1 X42.000 Y79.180 E5.59479
G1 X41.820 Y79.090 E5.60240
G1 X41.320 Y78.770 E5.62484
G1 X39.770 Y77.570 E5.69896
G1 X39.460 Y77.270 E5.71527
G1 X39.320 Y77.110 E5.72330
G1 X39.060 Y76.760 E5.73979
G1 X38.850 Y76.380 E5.75620
G1 X38.680 Y75.980 E5.77264
G1 X38.610 Y75.780 E5.78065
G1 X38.520 Y75.360 E5.79689
G1 X38.470 Y74.930 E5.81326
G1 X38.470 Y51.060 E6.71575
G1 X38.520 Y50.630 E6.73212
G1 X38.610 Y50.210 E6.74836
G1 X38.760 Y49.810 E6.76451
G1 X38.850 Y49.610 E6.77280
G1 X39.060 Y49.230 E6.78921
G1 X39.320 Y48.880 E6.80570
G1 X39.460 Y48.720 E6.81374
G1 X39.770 Y48.420 E6.83005
G1 X41.161 Y47.342 E6.89659
G1 X41.560 Y47.530 F4500.000
G1 X41.850 Y47.330 F1200.000 E6.90991
G1 X42.000 Y47.240 E6.91653
G1 X42.160 Y47.160 E6.92329
G1 X46.010 Y45.570 E7.08078
G1 X46.390 Y45.450 E7.09584
G1 X50.550 Y44.890 E7.25455
G1 X50.990 Y44.860 E7.27122
G1 X74.990 Y44.860 E8.17863
G1 X75.430 Y44.890 E8.19530
G1 X79.600 Y45.450 E8.35438
G1 X79.940 Y45.550 E8.36778
G1 X83.830 Y47.160 E8.52695
G1 X83.990 Y47.240 E8.53372
G1 X84.290 Y47.430 E8.54714
G1 X85.970 Y48.720 E8.62723
G1 X86.130 Y48.860 E8.63527
G1 X86.270 Y49.010 E8.64302
G1 X86.530 Y49.340 E8.65891
G1 X86.640 Y49.510 E8.66656
G1 X86.740 Y49.690 E8.67435
G1 X86.910 Y50.070 E8.69009
G1 X86.980 Y50.260 E8.69774
G1 X87.040 Y50.460 E8.70564
G1 X87.080 Y50.660 E8.71335
G1 X87.130 Y51.070 E8.72897
G1 X87.130 Y74.920 E9.63070
G1 X87.080 Y75.330 E9.64632
G1 X87.040 Y75.530 E9.65403
G1 X86.980 Y75.730 E9.66192
G1 X86.830 Y76.110 E9.67737
G1 X86.740 Y76.300 E9.68532
G1 X86.640 Y76.480 E9.69311
G1 X86.530 Y76.650 E9.70076
G1 X86.270 Y76.980 E9.71664
G1 X86.130 Y77.130 E9.72440
G1 X84.290 Y78.560 E9.81251
G1 X83.990 Y78.750 E9.82594
G1 X83.830 Y78.830 E9.83270
G1 X79.940 Y80.440 E9.99187
G1 X79.600 Y80.540 E10.00527
G1 X75.430 Y81.100 E10.16435
G1 X74.990 Y81.130 E10.18103
G1 X50.990 Y81.130 E11.08843
G1 X50.550 Y81.100 E11.10511
G1 X46.390 Y80.540 E11.26381
G1 X46.050 Y80.440 E11.27721
G1 X42.160 Y78.830 E11.43638
G1 X42.000 Y78.750 E11.44315
G1 X41.700 Y78.560 E11.45657
G1 X40.020 Y77.270 E11.53666
G1 X39.860 Y77.130 E11.54470
G1 X39.720 Y76.980 E11.55245
G1 X39.460 Y76.650 E11.56834
G1 X39.350 Y76.480 E11.57599
G1 X39.250 Y76.300 E11.58378
G1 X39.080 Y75.920 E11.59952
G1 X39.010 Y75.730 E11.60717
G1 X38.950 Y75.530 E11.61507
G1 X38.910 Y75.330 E11.62278
G1 X38.860 Y74.920 E11.63840
G1 X38.860 Y51.070 E12.54013
G1 X38.910 Y50.660 E12.55575
G1 X38.950 Y50.460 E12.56346
G1 X39.010 Y50.260 E12.57135
G1 X39.160 Y49.880 E12.58680
G1 X39.250 Y49.690 E12.59475
G1 X39.350 Y49.510 E12.60253
G1 X39.460 Y49.340 E12.61019
G1 X39.720 Y49.010 E12.62607
G1 X39.860 Y48.860 E12.63383
G1 X41.247 Y47.770 E12.70053
G1 F1080.000 E11.70053
G92 E0
G1 X48.010 Y56.064 F4500.000
G1 F1080.000 E1.00000
G1 X48.886 Y55.392 F1200.000 E1.05073
G1 X49.906 Y54.969 E1.10146
G1 X50.403 Y54.904 E1.12450
G1 X50.403 Y54.904 E1.12450
G1 X51.000 Y54.825 E1.15219
G1 X52.094 Y54.969 E1.20292
G1 X53.114 Y55.392 E1.25365
G1 X53.990 Y56.064 E1.30438
G1 X54.662 Y56.939 E1.35512
G1 X55.084 Y57.959 E1.40585
G1 X55.228 Y59.054 E1.45658
G1 X55.193 Y59.321 E1.46896
G1 X55.427 Y59.321 E1.47970
G1 X55.085 Y60.146 E1.52075
G1 X55.085 Y60.146 E1.52075
G1 X54.662 Y61.168 E1.57158
G1 X53.990 Y62.043 E1.62231
G1 X53.114 Y62.715 E1.67305
G1 X52.668 Y62.900 E1.69524
G1 X52.668 Y63.100 E1.70442
G1 X53.114 Y63.285 E1.72661
G1 X53.990 Y63.957 E1.77734
G1 X54.662 Y64.832 E1.82808
G1 X55.071 Y65.819 E1.87717
G1 X55.080 Y65.819 E1.87760
G1 X55.084 Y65.854 E1.87919
G1 X55.084 Y65.854 E1.87919
G1 X55.228 Y66.946 E1.92985
G1 X55.084 Y68.041 E1.98058
G1 X54.662 Y69.061 E2.03131
G1 X53.990 Y69.936 E2.08204
G1 X53.256 Y70.500 E2.12456
G1 X53.256 Y70.500 E2.12456
G1 X53.114 Y70.608 E2.13278
G1 X52.094 Y71.031 E2.18351
G1 X50.083 Y71.296 E2.27676
G1 X50.083 Y71.054 E2.28786
G1 X49.241 Y70.943 E2.32689
G1 X49.241 Y70.755 E2.33552
G1 X48.886 Y70.608 E2.35318
G1 X48.010 Y69.936 E2.40391
G1 X47.338 Y69.061 E2.45464
G1 X46.916 Y68.041 E2.50537
G1 X46.772 Y66.946 E2.55610
G1 X46.915 Y65.855 E2.60668
G1 X46.915 Y65.855 E2.60668
G1 X47.032 Y64.971 E2.64768
G1 X47.281 Y64.971 E2.65913
G1 X47.338 Y64.832 E2.66602
G1 X48.010 Y63.957 E2.71675
G1 X48.886 Y63.285 E2.76748
G1 X49.332 Y63.100 E2.78968
G1 X49.332 Y62.900 E2.79885
G1 X48.886 Y62.715 E2.82105
G1 X48.010 Y62.043 E2.87178
G1 X47.338 Y61.168 E2.92250
G1 X46.916 Y60.148 E2.97324
G1 X46.772 Y59.054 E3.02397
G1 X46.916 Y57.959 E3.07470
G1 X47.063 Y57.604 E3.09238
G1 X46.930 Y57.471 E3.10101
G1 X47.770 Y56.377 E3.16441
G1 X48.355 Y56.409 F4500.000
G1 X49.130 Y55.814 F1200.000 E3.20929
G1 X50.032 Y55.441 E3.25416
G1 X50.886 Y55.328 E3.29377
G1 X50.886 Y55.328 E3.29377
G1 X51.000 Y55.313 E3.29904
G1 X51.968 Y55.441 E3.34391
G1 X52.870 Y55.814 E3.38878
G1 X53.645 Y56.409 E3.43366
G1 X54.239 Y57.183 E3.47854
G1 X54.613 Y58.085 E3.52341
G1 X54.740 Y59.054 E3.56828
G1 X54.641 Y59.805 E3.60310
G1 X54.703 Y59.805 E3.60592
G1 X54.613 Y60.021 E3.61669
G1 X54.613 Y60.021 E3.61669
G1 X54.239 Y60.924 E3.66159
G1 X53.645 Y61.698 E3.70646
G1 X52.870 Y62.293 E3.75134
G1 X51.968 Y62.666 E3.79621
G1 X50.835 Y62.816 E3.84874
G1 X50.835 Y63.184 E3.86570
G1 X51.968 Y63.334 E3.91822
G1 X52.870 Y63.707 E3.96310
G1 X53.645 Y64.302 E4.00797
G1 X54.239 Y65.076 E4.05285
G1 X54.613 Y65.978 E4.09772
G1 X54.656 Y66.303 E4.11278
G1 X54.656 Y66.303 E4.11278
G1 X54.740 Y66.946 E4.14260
G1 X54.613 Y67.915 E4.18747
G1 X54.239 Y68.817 E4.23235
G1 X53.645 Y69.591 E4.27722
G1 X52.870 Y70.186 E4.32210
G1 X51.968 Y70.559 E4.36697
G1 X50.566 Y70.744 E4.43194
G1 X50.566 Y70.630 E4.43719
G1 X49.725 Y70.519 E4.47621
G1 X49.725 Y70.432 E4.48020
G1 X49.130 Y70.186 E4.50979
G1 X48.355 Y69.591 E4.55466
G1 X47.761 Y68.817 E4.59954
G1 X47.387 Y67.914 E4.64441
G1 X47.260 Y66.946 E4.68929
G1 X47.387 Y65.981 E4.73405
G1 X47.387 Y65.981 E4.73405
G1 X47.456 Y65.455 E4.75844
G1 X47.604 Y65.455 E4.76524
G1 X47.761 Y65.076 E4.78406
G1 X48.355 Y64.302 E4.82894
G1 X49.130 Y63.707 E4.87382
G1 X49.926 Y63.378 E4.91342
G1 X49.926 Y63.378 E4.91342
G1 X50.032 Y63.334 E4.91869
G1 X50.566 Y63.263 E4.94347
G1 X50.566 Y62.737 E4.96767
G1 X49.725 Y62.626 E5.00669
G1 X49.725 Y62.539 E5.01068
G1 X49.130 Y62.293 E5.04027
G1 X48.355 Y61.698 E5.08515
G1 X47.761 Y60.924 E5.13002
G1 X47.387 Y60.022 E5.17490
G1 X47.260 Y59.054 E5.21977
G1 X47.387 Y58.085 E5.26464
G1 X47.634 Y57.490 E5.29426
G1 X47.572 Y57.429 E5.29824
G1 X48.115 Y56.722 E5.33921
G1 X48.700 Y56.754 F4500.000
G1 X49.374 Y56.237 F1200.000 E5.37823
G1 X50.158 Y55.912 E5.41725
G1 X51.000 Y55.801 E5.45627
G1 X51.842 Y55.912 E5.49529
G1 X52.626 Y56.237 E5.53431
G1 X53.300 Y56.754 E5.57333
G1 X53.816 Y57.427 E5.61234
G1 X54.141 Y58.212 E5.65136
G1 X54.252 Y59.054 E5.69038
G1 X54.141 Y59.895 E5.72940
G1 X53.978 Y60.288 E5.74896
G1 X53.978 Y60.288 E5.74896
G1 X53.816 Y60.680 E5.76842
G1 X53.300 Y61.353 E5.80744
G1 X52.626 Y61.870 E5.84646
G1 X51.842 Y62.195 E5.88548
G1 X51.050 Y62.299 E5.92216
G1 X51.050 Y62.299 E5.92216
G1 X51.000 Y62.306 E5.92450
G1 X50.209 Y62.201 E5.96118
G1 X50.209 Y62.201 E5.96118
G1 X50.158 Y62.195 E5.96351
G1 X49.374 Y61.870 E6.00253
G1 X49.102 Y61.662 E6.01827
G1 X49.102 Y61.662 E6.01827
G1 X48.700 Y61.353 E6.04155
G1 X48.184 Y60.680 E6.08057
G1 X47.859 Y59.895 E6.11959
G1 X47.748 Y59.054 E6.15861
G1 X47.859 Y58.212 E6.19763
G1 X48.184 Y57.427 E6.23665
G1 X48.215 Y57.387 E6.23900
G1 X48.215 Y57.387 E6.23900
G1 X48.460 Y57.067 E6.25754
G1 F1080.000 E5.25754
G92 E0
G1 X50.158 Y63.805 F4500.000
G1 F1080.000 E1.00000
G1 X51.000 Y63.694 F1200.000 E1.03902
G1 X51.842 Y63.805 E1.07804
G1 X52.626 Y64.130 E1.11706
G1 X53.300 Y64.647 E1.15607
G1 X53.816 Y65.320 E1.19509
G1 X54.141 Y66.105 E1.23411
G1 X54.252 Y66.946 E1.27313
G1 X54.141 Y67.788 E1.31215
G1 X53.816 Y68.573 E1.35117
G1 X53.300 Y69.246 E1.39019
G1 X52.626 Y69.763 E1.42921
G1 X51.842 Y70.088 E1.46823
G1 X51.050 Y70.192 E1.50491
G1 X51.050 Y70.192 E1.50491
G1 X51.000 Y70.199 E1.50724
G1 X50.209 Y70.094 E1.54393
G1 X50.209 Y70.094 E1.54393
G1 X50.158 Y70.088 E1.54626
G1 X49.374 Y69.763 E1.58528
G1 X49.110 Y69.560 E1.60057
G1 X49.110 Y69.560 E1.60057
G1 X48.700 Y69.246 E1.62430
G1 X48.184 Y68.573 E1.66332
G1 X47.859 Y67.788 E1.70234
G1 X47.748 Y66.946 E1.74136
G1 X47.859 Y66.105 E1.78034
G1 X47.859 Y66.105 E1.78034
G1 X47.881 Y65.939 E1.78807
G1 X47.927 Y65.939 E1.79023
G1 X48.184 Y65.320 E1.82099
G1 X48.700 Y64.647 E1.86001
G1 X49.374 Y64.130 E1.89903
G1 X49.794 Y63.956 E1.91992
G1 F1080.000 E0.91992
G92 E0
G1 X43.218 Y51.761 F4500.000
G1 F1080.000 E1.00000
G1 X44.114 Y51.073 F1200.000 E1.05193
G1 X47.436 Y49.698 E1.21716
G1 X51.000 Y49.228 E1.38239
G1 X54.564 Y49.698 E1.54762
G1 X57.886 Y51.073 E1.71285
G1 X58.782 Y51.761 E1.76477
G1 X58.782 Y74.239 E2.79783
G1 X57.886 Y74.927 E2.84976
G1 X54.564 Y76.302 E3.01499
G1 X51.000 Y76.772 E3.18022
G1 X47.436 Y76.302 E3.34545
G1 X44.114 Y74.927 E3.51068
G1 X43.218 Y74.239 E3.56260
G1 X43.218 Y52.156 E4.57754
G1 X42.734 Y51.523 F4500.000
G1 X43.870 Y50.651 F1200.000 E4.64336
G1 X47.309 Y49.226 E4.81445
G1 X51.000 Y48.740 E4.98553
G1 X54.691 Y49.226 E5.15662
G1 X58.130 Y50.651 E5.32771
G1 X59.266 Y51.523 E5.39353
G1 X59.266 Y74.477 E6.44852
G1 X58.130 Y75.349 E6.51434
G1 X54.691 Y76.774 E6.68543
G1 X51.000 Y77.260 E6.85651
G1 X47.309 Y76.774 E7.02760
G1 X43.870 Y75.349 E7.19869
G1 X42.734 Y74.477 E7.26451
G1 X42.734 Y51.917 E8.30138
G1 X42.250 Y51.284 F4500.000
G1 X43.626 Y50.228 F1200.000 E8.38110
G1 X47.183 Y48.755 E8.55804
G1 X51.000 Y48.252 E8.73498
G1 X54.817 Y48.755 E8.91192
G1 X58.374 Y50.228 E9.08886
G1 X59.750 Y51.284 E9.16858
G1 X59.750 Y74.716 E10.24551
G1 X58.374 Y75.772 E10.32523
G1 X54.817 Y77.245 E10.50217
G1 X51.000 Y77.748 E10.67911
G1 X50.936 Y77.739 E10.68209
G1 X50.936 Y77.739 E10.68209
G1 X47.183 Y77.245 E10.85605
G1 X43.626 Y75.772 E11.03299
G1 X42.250 Y74.716 E11.11271
G1 X42.250 Y51.678 E12.17152
G1 X43.702 Y51.605 F4500.000
G1 X43.702 Y74.395 F1200.000 E13.22412
G1 X44.188 Y74.768 F4500.000
G1 X44.188 Y51.232 F1200.000 E14.31122
G1 X44.675 Y50.970 F4500.000
G1 X44.675 Y75.030 F1200.000 E15.42247
G1 X45.161 Y75.231 F4500.000
G1 X45.161 Y50.769 F1200.000 E16.55234
G1 X45.648 Y50.567 F4500.000
G1 X45.648 Y75.433 F1200.000 E17.70082
G1 X46.134 Y75.634 F4500.000
G1 X46.134 Y50.366 F1200.000 E18.86793
G1 X46.621 Y50.164 F4500.000
G1 X46.621 Y57.474 F1200.000 E19.20553
G1 X47.108 Y56.840 E19.24245
G1 X47.108 Y49.963 E19.56008
G1 X47.594 Y49.770 F4500.000
G1 X47.594 Y56.205 F1200.000 E19.85731
G1 X48.081 Y55.794 F4500.000
G1 X48.081 Y49.706 F1200.000 E20.13849
G1 X48.567 Y49.642 F4500.000
G1 X48.567 Y55.421 F1200.000 E20.40539
G1 X49.054 Y55.193 F4500.000
G1 X49.054 Y49.578 F1200.000 E20.66473
G1 X49.540 Y49.514 F4500.000
G1 X49.540 Y54.991 F1200.000 E20.91771
G1 X50.027 Y54.860 F4500.000
G1 X50.027 Y49.450 F1200.000 E21.16757
G1 X50.513 Y49.386 F4500.000
G1 X50.513 Y54.796 F1200.000 E21.41744
G1 X51.000 Y54.732 F4500.000
G1 X51.000 Y49.322 F1200.000 E21.66730
G1 X51.487 Y49.386 F4500.000
G1 X51.487 Y54.796 F1200.000 E21.91716
G1 X51.973 Y54.860 F4500.000
G1 X51.973 Y49.450 F1200.000 E22.16703
G1 X52.460 Y49.514 F4500.000
G1 X52.460 Y54.991 F1200.000 E22.42001
G1 X52.946 Y55.193 F4500.000
G1 X52.946 Y49.578 F1200.000 E22.67935
G1 X53.433 Y49.642 F4500.000
G1 X53.433 Y55.421 F1200.000 E22.94625
G1 X53.919 Y55.794 F4500.000
G1 X53.919 Y49.706 F1200.000 E23.22743
G1 X54.406 Y49.770 F4500.000
G1 X54.406 Y56.205 F1200.000 E23.52466
G1 X54.892 Y56.840 E23.56158
G1 X54.892 Y49.963 E23.87921
G1 X55.379 Y50.164 F4500.000
G1 X55.379 Y57.801 F1200.000 E24.23193
G1 X55.866 Y59.132 E24.29737
G1 X55.866 Y75.634 E25.05960
G1 X56.352 Y75.433 F4500.000
G1 X56.352 Y50.567 F1200.000 E26.20809
G1 X55.866 Y50.366 F4500.000
G1 X55.866 Y59.231 F1200.000 E26.61757
G1 F1080.000 E25.61757
G92 E0
G1 X54.406 Y61.902 F4500.000
G1 F1080.000 E1.00000
G1 X54.406 Y64.098 F1200.000 E1.10147
G1 X54.892 Y64.732 E1.13838
G1 X54.892 Y61.267 E1.29842
G1 X55.379 Y60.306 E1.34819
G1 X55.379 Y65.694 E1.59704
G1 F1080.000 E0.59704
G92 E0
G1 X53.919 Y63.687 F4500.000
G1 F1080.000 E1.00000
G1 X53.919 Y62.313 F1200.000 E1.06347
G1 F1080.000 E0.06347
G92 E0
G1 X48.081 Y62.313 F4500.000
G1 F1080.000 E1.00000
G1 X48.081 Y63.687 F1200.000 E1.06346
G1 X47.594 Y64.098 F4500.000
G1 X47.594 Y61.902 F1200.000 E1.16492
G1 X47.108 Y61.268 E1.20184
G1 X47.108 Y64.732 E1.36188
G1 X46.621 Y64.881 F4500.000
G1 X46.621 Y60.306 F1200.000 E1.57320
G1 F1080.000 E0.57320
G92 E0
G1 X47.594 Y69.795 F4500.000
G1 F1080.000 E1.00000
G1 X47.594 Y76.230 F1200.000 E1.29723
G1 X48.081 Y76.294 F4500.000
G1 X48.081 Y70.206 F1200.000 E1.57842
G1 X48.567 Y70.579 F4500.000
G1 X48.567 Y76.358 F1200.000 E1.84531
G1 X49.054 Y76.422 F4500.000
G1 X49.054 Y71.012 F1200.000 E2.09518
G1 X49.540 Y71.076 F4500.000
G1 X49.540 Y76.486 F1200.000 E2.34504
G1 X50.027 Y76.550 F4500.000
G1 X50.027 Y71.397 F1200.000 E2.58307
G1 X50.513 Y71.332 F4500.000
G1 X50.513 Y76.614 F1200.000 E2.82702
G1 X51.000 Y76.678 F4500.000
G1 X51.000 Y71.268 F1200.000 E3.07688
G1 X51.487 Y71.204 F4500.000
G1 X51.487 Y76.614 F1200.000 E3.32675
G1 X51.973 Y76.550 F4500.000
G1 X51.973 Y71.140 F1200.000 E3.57662
G1 X52.460 Y71.009 F4500.000
G1 X52.460 Y76.486 F1200.000 E3.82960
G1 X52.946 Y76.422 F4500.000
G1 X52.946 Y70.807 F1200.000 E4.08893
G1 X53.433 Y70.579 F4500.000
G1 X53.433 Y76.358 F1200.000 E4.35584
G1 X53.919 Y76.294 F4500.000
G1 X53.919 Y70.206 F1200.000 E4.63702
G1 F1080.000 E3.63702
G92 E0
G1 X55.379 Y68.199 F4500.000
G1 F1080.000 E1.00000
G1 X55.379 Y75.836 F1200.000 E1.35272
G1 X54.892 Y76.037 F4500.000
G1 X54.892 Y69.160 F1200.000 E1.67035
G1 X54.406 Y69.795 E1.70727
G1 X54.406 Y76.230 E2.00450
G1 F1080.000 E1.00450
G92 E0
G1 X56.839 Y75.231 F4500.000
G1 F1080.000 E1.00000
G1 X56.839 Y50.769 F1200.000 E2.12987
G1 X57.325 Y50.970 F4500.000
G1 X57.325 Y75.030 F1200.000 E3.24112
G1 X57.812 Y74.768 F4500.000
G1 X57.812 Y51.232 F1200.000 E4.32821
G1 X58.298 Y51.605 F4500.000
G1 X58.298 Y74.395 F1200.000 E5.38081
G1 F1080.000 E4.38081
G92 E0
G1 X47.108 Y76.037 F4500.000
G1 F1080.000 E1.00000
G1 X47.108 Y69.160 F1200.000 E1.31763
G1 X46.621 Y68.199 E1.36739
G1 X46.621 Y75.836 E1.72011
