(Generated by PartKam Version 0.05)

G20 G90 G40

(drill 1-0)
G0 Z0.25
T0 M6
G17
M3
G0 X1.9771 Y3.1454
G1 Z-0.05 F25
G1 Z0 F25
G1 Z-0.1 F25
G1 Z0 F25
G1 Z-0.15 F25
G1 Z0 F25
G1 Z-0.2 F25
G1 Z0 F25
G1 Z-0.25 F25
G1 Z0 F25

(drill 1-1)
G0 Z0.25
G0 X2.7709 Y3.1419
G1 Z-0.05 F25
G1 Z0 F25
G1 Z-0.1 F25
G1 Z0 F25
G1 Z-0.15 F25
G1 Z0 F25
G1 Z-0.2 F25
G1 Z0 F25
G1 Z-0.25 F25
G1 Z0 F25

(profile 3-0)
G0 Z0.25
G0 X2.4114 Y2.0106
G1 Z-0.05 F25
G3 X2.4118 Y2.2444 I-77.6848 J0.2338 F25
G3 X2.4116 Y2.3851 I-77.6852 J0
G2 X2.4114 Y2.5905 I141.9951 J0.2572
G2 X2.4114 Y2.6035 I35.5341 J0.0129
G2 X2.4115 Y2.6917 I35.5341 J0
G2 X2.4109 Y2.7151 I0.4771 J0.0234
G1 X2.4109 Y2.7153
G2 X2.4116 Y2.7616 I1.734 J-0.0011
G3 X2.412 Y2.7892 I-1.009 J0.0276
G3 X2.4113 Y2.8263 I-1.0094 J0
G3 X2.4086 Y2.8525 I-0.2051 J-0.0076
G1 X2.4085 Y2.8534
G3 X2.4038 Y2.8629 I-0.0174 J-0.0026
G3 X2.3856 Y2.8739 I-0.029 J-0.0276
G3 X2.3626 Y2.8742 I-0.0122 J-0.0437
G3 X2.3522 Y2.8682 I0.0051 J-0.0207
G3 X2.3475 Y2.8622 I0.0399 J-0.0365
G3 X2.344 Y2.8562 I0.0395 J-0.0269
G3 X2.3415 Y2.8499 I0.0383 J-0.0187
G3 X2.3409 Y2.8473 I0.0313 J-0.0095
G3 X2.3399 Y2.6651 I28.0444 J-0.2366
G3 X2.3397 Y2.4314 I120.4324 J-0.2337
G3 X2.3398 Y2.2774 I120.4326 J0
G2 X2.3399 Y2.0673 I-164.3218 J-0.2101
G2 X2.3399 Y2.0512 I-164.3219 J0
G2 X2.3397 Y1.9334 I-45.514 J0.0045
G2 X2.34 Y1.921 I-0.327 J-0.0123
G2 X2.34 Y1.9199 I-0.3272 J0
G2 X2.3396 Y1.8928 I-1.2616 J0.0043
G3 X2.3394 Y1.8775 I0.6175 J-0.0154
G3 X2.3401 Y1.8488 I0.6176 J0
G3 X2.3417 Y1.8353 I0.0906 J0.0042
G3 X2.3477 Y1.8195 I0.051 J0.0102
G3 X2.3535 Y1.8127 I0.0208 J0.012
G2 X2.3559 Y1.8107 I-0.039 J-0.0489
G3 X2.3663 Y1.8059 I0.0135 J0.0153
G3 X2.3875 Y1.8082 I0.0062 J0.0418
G3 X2.4055 Y1.8208 I-0.0158 J0.0416
G3 X2.41 Y1.8293 I-0.0167 J0.0143
G3 X2.4114 Y2.0106 I-19.3579 J0.2396
G1 Z-0.1 F25
G3 X2.4118 Y2.2444 I-77.6848 J0.2338 F25
G3 X2.4116 Y2.3851 I-77.6852 J0
G2 X2.4114 Y2.5905 I141.9951 J0.2572
G2 X2.4114 Y2.6035 I35.5341 J0.0129
G2 X2.4115 Y2.6917 I35.5341 J0
G2 X2.4109 Y2.7151 I0.4771 J0.0234
G1 X2.4109 Y2.7153
G2 X2.4116 Y2.7616 I1.734 J-0.0011
G3 X2.412 Y2.7892 I-1.009 J0.0276
G3 X2.4113 Y2.8263 I-1.0094 J0
G3 X2.4086 Y2.8525 I-0.2051 J-0.0076
G1 X2.4085 Y2.8534
G3 X2.4038 Y2.8629 I-0.0174 J-0.0026
G3 X2.3856 Y2.8739 I-0.029 J-0.0276
G3 X2.3626 Y2.8742 I-0.0122 J-0.0437
G3 X2.3522 Y2.8682 I0.0051 J-0.0207
G3 X2.3475 Y2.8622 I0.0399 J-0.0365
G3 X2.344 Y2.8562 I0.0395 J-0.0269
G3 X2.3415 Y2.8499 I0.0383 J-0.0187
G3 X2.3409 Y2.8473 I0.0313 J-0.0095
G3 X2.3399 Y2.6651 I28.0444 J-0.2366
G3 X2.3397 Y2.4314 I120.4324 J-0.2337
G3 X2.3398 Y2.2774 I120.4326 J0
G2 X2.3399 Y2.0673 I-164.3218 J-0.2101
G2 X2.3399 Y2.0512 I-164.3219 J0
G2 X2.3397 Y1.9334 I-45.514 J0.0045
G2 X2.34 Y1.921 I-0.327 J-0.0123
G2 X2.34 Y1.9199 I-0.3272 J0
G2 X2.3396 Y1.8928 I-1.2616 J0.0043
G3 X2.3394 Y1.8775 I0.6175 J-0.0154
G3 X2.3401 Y1.8488 I0.6176 J0
G3 X2.3417 Y1.8353 I0.0906 J0.0042
G3 X2.3477 Y1.8195 I0.051 J0.0102
G3 X2.3535 Y1.8127 I0.0208 J0.012
G2 X2.3559 Y1.8107 I-0.039 J-0.0489
G3 X2.3663 Y1.8059 I0.0135 J0.0153
G3 X2.3875 Y1.8082 I0.0062 J0.0418
G3 X2.4055 Y1.8208 I-0.0158 J0.0416
G3 X2.41 Y1.8293 I-0.0167 J0.0143
G3 X2.4114 Y2.0106 I-19.3579 J0.2396
G1 Z-0.15 F25
G3 X2.4118 Y2.2444 I-77.6848 J0.2338 F25
G3 X2.4116 Y2.3851 I-77.6852 J0
G2 X2.4114 Y2.5905 I141.9951 J0.2572
G2 X2.4114 Y2.6035 I35.5341 J0.0129
G2 X2.4115 Y2.6917 I35.5341 J0
G2 X2.4109 Y2.7151 I0.4771 J0.0234
G1 X2.4109 Y2.7153
G2 X2.4116 Y2.7616 I1.734 J-0.0011
G3 X2.412 Y2.7892 I-1.009 J0.0276
G3 X2.4113 Y2.8263 I-1.0094 J0
G3 X2.4086 Y2.8525 I-0.2051 J-0.0076
G1 X2.4085 Y2.8534
G3 X2.4038 Y2.8629 I-0.0174 J-0.0026
G3 X2.3856 Y2.8739 I-0.029 J-0.0276
G3 X2.3626 Y2.8742 I-0.0122 J-0.0437
G3 X2.3522 Y2.8682 I0.0051 J-0.0207
G3 X2.3475 Y2.8622 I0.0399 J-0.0365
G3 X2.344 Y2.8562 I0.0395 J-0.0269
G3 X2.3415 Y2.8499 I0.0383 J-0.0187
G3 X2.3409 Y2.8473 I0.0313 J-0.0095
G3 X2.3399 Y2.6651 I28.0444 J-0.2366
G3 X2.3397 Y2.4314 I120.4324 J-0.2337
G3 X2.3398 Y2.2774 I120.4326 J0
G2 X2.3399 Y2.0673 I-164.3218 J-0.2101
G2 X2.3399 Y2.0512 I-164.3219 J0
G2 X2.3397 Y1.9334 I-45.514 J0.0045
G2 X2.34 Y1.921 I-0.327 J-0.0123
G2 X2.34 Y1.9199 I-0.3272 J0
G2 X2.3396 Y1.8928 I-1.2616 J0.0043
G3 X2.3394 Y1.8775 I0.6175 J-0.0154
G3 X2.3401 Y1.8488 I0.6176 J0
G3 X2.3417 Y1.8353 I0.0906 J0.0042
G3 X2.3477 Y1.8195 I0.051 J0.0102
G3 X2.3535 Y1.8127 I0.0208 J0.012
G2 X2.3559 Y1.8107 I-0.039 J-0.0489
G3 X2.3663 Y1.8059 I0.0135 J0.0153
G3 X2.3875 Y1.8082 I0.0062 J0.0418
G3 X2.4055 Y1.8208 I-0.0158 J0.0416
G3 X2.41 Y1.8293 I-0.0167 J0.0143
G3 X2.4114 Y2.0106 I-19.3579 J0.2396
G1 Z-0.2 F25
G3 X2.4118 Y2.2444 I-77.6848 J0.2338 F25
G3 X2.4116 Y2.3851 I-77.6852 J0
G2 X2.4114 Y2.5905 I141.9951 J0.2572
G2 X2.4114 Y2.6035 I35.5341 J0.0129
G2 X2.4115 Y2.6917 I35.5341 J0
G2 X2.4109 Y2.7151 I0.4771 J0.0234
G1 X2.4109 Y2.7153
G2 X2.4116 Y2.7616 I1.734 J-0.0011
G3 X2.412 Y2.7892 I-1.009 J0.0276
G3 X2.4113 Y2.8263 I-1.0094 J0
G3 X2.4086 Y2.8525 I-0.2051 J-0.0076
G1 X2.4085 Y2.8534
G3 X2.4038 Y2.8629 I-0.0174 J-0.0026
G3 X2.3856 Y2.8739 I-0.029 J-0.0276
G3 X2.3626 Y2.8742 I-0.0122 J-0.0437
G3 X2.3522 Y2.8682 I0.0051 J-0.0207
G3 X2.3475 Y2.8622 I0.0399 J-0.0365
G3 X2.344 Y2.8562 I0.0395 J-0.0269
G3 X2.3415 Y2.8499 I0.0383 J-0.0187
G3 X2.3409 Y2.8473 I0.0313 J-0.0095
G3 X2.3399 Y2.6651 I28.0444 J-0.2366
G3 X2.3397 Y2.4314 I120.4324 J-0.2337
G3 X2.3398 Y2.2774 I120.4326 J0
G2 X2.3399 Y2.0673 I-164.3218 J-0.2101
G2 X2.3399 Y2.0512 I-164.3219 J0
G2 X2.3397 Y1.9334 I-45.514 J0.0045
G2 X2.34 Y1.921 I-0.327 J-0.0123
G2 X2.34 Y1.9199 I-0.3272 J0
G2 X2.3396 Y1.8928 I-1.2616 J0.0043
G3 X2.3394 Y1.8775 I0.6175 J-0.0154
G3 X2.3401 Y1.8488 I0.6176 J0
G3 X2.3417 Y1.8353 I0.0906 J0.0042
G3 X2.3477 Y1.8195 I0.051 J0.0102
G3 X2.3535 Y1.8127 I0.0208 J0.012
G2 X2.3559 Y1.8107 I-0.039 J-0.0489
G3 X2.3663 Y1.8059 I0.0135 J0.0153
G3 X2.3875 Y1.8082 I0.0062 J0.0418
G3 X2.4055 Y1.8208 I-0.0158 J0.0416
G3 X2.41 Y1.8293 I-0.0167 J0.0143
G3 X2.4114 Y2.0106 I-19.3579 J0.2396
G1 Z-0.25 F25
G3 X2.4118 Y2.2444 I-77.6848 J0.2338 F25
G3 X2.4116 Y2.3851 I-77.6852 J0
G2 X2.4114 Y2.5905 I141.9951 J0.2572
G2 X2.4114 Y2.6035 I35.5341 J0.0129
G2 X2.4115 Y2.6917 I35.5341 J0
G2 X2.4109 Y2.7151 I0.4771 J0.0234
G1 X2.4109 Y2.7153
G2 X2.4116 Y2.7616 I1.734 J-0.0011
G3 X2.412 Y2.7892 I-1.009 J0.0276
G3 X2.4113 Y2.8263 I-1.0094 J0
G3 X2.4086 Y2.8525 I-0.2051 J-0.0076
G1 X2.4085 Y2.8534
G3 X2.4038 Y2.8629 I-0.0174 J-0.0026
G3 X2.3856 Y2.8739 I-0.029 J-0.0276
G3 X2.3626 Y2.8742 I-0.0122 J-0.0437
G3 X2.3522 Y2.8682 I0.0051 J-0.0207
G3 X2.3475 Y2.8622 I0.0399 J-0.0365
G3 X2.344 Y2.8562 I0.0395 J-0.0269
G3 X2.3415 Y2.8499 I0.0383 J-0.0187
G3 X2.3409 Y2.8473 I0.0313 J-0.0095
G3 X2.3399 Y2.6651 I28.0444 J-0.2366
G3 X2.3397 Y2.4314 I120.4324 J-0.2337
G3 X2.3398 Y2.2774 I120.4326 J0
G2 X2.3399 Y2.0673 I-164.3218 J-0.2101
G2 X2.3399 Y2.0512 I-164.3219 J0
G2 X2.3397 Y1.9334 I-45.514 J0.0045
G2 X2.34 Y1.921 I-0.327 J-0.0123
G2 X2.34 Y1.9199 I-0.3272 J0
G2 X2.3396 Y1.8928 I-1.2616 J0.0043
G3 X2.3394 Y1.8775 I0.6175 J-0.0154
G3 X2.3401 Y1.8488 I0.6176 J0
G3 X2.3417 Y1.8353 I0.0906 J0.0042
G3 X2.3477 Y1.8195 I0.051 J0.0102
G3 X2.3535 Y1.8127 I0.0208 J0.012
G2 X2.3559 Y1.8107 I-0.039 J-0.0489
G3 X2.3663 Y1.8059 I0.0135 J0.0153
G3 X2.3875 Y1.8082 I0.0062 J0.0418
G3 X2.4055 Y1.8208 I-0.0158 J0.0416
G3 X2.41 Y1.8293 I-0.0167 J0.0143
G3 X2.4114 Y2.0106 I-19.3579 J0.2396

(profile 3-1)
G0 Z0.25
G0 X3.9225 Y1.8051
G1 Z-0.05 F25
G1 X3.9353 Y1.8069 F25
G3 X3.9412 Y1.8093 I-0.0091 J0.03
G3 X3.9494 Y1.8153 I-0.0186 J0.0341
G3 X3.9559 Y1.8233 I-0.0279 J0.0293
G3 X3.9596 Y1.8313 I-0.0307 J0.019
G3 X3.9606 Y1.8398 I-0.0331 J0.0085
G3 X3.9606 Y1.8411 I-0.0342 J0
G3 X3.9583 Y1.8531 I-0.0406 J-0.0016
G3 X3.9528 Y1.8632 I-0.0346 J-0.0122
G3 X3.9467 Y1.8689 I-0.0197 J-0.0151
G2 X3.9441 Y1.8706 I0.0341 J0.0524
G3 X3.9364 Y1.8744 I-0.0152 J-0.021
G3 X3.9247 Y1.8761 I-0.0111 J-0.0366
G3 X3.913 Y1.874 I0.0006 J-0.0379
G3 X3.9056 Y1.87 I0.0083 J-0.0242
G2 X3.9028 Y1.868 I-0.0385 J0.0492
G3 X3.8969 Y1.8621 I0.0143 J-0.0205
G3 X3.8916 Y1.8517 I0.03 J-0.0217
G3 X3.8898 Y1.8399 I0.0373 J-0.0119
G1 X3.8898 Y1.8398
G3 X3.8913 Y1.8305 I0.0299 J0
G2 X3.8917 Y1.8291 I-0.0594 J-0.0196
G3 X3.8958 Y1.8209 I0.0268 J0.0082
G3 X3.9043 Y1.8124 I0.0308 J0.0224
G3 X3.9152 Y1.8068 I0.0241 J0.0332
G3 X3.9225 Y1.8051 I0.0112 J0.0332
G1 Z-0.1 F25
G1 X3.9353 Y1.8069 F25
G3 X3.9412 Y1.8093 I-0.0091 J0.03
G3 X3.9494 Y1.8153 I-0.0186 J0.0341
G3 X3.9559 Y1.8233 I-0.0279 J0.0293
G3 X3.9596 Y1.8313 I-0.0307 J0.019
G3 X3.9606 Y1.8398 I-0.0331 J0.0085
G3 X3.9606 Y1.8411 I-0.0342 J0
G3 X3.9583 Y1.8531 I-0.0406 J-0.0016
G3 X3.9528 Y1.8632 I-0.0346 J-0.0122
G3 X3.9467 Y1.8689 I-0.0197 J-0.0151
G2 X3.9441 Y1.8706 I0.0341 J0.0524
G3 X3.9364 Y1.8744 I-0.0152 J-0.021
G3 X3.9247 Y1.8761 I-0.0111 J-0.0366
G3 X3.913 Y1.874 I0.0006 J-0.0379
G3 X3.9056 Y1.87 I0.0083 J-0.0242
G2 X3.9028 Y1.868 I-0.0385 J0.0492
G3 X3.8969 Y1.8621 I0.0143 J-0.0205
G3 X3.8916 Y1.8517 I0.03 J-0.0217
G3 X3.8898 Y1.8399 I0.0373 J-0.0119
G1 X3.8898 Y1.8398
G3 X3.8913 Y1.8305 I0.0299 J0
G2 X3.8917 Y1.8291 I-0.0594 J-0.0196
G3 X3.8958 Y1.8209 I0.0268 J0.0082
G3 X3.9043 Y1.8124 I0.0308 J0.0224
G3 X3.9152 Y1.8068 I0.0241 J0.0332
G3 X3.9225 Y1.8051 I0.0112 J0.0332
G1 Z-0.15 F25
G1 X3.9353 Y1.8069 F25
G3 X3.9412 Y1.8093 I-0.0091 J0.03
G3 X3.9494 Y1.8153 I-0.0186 J0.0341
G3 X3.9559 Y1.8233 I-0.0279 J0.0293
G3 X3.9596 Y1.8313 I-0.0307 J0.019
G3 X3.9606 Y1.8398 I-0.0331 J0.0085
G3 X3.9606 Y1.8411 I-0.0342 J0
G3 X3.9583 Y1.8531 I-0.0406 J-0.0016
G3 X3.9528 Y1.8632 I-0.0346 J-0.0122
G3 X3.9467 Y1.8689 I-0.0197 J-0.0151
G2 X3.9441 Y1.8706 I0.0341 J0.0524
G3 X3.9364 Y1.8744 I-0.0152 J-0.021
G3 X3.9247 Y1.8761 I-0.0111 J-0.0366
G3 X3.913 Y1.874 I0.0006 J-0.0379
G3 X3.9056 Y1.87 I0.0083 J-0.0242
G2 X3.9028 Y1.868 I-0.0385 J0.0492
G3 X3.8969 Y1.8621 I0.0143 J-0.0205
G3 X3.8916 Y1.8517 I0.03 J-0.0217
G3 X3.8898 Y1.8399 I0.0373 J-0.0119
G1 X3.8898 Y1.8398
G3 X3.8913 Y1.8305 I0.0299 J0
G2 X3.8917 Y1.8291 I-0.0594 J-0.0196
G3 X3.8958 Y1.8209 I0.0268 J0.0082
G3 X3.9043 Y1.8124 I0.0308 J0.0224
G3 X3.9152 Y1.8068 I0.0241 J0.0332
G3 X3.9225 Y1.8051 I0.0112 J0.0332
G1 Z-0.2 F25
G1 X3.9353 Y1.8069 F25
G3 X3.9412 Y1.8093 I-0.0091 J0.03
G3 X3.9494 Y1.8153 I-0.0186 J0.0341
G3 X3.9559 Y1.8233 I-0.0279 J0.0293
G3 X3.9596 Y1.8313 I-0.0307 J0.019
G3 X3.9606 Y1.8398 I-0.0331 J0.0085
G3 X3.9606 Y1.8411 I-0.0342 J0
G3 X3.9583 Y1.8531 I-0.0406 J-0.0016
G3 X3.9528 Y1.8632 I-0.0346 J-0.0122
G3 X3.9467 Y1.8689 I-0.0197 J-0.0151
G2 X3.9441 Y1.8706 I0.0341 J0.0524
G3 X3.9364 Y1.8744 I-0.0152 J-0.021
G3 X3.9247 Y1.8761 I-0.0111 J-0.0366
G3 X3.913 Y1.874 I0.0006 J-0.0379
G3 X3.9056 Y1.87 I0.0083 J-0.0242
G2 X3.9028 Y1.868 I-0.0385 J0.0492
G3 X3.8969 Y1.8621 I0.0143 J-0.0205
G3 X3.8916 Y1.8517 I0.03 J-0.0217
G3 X3.8898 Y1.8399 I0.0373 J-0.0119
G1 X3.8898 Y1.8398
G3 X3.8913 Y1.8305 I0.0299 J0
G2 X3.8917 Y1.8291 I-0.0594 J-0.0196
G3 X3.8958 Y1.8209 I0.0268 J0.0082
G3 X3.9043 Y1.8124 I0.0308 J0.0224
G3 X3.9152 Y1.8068 I0.0241 J0.0332
G3 X3.9225 Y1.8051 I0.0112 J0.0332
G1 Z-0.25 F25
G1 X3.9353 Y1.8069 F25
G3 X3.9412 Y1.8093 I-0.0091 J0.03
G3 X3.9494 Y1.8153 I-0.0186 J0.0341
G3 X3.9559 Y1.8233 I-0.0279 J0.0293
G3 X3.9596 Y1.8313 I-0.0307 J0.019
G3 X3.9606 Y1.8398 I-0.0331 J0.0085
G3 X3.9606 Y1.8411 I-0.0342 J0
G3 X3.9583 Y1.8531 I-0.0406 J-0.0016
G3 X3.9528 Y1.8632 I-0.0346 J-0.0122
G3 X3.9467 Y1.8689 I-0.0197 J-0.0151
G2 X3.9441 Y1.8706 I0.0341 J0.0524
G3 X3.9364 Y1.8744 I-0.0152 J-0.021
G3 X3.9247 Y1.8761 I-0.0111 J-0.0366
G3 X3.913 Y1.874 I0.0006 J-0.0379
G3 X3.9056 Y1.87 I0.0083 J-0.0242
G2 X3.9028 Y1.868 I-0.0385 J0.0492
G3 X3.8969 Y1.8621 I0.0143 J-0.0205
G3 X3.8916 Y1.8517 I0.03 J-0.0217
G3 X3.8898 Y1.8399 I0.0373 J-0.0119
G1 X3.8898 Y1.8398
G3 X3.8913 Y1.8305 I0.0299 J0
G2 X3.8917 Y1.8291 I-0.0594 J-0.0196
G3 X3.8958 Y1.8209 I0.0268 J0.0082
G3 X3.9043 Y1.8124 I0.0308 J0.0224
G3 X3.9152 Y1.8068 I0.0241 J0.0332
G3 X3.9225 Y1.8051 I0.0112 J0.0332

(profile outside-0)
G0 Z0.25
G0 X0.5007 Y0.4382
G1 Z-0.025 F25
G2 X0.4382 Y0.5007 I0 J0.0625 F25
G1 X0.4382 Y1.3924
G1 X0.4382 Y1.6525
G1 X0.4382 Y3.6009
G1 X0.4382 Y3.8509
G1 X0.4382 Y4.7807
G2 X0.5007 Y4.8432 I0.0625 J0
G1 X1.1735 Y4.8432
G1 X1.4241 Y4.8432
G1 X1.9757 Y4.8432
G2 X2.0382 Y4.7807 I0 J-0.0625
G1 X2.0382 Y3.2016
G1 X2.7132 Y3.2016
G1 X2.7132 Y4.7807
G2 X2.7757 Y4.8432 I0.0625 J0
G1 X3.9049 Y4.8432
G1 X4.1549 Y4.8432
G1 X5.1301 Y4.8432
G2 X5.1926 Y4.7807 I0 J-0.0625
G1 X5.1926 Y3.767
G1 X5.1926 Y3.517
G1 X5.1926 Y1.7515
G1 X5.1926 Y1.4801
G1 X5.1926 Y0.5007
G2 X5.1301 Y0.4382 I-0.0625 J0
G1 X4.0348 Y0.4382
G1 X3.7848 Y0.4382
G1 X1.8049 Y0.4382
G1 X1.5549 Y0.4382
G1 X0.5007 Y0.4382
G1 Z-0.05 F25
G2 X0.4382 Y0.5007 I0 J0.0625 F25
G1 X0.4382 Y1.3924
G1 X0.4382 Y1.6525
G1 X0.4382 Y3.6009
G1 X0.4382 Y3.8509
G1 X0.4382 Y4.7807
G2 X0.5007 Y4.8432 I0.0625 J0
G1 X1.1735 Y4.8432
G1 X1.4241 Y4.8432
G1 X1.9757 Y4.8432
G2 X2.0382 Y4.7807 I0 J-0.0625
G1 X2.0382 Y3.2016
G1 X2.7132 Y3.2016
G1 X2.7132 Y4.7807
G2 X2.7757 Y4.8432 I0.0625 J0
G1 X3.9049 Y4.8432
G1 X4.1549 Y4.8432
G1 X5.1301 Y4.8432
G2 X5.1926 Y4.7807 I0 J-0.0625
G1 X5.1926 Y3.767
G1 X5.1926 Y3.517
G1 X5.1926 Y1.7515
G1 X5.1926 Y1.4801
G1 X5.1926 Y0.5007
G2 X5.1301 Y0.4382 I-0.0625 J0
G1 X4.0348 Y0.4382
G1 X3.7848 Y0.4382
G1 X1.8049 Y0.4382
G1 X1.5549 Y0.4382
G1 X0.5007 Y0.4382
G1 Z-0.075 F25
G2 X0.4382 Y0.5007 I0 J0.0625 F25
G1 X0.4382 Y1.3924
G1 X0.4382 Y1.6525
G1 X0.4382 Y3.6009
G1 X0.4382 Y3.8509
G1 X0.4382 Y4.7807
G2 X0.5007 Y4.8432 I0.0625 J0
G1 X1.1735 Y4.8432
G1 X1.4241 Y4.8432
G1 X1.9757 Y4.8432
G2 X2.0382 Y4.7807 I0 J-0.0625
G1 X2.0382 Y3.2016
G1 X2.7132 Y3.2016
G1 X2.7132 Y4.7807
G2 X2.7757 Y4.8432 I0.0625 J0
G1 X3.9049 Y4.8432
G1 X4.1549 Y4.8432
G1 X5.1301 Y4.8432
G2 X5.1926 Y4.7807 I0 J-0.0625
G1 X5.1926 Y3.767
G1 X5.1926 Y3.517
G1 X5.1926 Y1.7515
G1 X5.1926 Y1.4801
G1 X5.1926 Y0.5007
G2 X5.1301 Y0.4382 I-0.0625 J0
G1 X4.0348 Y0.4382
G1 X3.7848 Y0.4382
G1 X1.8049 Y0.4382
G1 X1.5549 Y0.4382
G1 X0.5007 Y0.4382
G1 Z-0.1 F25
G2 X0.4382 Y0.5007 I0 J0.0625 F25
G1 X0.4382 Y1.3924
G1 X0.4382 Y1.6525
G1 X0.4382 Y3.6009
G1 X0.4382 Y3.8509
G1 X0.4382 Y4.7807
G2 X0.5007 Y4.8432 I0.0625 J0
G1 X1.1735 Y4.8432
G1 X1.4241 Y4.8432
G1 X1.9757 Y4.8432
G2 X2.0382 Y4.7807 I0 J-0.0625
G1 X2.0382 Y3.2016
G1 X2.7132 Y3.2016
G1 X2.7132 Y4.7807
G2 X2.7757 Y4.8432 I0.0625 J0
G1 X3.9049 Y4.8432
G1 X4.1549 Y4.8432
G1 X5.1301 Y4.8432
G2 X5.1926 Y4.7807 I0 J-0.0625
G1 X5.1926 Y3.767
G1 X5.1926 Y3.517
G1 X5.1926 Y1.7515
G1 X5.1926 Y1.4801
G1 X5.1926 Y0.5007
G2 X5.1301 Y0.4382 I-0.0625 J0
G1 X4.0348 Y0.4382
G1 X3.7848 Y0.4382
G1 X1.8049 Y0.4382
G1 X1.5549 Y0.4382
G1 X0.5007 Y0.4382
G1 Z-0.125 F25
G2 X0.4382 Y0.5007 I0 J0.0625 F25
G1 X0.4382 Y1.3924
G1 X0.4382 Y1.6525
G1 X0.4382 Y3.6009
G1 X0.4382 Y3.8509
G1 X0.4382 Y4.7807
G2 X0.5007 Y4.8432 I0.0625 J0
G1 X1.1735 Y4.8432
G1 X1.4241 Y4.8432
G1 X1.9757 Y4.8432
G2 X2.0382 Y4.7807 I0 J-0.0625
G1 X2.0382 Y3.2016
G1 X2.7132 Y3.2016
G1 X2.7132 Y4.7807
G2 X2.7757 Y4.8432 I0.0625 J0
G1 X3.9049 Y4.8432
G1 X4.1549 Y4.8432
G1 X5.1301 Y4.8432
G2 X5.1926 Y4.7807 I0 J-0.0625
G1 X5.1926 Y3.767
G1 X5.1926 Y3.517
G1 X5.1926 Y1.7515
G1 X5.1926 Y1.4801
G1 X5.1926 Y0.5007
G2 X5.1301 Y0.4382 I-0.0625 J0
G1 X4.0348 Y0.4382
G1 X3.7848 Y0.4382
G1 X1.8049 Y0.4382
G1 X1.5549 Y0.4382
G1 X0.5007 Y0.4382
G1 Z-0.15 F25
G2 X0.4382 Y0.5007 I0 J0.0625 F25
G1 X0.4382 Y1.3924
G1 X0.4382 Y1.6525
G1 X0.4382 Y3.6009
G1 X0.4382 Y3.8509
G1 X0.4382 Y4.7807
G2 X0.5007 Y4.8432 I0.0625 J0
G1 X1.1735 Y4.8432
G1 X1.4241 Y4.8432
G1 X1.9757 Y4.8432
G2 X2.0382 Y4.7807 I0 J-0.0625
G1 X2.0382 Y3.2016
G1 X2.7132 Y3.2016
G1 X2.7132 Y4.7807
G2 X2.7757 Y4.8432 I0.0625 J0
G1 X3.9049 Y4.8432
G1 X4.1549 Y4.8432
G1 X5.1301 Y4.8432
G2 X5.1926 Y4.7807 I0 J-0.0625
G1 X5.1926 Y3.767
G1 X5.1926 Y3.517
G1 X5.1926 Y1.7515
G1 X5.1926 Y1.4801
G1 X5.1926 Y0.5007
G2 X5.1301 Y0.4382 I-0.0625 J0
G1 X4.0348 Y0.4382
G1 X3.7848 Y0.4382
G1 X1.8049 Y0.4382
G1 X1.5549 Y0.4382
G1 X0.5007 Y0.4382
G1 Z-0.175 F25
G2 X0.4382 Y0.5007 I0 J0.0625 F25
G1 X0.4382 Y1.3924
G1 Z-0.15 F25
G1 X0.4382 Y1.6525 F25
G1 Z-0.175 F25
G1 X0.4382 Y3.6009 F25
G1 Z-0.15 F25
G1 X0.4382 Y3.8509 F25
G1 Z-0.175 F25
G1 X0.4382 Y4.7807 F25
G2 X0.5007 Y4.8432 I0.0625 J0
G1 X1.1735 Y4.8432
G1 Z-0.15 F25
G1 X1.4241 Y4.8432 F25
G1 Z-0.175 F25
G1 X1.9757 Y4.8432 F25
G2 X2.0382 Y4.7807 I0 J-0.0625
G1 X2.0382 Y3.2016
G1 X2.7132 Y3.2016
G1 X2.7132 Y4.7807
G2 X2.7757 Y4.8432 I0.0625 J0
G1 X3.9049 Y4.8432
G1 Z-0.15 F25
G1 X4.1549 Y4.8432 F25
G1 Z-0.175 F25
G1 X5.1301 Y4.8432 F25
G2 X5.1926 Y4.7807 I0 J-0.0625
G1 X5.1926 Y3.767
G1 Z-0.15 F25
G1 X5.1926 Y3.517 F25
G1 Z-0.175 F25
G1 X5.1926 Y1.7515 F25
G1 Z-0.15 F25
G1 X5.1926 Y1.4801 F25
G1 Z-0.175 F25
G1 X5.1926 Y0.5007 F25
G2 X5.1301 Y0.4382 I-0.0625 J0
G1 X4.0348 Y0.4382
G1 Z-0.15 F25
G1 X3.7848 Y0.4382 F25
G1 Z-0.175 F25
G1 X1.8049 Y0.4382 F25
G1 Z-0.15 F25
G1 X1.5549 Y0.4382 F25
G1 Z-0.175 F25
G1 X0.5007 Y0.4382 F25
G1 Z-0.2 F25
G2 X0.4382 Y0.5007 I0 J0.0625 F25
G1 X0.4382 Y1.3924
G1 Z-0.15 F25
G1 X0.4382 Y1.6525 F25
G1 Z-0.2 F25
G1 X0.4382 Y3.6009 F25
G1 Z-0.15 F25
G1 X0.4382 Y3.8509 F25
G1 Z-0.2 F25
G1 X0.4382 Y4.7807 F25
G2 X0.5007 Y4.8432 I0.0625 J0
G1 X1.1735 Y4.8432
G1 Z-0.15 F25
G1 X1.4241 Y4.8432 F25
G1 Z-0.2 F25
G1 X1.9757 Y4.8432 F25
G2 X2.0382 Y4.7807 I0 J-0.0625
G1 X2.0382 Y3.2016
G1 X2.7132 Y3.2016
G1 X2.7132 Y4.7807
G2 X2.7757 Y4.8432 I0.0625 J0
G1 X3.9049 Y4.8432
G1 Z-0.15 F25
G1 X4.1549 Y4.8432 F25
G1 Z-0.2 F25
G1 X5.1301 Y4.8432 F25
G2 X5.1926 Y4.7807 I0 J-0.0625
G1 X5.1926 Y3.767
G1 Z-0.15 F25
G1 X5.1926 Y3.517 F25
G1 Z-0.2 F25
G1 X5.1926 Y1.7515 F25
G1 Z-0.15 F25
G1 X5.1926 Y1.4801 F25
G1 Z-0.2 F25
G1 X5.1926 Y0.5007 F25
G2 X5.1301 Y0.4382 I-0.0625 J0
G1 X4.0348 Y0.4382
G1 Z-0.15 F25
G1 X3.7848 Y0.4382 F25
G1 Z-0.2 F25
G1 X1.8049 Y0.4382 F25
G1 Z-0.15 F25
G1 X1.5549 Y0.4382 F25
G1 Z-0.2 F25
G1 X0.5007 Y0.4382 F25
G1 Z-0.225 F25
G2 X0.4382 Y0.5007 I0 J0.0625 F25
G1 X0.4382 Y1.3924
G1 Z-0.15 F25
G1 X0.4382 Y1.6525 F25
G1 Z-0.225 F25
G1 X0.4382 Y3.6009 F25
G1 Z-0.15 F25
G1 X0.4382 Y3.8509 F25
G1 Z-0.225 F25
G1 X0.4382 Y4.7807 F25
G2 X0.5007 Y4.8432 I0.0625 J0
G1 X1.1735 Y4.8432
G1 Z-0.15 F25
G1 X1.4241 Y4.8432 F25
G1 Z-0.225 F25
G1 X1.9757 Y4.8432 F25
G2 X2.0382 Y4.7807 I0 J-0.0625
G1 X2.0382 Y3.2016
G1 X2.7132 Y3.2016
G1 X2.7132 Y4.7807
G2 X2.7757 Y4.8432 I0.0625 J0
G1 X3.9049 Y4.8432
G1 Z-0.15 F25
G1 X4.1549 Y4.8432 F25
G1 Z-0.225 F25
G1 X5.1301 Y4.8432 F25
G2 X5.1926 Y4.7807 I0 J-0.0625
G1 X5.1926 Y3.767
G1 Z-0.15 F25
G1 X5.1926 Y3.517 F25
G1 Z-0.225 F25
G1 X5.1926 Y1.7515 F25
G1 Z-0.15 F25
G1 X5.1926 Y1.4801 F25
G1 Z-0.225 F25
G1 X5.1926 Y0.5007 F25
G2 X5.1301 Y0.4382 I-0.0625 J0
G1 X4.0348 Y0.4382
G1 Z-0.15 F25
G1 X3.7848 Y0.4382 F25
G1 Z-0.225 F25
G1 X1.8049 Y0.4382 F25
G1 Z-0.15 F25
G1 X1.5549 Y0.4382 F25
G1 Z-0.225 F25
G1 X0.5007 Y0.4382 F25
G1 Z-0.25 F25
G2 X0.4382 Y0.5007 I0 J0.0625 F25
G1 X0.4382 Y1.3924
G1 Z-0.15 F25
G1 X0.4382 Y1.6525 F25
G1 Z-0.25 F25
G1 X0.4382 Y3.6009 F25
G1 Z-0.15 F25
G1 X0.4382 Y3.8509 F25
G1 Z-0.25 F25
G1 X0.4382 Y4.7807 F25
G2 X0.5007 Y4.8432 I0.0625 J0
G1 X1.1735 Y4.8432
G1 Z-0.15 F25
G1 X1.4241 Y4.8432 F25
G1 Z-0.25 F25
G1 X1.9757 Y4.8432 F25
G2 X2.0382 Y4.7807 I0 J-0.0625
G1 X2.0382 Y3.2016
G1 X2.7132 Y3.2016
G1 X2.7132 Y4.7807
G2 X2.7757 Y4.8432 I0.0625 J0
G1 X3.9049 Y4.8432
G1 Z-0.15 F25
G1 X4.1549 Y4.8432 F25
G1 Z-0.25 F25
G1 X5.1301 Y4.8432 F25
G2 X5.1926 Y4.7807 I0 J-0.0625
G1 X5.1926 Y3.767
G1 Z-0.15 F25
G1 X5.1926 Y3.517 F25
G1 Z-0.25 F25
G1 X5.1926 Y1.7515 F25
G1 Z-0.15 F25
G1 X5.1926 Y1.4801 F25
G1 Z-0.25 F25
G1 X5.1926 Y0.5007 F25
G2 X5.1301 Y0.4382 I-0.0625 J0
G1 X4.0348 Y0.4382
G1 Z-0.15 F25
G1 X3.7848 Y0.4382 F25
G1 Z-0.25 F25
G1 X1.8049 Y0.4382 F25
G1 Z-0.15 F25
G1 X1.5549 Y0.4382 F25
G1 Z-0.25 F25
G1 X0.5007 Y0.4382 F25
G0 Z0.25
M5
M30
