; generated by Slic3r 0.9.3 on 2013-06-02 at 12:51:26

; layer_height = .25
; perimeters = 3
; solid_layers = 2
; fill_density = 0.3
; perimeter_speed = 30
; infill_speed = 60
; travel_speed = 75
; scale = 1
; nozzle_diameter = 0.35
; filament_diameter = 1.8
; extrusion_multiplier = 1
; single wall width = 0.39mm

M107
G92 E0	;reset extruder location
G1 E5	;Prime extruder
G28	;Go Home
;G1 E20	Prime extruder
G90 ; use absolute coordinates
G21 ; set units to millimeters
G92 E0
M82 ; use absolute distances for extrusion
G1 F1080.000 E-1.00000
G92 E0
G1 Z0.250 F4500.000
G1 X66.914 Y38.643
G1 F1080.000 E1.00000
G1 X67.884 Y37.783 F1200.000 E1.04901
G1 X68.444 Y37.363 E1.07548
G1 X69.694 Y36.553 E1.13179
G1 X70.864 Y35.943 E1.18168
G1 X71.854 Y35.533 E1.22220
G1 X72.544 Y35.303 E1.24969
G1 X72.614 Y35.273 E1.25257
G1 X73.784 Y34.963 E1.29834
G1 X75.204 Y34.723 E1.35279
G1 X76.554 Y34.623 E1.40397
G1 X77.834 Y34.643 E1.45237
G1 X79.114 Y34.783 E1.50105
G1 X79.764 Y34.893 E1.52598
G1 X81.454 Y35.343 E1.59210
G1 X82.144 Y35.593 E1.61985
G1 X82.204 Y35.623 E1.62238
G1 X82.874 Y35.893 E1.64970
G1 X83.684 Y36.293 E1.68385
G1 X84.994 Y37.083 E1.74169
G1 X86.044 Y37.863 E1.79114
G1 X87.014 Y38.733 E1.84041
G1 X87.624 Y39.363 E1.87356
G1 X87.934 Y39.723 E1.89153
G1 X87.974 Y39.763 E1.89366
G1 X88.284 Y40.133 E1.91192
G1 X89.184 Y41.423 E1.97139
G1 X89.814 Y42.533 E2.01964
G1 X90.024 Y42.963 E2.03773
G1 X90.524 Y44.193 E2.08793
G1 X90.904 Y45.413 E2.13625
G1 X91.214 Y46.913 E2.19416
G1 X91.334 Y48.043 E2.23712
G1 X91.334 Y48.113 E2.23977
G1 X91.374 Y48.833 E2.26703
G1 X91.294 Y50.583 E2.33327
G1 X91.174 Y51.463 E2.36685
G1 X90.944 Y52.553 E2.40897
G1 X90.534 Y53.923 E2.46303
G1 X90.034 Y55.143 E2.51288
G1 X89.414 Y56.343 E2.56395
G1 X88.824 Y57.273 E2.60559
G1 X88.004 Y58.343 E2.65656
G1 X58.694 Y87.703 E4.22509
G1 X57.824 Y88.423 E4.26779
G1 X56.244 Y89.473 E4.33951
G1 X54.904 Y90.143 E4.39616
G1 X54.234 Y90.423 E4.42361
G1 X52.994 Y90.833 E4.47299
G1 X51.904 Y91.093 E4.51536
G1 X50.464 Y91.303 E4.57038
G1 X49.354 Y91.373 E4.61243
G1 X48.074 Y91.343 E4.66084
G1 X46.724 Y91.183 E4.71224
G1 X45.454 Y90.913 E4.76133
G1 X44.594 Y90.663 E4.79519
G1 X44.144 Y90.503 E4.81325
G1 X44.074 Y90.483 E4.81600
G1 X43.624 Y90.313 E4.83419
G1 X42.394 Y89.733 E4.88560
G1 X41.284 Y89.103 E4.93386
G1 X40.684 Y88.693 E4.96133
G1 X40.184 Y88.303 E4.98531
G1 X40.094 Y88.243 E4.98940
G1 X39.194 Y87.463 E5.03443
G1 X38.604 Y86.883 E5.06571
G1 X37.864 Y86.043 E5.10803
G1 X37.494 Y85.573 E5.13065
G1 X37.064 Y84.943 E5.15949
G1 X37.024 Y84.893 E5.16191
G1 X36.344 Y83.773 E5.21145
G1 X36.134 Y83.373 E5.22853
G1 X35.584 Y82.093 E5.28120
G1 X35.554 Y82.033 E5.28374
G1 X35.284 Y81.273 E5.31423
G1 X35.154 Y80.813 E5.33231
G1 X35.134 Y80.713 E5.33616
G1 X34.874 Y79.633 E5.37816
G1 X34.734 Y78.753 E5.41185
G1 X34.634 Y77.453 E5.46115
G1 X34.634 Y76.353 E5.50274
G1 X34.764 Y74.843 E5.56004
G1 X35.014 Y73.583 E5.60861
G1 X35.254 Y72.683 E5.64382
G1 X35.764 Y71.293 E5.69980
G1 X36.434 Y69.913 E5.75780
G1 X37.334 Y68.493 E5.82137
G1 X38.284 Y67.303 E5.87894
G1 X66.636 Y38.922 E7.39566
G1 X67.184 Y38.913 F4500.000
G1 X67.694 Y38.463 F1200.000 E7.42138
G1 X67.764 Y38.393 E7.42512
G1 X68.134 Y38.083 E7.44337
G1 X69.204 Y37.313 E7.49321
G1 X70.394 Y36.613 E7.54541
G1 X71.544 Y36.073 E7.59345
G1 X71.994 Y35.893 E7.61177
G1 X73.404 Y35.453 E7.66762
G1 X74.474 Y35.223 E7.70899
G1 X75.724 Y35.063 E7.75664
G1 X76.554 Y35.013 E7.78808
G1 X77.804 Y35.033 E7.83535
G1 X78.284 Y35.073 E7.85356
G1 X79.704 Y35.283 E7.90783
G1 X80.794 Y35.553 E7.95029
G1 X81.554 Y35.793 E7.98042
G1 X82.514 Y36.163 E8.01932
G1 X83.494 Y36.633 E8.06041
G1 X84.784 Y37.413 E8.11741
G1 X85.804 Y38.173 E8.16550
G1 X86.754 Y39.013 E8.21345
G1 X87.984 Y40.383 E8.28306
G1 X88.744 Y41.453 E8.33268
G1 X89.464 Y42.703 E8.38722
G1 X89.924 Y43.703 E8.42884
G1 X90.394 Y45.063 E8.48324
G1 X90.674 Y46.143 E8.52542
G1 X90.824 Y46.963 E8.55694
G1 X90.944 Y48.073 E8.59915
G1 X90.944 Y48.143 E8.60180
G1 X90.984 Y48.833 E8.62793
G1 X90.904 Y50.553 E8.69303
G1 X90.794 Y51.393 E8.72506
G1 X90.534 Y52.593 E8.77149
G1 X90.164 Y53.783 E8.81860
G1 X89.684 Y54.973 E8.86712
G1 X89.154 Y56.003 E8.91091
G1 X88.394 Y57.203 E8.96462
G1 X87.334 Y58.523 E9.02862
G1 X86.854 Y59.023 E9.05483
G1 X86.824 Y59.063 E9.05672
G1 X58.554 Y87.313 E10.56777
G1 X57.584 Y88.113 E10.61531
G1 X56.534 Y88.833 E10.66344
G1 X55.814 Y89.263 E10.69515
G1 X54.864 Y89.733 E10.73522
G1 X54.104 Y90.053 E10.76640
G1 X52.904 Y90.453 E10.81423
G1 X51.824 Y90.713 E10.85623
G1 X50.434 Y90.913 E10.90932
G1 X49.334 Y90.983 E10.95099
G1 X48.094 Y90.953 E10.99789
G1 X46.584 Y90.763 E11.05543
G1 X44.964 Y90.373 E11.11843
G1 X43.564 Y89.863 E11.17477
G1 X42.034 Y89.093 E11.23953
G1 X41.314 Y88.653 E11.27143
G1 X40.414 Y87.993 E11.31363
G1 X39.814 Y87.503 E11.34292
G1 X38.894 Y86.623 E11.39105
G1 X38.164 Y85.793 E11.43284
G1 X37.654 Y85.133 E11.46438
G1 X37.384 Y84.733 E11.48262
G1 X36.694 Y83.593 E11.53301
G1 X36.484 Y83.193 E11.55009
G1 X35.944 Y81.953 E11.60122
G1 X35.664 Y81.163 E11.63291
G1 X35.354 Y80.023 E11.67758
G1 X35.254 Y79.553 E11.69575
G1 X35.074 Y78.233 E11.74612
G1 X35.014 Y76.853 E11.79834
G1 X35.074 Y75.603 E11.84566
G1 X35.154 Y74.903 E11.87230
G1 X35.354 Y73.833 E11.91345
G1 X35.624 Y72.803 E11.95371
G1 X36.124 Y71.433 E12.00885
G1 X36.764 Y70.113 E12.06431
G1 X37.654 Y68.703 E12.12736
G1 X38.484 Y67.663 E12.17766
G1 X66.906 Y39.192 E13.69866
G1 F1080.000 E12.69866
G92 E0
G1 X56.421 Y72.639 F4500.000
G1 F1080.000 E1.00000
G1 X56.648 Y73.054 F1200.000 E1.02174
G1 X56.851 Y73.480 E1.04347
G1 X57.030 Y73.917 E1.06518
G1 X57.185 Y74.364 E1.08691
G1 X57.315 Y74.818 E1.10863
G1 X57.741 Y76.703 E1.19744
G1 X57.576 Y76.703 E1.20501
G1 X57.576 Y77.160 E1.22599
G1 X57.550 Y77.632 E1.24771
G1 X57.498 Y78.101 E1.26943
G1 X57.419 Y78.568 E1.29116
G1 X57.315 Y79.028 E1.31288
G1 X57.182 Y79.495 E1.33516
G1 X57.182 Y79.495 E1.33516
G1 X56.951 Y80.305 E1.37388
G1 X56.881 Y80.305 E1.37709
G1 X56.648 Y80.793 E1.40197
G1 X56.421 Y81.208 E1.42370
G1 X56.171 Y81.610 E1.44542
G1 X55.900 Y81.997 E1.46714
G1 X55.608 Y82.368 E1.48886
G1 X55.295 Y82.722 E1.51058
G1 X54.963 Y83.059 E1.53231
G1 X54.613 Y83.376 E1.55403
G1 X53.444 Y84.324 E1.62321
G1 X53.376 Y84.256 E1.62764
G1 X53.053 Y84.438 E1.64465
G1 X52.630 Y84.647 E1.66637
G1 X50.907 Y85.382 E1.75246
G1 X50.907 Y85.247 E1.75866
G1 X50.113 Y85.486 E1.79674
G1 X50.113 Y85.415 E1.79999
G1 X49.706 Y85.513 E1.81921
G1 X49.706 Y85.398 E1.82449
G1 X49.433 Y85.417 E1.83709
G1 X48.960 Y85.424 E1.85881
G1 X48.488 Y85.404 E1.88053
G1 X47.782 Y85.335 E1.91315
G1 X47.782 Y85.335 E1.91315
G1 X47.208 Y85.279 E1.93965
G1 X47.208 Y85.221 E1.94233
G1 X46.632 Y85.065 E1.96975
G1 X46.183 Y84.916 E1.99148
G1 X45.744 Y84.743 E2.01320
G1 X45.314 Y84.546 E2.03492
G1 X44.896 Y84.325 E2.05664
G1 X44.492 Y84.081 E2.07836
G1 X44.101 Y83.815 E2.10008
G1 X43.726 Y83.528 E2.12181
G1 X43.367 Y83.220 E2.14353
G1 X43.026 Y82.893 E2.16525
G1 X42.428 Y82.252 E2.20550
G1 X42.444 Y82.236 E2.20653
G1 X41.729 Y81.379 E2.25784
G1 X41.771 Y81.337 E2.26054
G1 X41.525 Y81.006 E2.27950
G1 X41.573 Y80.911 E2.28443
G1 X41.405 Y80.582 E2.30142
G1 X41.213 Y80.149 E2.32314
G1 X41.046 Y79.707 E2.34486
G1 X40.904 Y79.257 E2.36659
G1 X40.787 Y78.799 E2.38830
G1 X40.696 Y78.335 E2.41003
G1 X40.445 Y76.544 E2.49314
G1 X40.567 Y76.544 E2.49875
G1 X40.559 Y76.250 E2.51227
G1 X40.592 Y76.250 E2.51380
G1 X40.630 Y75.980 E2.52634
G1 X40.680 Y75.386 E2.55372
G1 X40.720 Y75.386 E2.55559
G1 X40.788 Y75.043 E2.57166
G1 X40.788 Y75.043 E2.57166
G1 X40.889 Y74.532 E2.59558
G1 X40.922 Y74.532 E2.59713
G1 X41.046 Y74.140 E2.61606
G1 X41.248 Y73.606 E2.64227
G1 X41.231 Y73.606 E2.64307
G1 X41.620 Y72.845 E2.68237
G1 X41.858 Y72.436 E2.70410
G1 X41.987 Y72.241 E2.71486
G1 X41.963 Y72.188 E2.71754
G1 X42.703 Y71.300 E2.77070
G1 X43.026 Y70.954 E2.79242
G1 X44.140 Y69.886 E2.86335
G1 X44.248 Y69.932 E2.86875
G1 X44.492 Y69.766 E2.88231
G1 X44.897 Y69.522 E2.90404
G1 X45.314 Y69.301 E2.92576
G1 X45.744 Y69.104 E2.94748
G1 X46.185 Y68.930 E2.96927
G1 X47.514 Y68.490 E3.03364
G1 X47.514 Y68.566 E3.03716
G1 X48.018 Y68.489 E3.06056
G1 X48.724 Y68.420 E3.09316
G1 X49.433 Y68.430 E3.12576
G1 X49.905 Y68.463 E3.14749
G1 X50.373 Y68.522 E3.16921
G1 X50.838 Y68.607 E3.19093
G1 X51.298 Y68.717 E3.21265
G1 X51.748 Y68.853 E3.23426
G1 X51.748 Y68.853 E3.23426
G1 X51.750 Y68.853 E3.23437
G1 X51.751 Y68.853 E3.23439
G1 X51.861 Y68.887 E3.23969
G1 X51.861 Y68.893 E3.24000
G1 X52.937 Y69.283 E3.29261
G1 X52.937 Y69.343 E3.29538
G1 X53.465 Y69.641 E3.32322
G1 X53.809 Y69.862 E3.34198
G1 X53.809 Y69.862 E3.34198
G1 X53.863 Y69.896 E3.34494
G1 X54.246 Y70.173 E3.36666
G1 X54.742 Y70.576 E3.39603
G1 X54.742 Y70.588 E3.39660
G1 X54.963 Y70.788 E3.41030
G1 X55.295 Y71.125 E3.43201
G1 X55.295 Y71.125 E3.43202
G1 X55.419 Y71.250 E3.44011
G1 X55.412 Y71.257 E3.44057
G1 X55.608 Y71.479 E3.45418
G1 X55.900 Y71.851 E3.47590
G1 X56.172 Y72.237 E3.49763
G1 X56.213 Y72.304 E3.50120
G1 X55.768 Y72.504 F4500.000
G1 X55.976 Y72.840 F1200.000 E3.51935
G1 X55.976 Y72.840 E3.51935
G1 X56.003 Y72.883 E3.52167
G1 X56.217 Y73.274 E3.54217
G1 X56.409 Y73.676 E3.56266
G1 X56.578 Y74.089 E3.58314
G1 X56.724 Y74.510 E3.60363
G1 X56.846 Y74.938 E3.62411
G1 X56.978 Y75.523 E3.65165
G1 X56.978 Y75.523 E3.65165
G1 X57.136 Y76.219 E3.68447
G1 X57.066 Y76.219 E3.68769
G1 X57.092 Y76.701 E3.70984
G1 X57.092 Y77.146 E3.73033
G1 X57.068 Y77.591 E3.75081
G1 X57.018 Y78.034 E3.77129
G1 X56.944 Y78.474 E3.79178
G1 X56.846 Y78.909 E3.81226
G1 X56.722 Y79.342 E3.83299
G1 X56.722 Y79.342 E3.83299
G1 X56.586 Y79.821 E3.85586
G1 X56.552 Y79.821 E3.85740
G1 X56.408 Y80.171 E3.87479
G1 X56.217 Y80.573 E3.89527
G1 X56.003 Y80.964 E3.91576
G1 X55.768 Y81.343 E3.93624
G1 X55.512 Y81.708 E3.95673
G1 X55.236 Y82.058 E3.97721
G1 X54.941 Y82.392 E3.99769
G1 X54.628 Y82.709 E4.01818
G1 X54.298 Y83.009 E4.03866
G1 X53.478 Y83.674 E4.08720
G1 X53.446 Y83.643 E4.08922
G1 X53.215 Y83.791 E4.10185
G1 X52.827 Y84.010 E4.12234
G1 X52.427 Y84.208 E4.14282
G1 X51.390 Y84.650 E4.19463
G1 X51.390 Y84.597 E4.19707
G1 X50.597 Y84.835 E4.23515
G1 X50.597 Y84.801 E4.23673
G1 X50.190 Y84.899 E4.25595
G1 X50.190 Y84.879 E4.25684
G1 X49.413 Y84.934 E4.29266
G1 X48.967 Y84.940 E4.31314
G1 X48.522 Y84.921 E4.33363
G1 X47.692 Y84.840 E4.37195
G1 X47.692 Y84.821 E4.37281
G1 X47.251 Y84.728 E4.39351
G1 X47.251 Y84.728 E4.39351
G1 X47.202 Y84.718 E4.39584
G1 X46.771 Y84.601 E4.41633
G1 X46.348 Y84.461 E4.43681
G1 X45.934 Y84.298 E4.45730
G1 X45.529 Y84.112 E4.47778
G1 X45.135 Y83.903 E4.49827
G1 X44.753 Y83.673 E4.51875
G1 X44.384 Y83.422 E4.53924
G1 X44.030 Y83.152 E4.55972
G1 X43.692 Y82.861 E4.58021
G1 X43.370 Y82.553 E4.60069
G1 X43.101 Y82.264 E4.61884
G1 X43.101 Y82.264 E4.61884
G1 X43.066 Y82.227 E4.62118
G1 X42.384 Y81.409 E4.67014
G1 X42.409 Y81.384 E4.67174
G1 X42.091 Y80.957 E4.69619
G1 X42.120 Y80.900 E4.69915
G1 X42.045 Y80.770 E4.70604
G1 X41.842 Y80.373 E4.72653
G1 X41.661 Y79.966 E4.74701
G1 X41.504 Y79.549 E4.76750
G1 X41.369 Y79.124 E4.78799
G1 X41.259 Y78.692 E4.80847
G1 X41.173 Y78.255 E4.82895
G1 X41.001 Y77.028 E4.88588
G1 X41.065 Y77.028 E4.88878
G1 X41.056 Y76.734 E4.90230
G1 X41.067 Y76.734 E4.90279
G1 X41.074 Y76.478 E4.91456
G1 X41.098 Y76.194 E4.92767
G1 X41.089 Y76.194 E4.92808
G1 X41.111 Y76.034 E4.93551
G1 X41.125 Y75.870 E4.94305
G1 X41.134 Y75.870 E4.94348
G1 X41.173 Y75.592 E4.95636
G1 X41.259 Y75.157 E4.97676
G1 X41.259 Y75.157 E4.97676
G1 X41.286 Y75.016 E4.98335
G1 X41.295 Y75.016 E4.98372
G1 X41.369 Y74.723 E4.99762
G1 X41.504 Y74.298 E5.01811
G1 X41.661 Y73.881 E5.03859
G1 X41.842 Y73.474 E5.05908
G1 X42.022 Y73.122 E5.07723
G1 X42.022 Y73.122 E5.07723
G1 X42.045 Y73.077 E5.07956
G1 X42.269 Y72.692 E5.10005
G1 X42.541 Y72.281 E5.12266
G1 X42.531 Y72.262 E5.12365
G1 X43.066 Y71.620 E5.16206
G1 X43.370 Y71.294 E5.18254
G1 X44.244 Y70.457 E5.23816
G1 X44.307 Y70.484 E5.24133
G1 X44.384 Y70.425 E5.24579
G1 X44.753 Y70.174 E5.26628
G1 X45.135 Y69.944 E5.28677
G1 X45.529 Y69.735 E5.30724
G1 X45.934 Y69.549 E5.32773
G1 X46.348 Y69.386 E5.34821
G1 X46.771 Y69.246 E5.36869
G1 X46.771 Y69.246 E5.36869
G1 X47.031 Y69.160 E5.38125
G1 X47.031 Y69.166 E5.38151
G1 X47.618 Y69.041 E5.40909
G1 X47.618 Y69.040 E5.40915
G1 X48.078 Y68.969 E5.43056
G1 X48.744 Y68.904 E5.46130
G1 X49.413 Y68.913 E5.49204
G1 X49.857 Y68.944 E5.51253
G1 X50.300 Y69.000 E5.53301
G1 X50.738 Y69.080 E5.55350
G1 X51.172 Y69.185 E5.57398
G1 X51.377 Y69.246 E5.58386
G1 X51.377 Y69.246 E5.58386
G1 X51.598 Y69.313 E5.59447
G1 X52.307 Y69.569 E5.62911
G1 X52.307 Y69.569 E5.62911
G1 X52.454 Y69.623 E5.63627
G1 X52.454 Y69.652 E5.63764
G1 X52.827 Y69.837 E5.65678
G1 X53.215 Y70.056 E5.67727
G1 X53.590 Y70.297 E5.69775
G1 X53.952 Y70.558 E5.71824
G1 X54.258 Y70.806 E5.73639
G1 X54.258 Y70.806 E5.73639
G1 X54.298 Y70.838 E5.73872
G1 X54.628 Y71.138 E5.75921
G1 X54.737 Y71.248 E5.76631
G1 X54.737 Y71.248 E5.76631
G1 X54.941 Y71.455 E5.77969
G1 X55.236 Y71.789 E5.80018
G1 X55.512 Y72.139 E5.82066
G1 X55.541 Y72.181 E5.82302
G1 X55.123 Y72.428 F4500.000
G1 X55.364 Y72.771 F1200.000 E5.84227
G1 X55.585 Y73.127 E5.86150
G1 X55.786 Y73.494 E5.88077
G1 X55.966 Y73.872 E5.90001
G1 X56.125 Y74.260 E5.91926
G1 X56.262 Y74.656 E5.93851
G1 X56.377 Y75.058 E5.95776
G1 X56.469 Y75.467 E5.97702
G1 X56.469 Y75.467 E5.97703
G1 X56.530 Y75.735 E5.98967
G1 X56.523 Y75.735 E5.99000
G1 X56.585 Y76.296 E6.01592
G1 X56.609 Y76.714 E6.03517
G1 X56.609 Y77.133 E6.05442
G1 X56.585 Y77.551 E6.07367
G1 X56.539 Y77.967 E6.09292
G1 X56.469 Y78.380 E6.11216
G1 X56.377 Y78.789 E6.13141
G1 X56.262 Y79.192 E6.15066
G1 X56.262 Y79.192 E6.15066
G1 X56.220 Y79.337 E6.15761
G1 X56.212 Y79.337 E6.15802
G1 X56.125 Y79.587 E6.17019
G1 X55.966 Y79.975 E6.18944
G1 X55.786 Y80.353 E6.20869
G1 X55.585 Y80.720 E6.22794
G1 X55.364 Y81.076 E6.24718
G1 X55.123 Y81.419 E6.26643
G1 X54.864 Y81.748 E6.28568
G1 X54.587 Y82.062 E6.30493
G1 X54.293 Y82.360 E6.32418
G1 X53.983 Y82.641 E6.34342
G1 X53.511 Y83.023 E6.37130
G1 X53.504 Y83.016 E6.37179
G1 X53.318 Y83.150 E6.38234
G1 X52.965 Y83.376 E6.40159
G1 X52.601 Y83.582 E6.42084
G1 X52.225 Y83.768 E6.44008
G1 X51.874 Y83.917 E6.45761
G1 X51.874 Y83.917 E6.45761
G1 X51.840 Y83.932 E6.45933
G1 X51.446 Y84.075 E6.47858
G1 X51.081 Y84.184 E6.49611
G1 X51.081 Y84.184 E6.49611
G1 X51.045 Y84.195 E6.49783
G1 X50.674 Y84.284 E6.51536
G1 X50.674 Y84.284 E6.51536
G1 X50.638 Y84.293 E6.51707
G1 X50.263 Y84.362 E6.53461
G1 X50.263 Y84.362 E6.53461
G1 X50.226 Y84.369 E6.53632
G1 X49.810 Y84.421 E6.55557
G1 X49.430 Y84.447 E6.57310
G1 X49.430 Y84.447 E6.57310
G1 X49.393 Y84.450 E6.57482
G1 X48.974 Y84.456 E6.59407
G1 X48.555 Y84.438 E6.61332
G1 X48.176 Y84.401 E6.63085
G1 X48.176 Y84.401 E6.63085
G1 X48.139 Y84.398 E6.63256
G1 X47.725 Y84.334 E6.65181
G1 X47.315 Y84.247 E6.67106
G1 X46.911 Y84.138 E6.69031
G1 X46.513 Y84.006 E6.70955
G1 X46.123 Y83.853 E6.72880
G1 X45.743 Y83.678 E6.74805
G1 X45.373 Y83.482 E6.76730
G1 X45.014 Y83.266 E6.78655
G1 X44.668 Y83.030 E6.80579
G1 X44.335 Y82.775 E6.82504
G1 X44.017 Y82.503 E6.84429
G1 X43.715 Y82.213 E6.86354
G1 X43.429 Y81.907 E6.88278
G1 X43.039 Y81.438 E6.91081
G1 X43.046 Y81.431 E6.91130
G1 X42.658 Y80.908 E6.94125
G1 X42.670 Y80.882 E6.94256
G1 X42.469 Y80.538 E6.96090
G1 X42.279 Y80.165 E6.98014
G1 X42.109 Y79.782 E6.99939
G1 X41.961 Y79.390 E7.01864
G1 X41.835 Y78.991 E7.03789
G1 X41.740 Y78.621 E7.05542
G1 X41.740 Y78.621 E7.05542
G1 X41.731 Y78.585 E7.05713
G1 X41.650 Y78.174 E7.07638
G1 X41.592 Y77.760 E7.09563
G1 X41.592 Y77.759 E7.09563
G1 X41.558 Y77.512 E7.10712
G1 X41.562 Y77.512 E7.10733
G1 X41.554 Y77.218 E7.12085
G1 X41.554 Y77.218 E7.12085
G1 X41.546 Y76.923 E7.13438
G1 X41.557 Y76.505 E7.15363
G1 X41.570 Y76.354 E7.16059
G1 X41.570 Y76.354 E7.16059
G1 X41.592 Y76.088 E7.17288
G1 X41.645 Y75.710 E7.19041
G1 X41.645 Y75.710 E7.19041
G1 X41.650 Y75.673 E7.19212
G1 X41.684 Y75.500 E7.20021
G1 X41.684 Y75.500 E7.20021
G1 X41.731 Y75.262 E7.21137
G1 X41.835 Y74.856 E7.23062
G1 X41.961 Y74.457 E7.24987
G1 X42.109 Y74.065 E7.26912
