(Generated by PartKam Version 0.05)

G20 G90 G40

(drill 1)
G0 Z0.25
T0 M6
G17
M3
G0 X2.2238 Y2.7453
G1 Z-0.22 F5
G1 Z0 F5
G0 Z0.25
G0 X1.0691 Y2.7453
G1 Z-0.22 F5
G1 Z0 F5

(Hole profile 2)
G0 Z0.25
G0 X1.1045 Y4.4845
G1 Z-0.03 F10
G1 X1.1032 Y4.4939 F30
G1 X1.0997 Y4.5023
G1 X1.0941 Y4.5097
G1 X1.0866 Y4.5154
G1 X1.0784 Y4.5188
G1 X1.0694 Y4.5199
G1 X1.06 Y4.5187
G1 X1.0515 Y4.5151
G1 X1.044 Y4.5094
G1 X1.0384 Y4.5021
G1 X1.0349 Y4.4936
G1 X1.0337 Y4.4844
G1 X1.0349 Y4.4752
G1 X1.0384 Y4.4667
G1 X1.044 Y4.4594
G1 X1.0515 Y4.4537
G1 X1.0597 Y4.4503
G1 X1.0691 Y4.4492
G1 X1.0784 Y4.4503
G1 X1.0866 Y4.4537
G1 X1.0941 Y4.4594
G1 X1.0997 Y4.4667
G1 X1.1032 Y4.4752
G1 X1.1045 Y4.4845
G1 Z-0.06 F10
G1 X1.1032 Y4.4939 F30
G1 X1.0997 Y4.5023
G1 X1.0941 Y4.5097
G1 X1.0866 Y4.5154
G1 X1.0784 Y4.5188
G1 X1.0694 Y4.5199
G1 X1.06 Y4.5187
G1 X1.0515 Y4.5151
G1 X1.044 Y4.5094
G1 X1.0384 Y4.5021
G1 X1.0349 Y4.4936
G1 X1.0337 Y4.4844
G1 X1.0349 Y4.4752
G1 X1.0384 Y4.4667
G1 X1.044 Y4.4594
G1 X1.0515 Y4.4537
G1 X1.0597 Y4.4503
G1 X1.0691 Y4.4492
G1 X1.0784 Y4.4503
G1 X1.0866 Y4.4537
G1 X1.0941 Y4.4594
G1 X1.0997 Y4.4667
G1 X1.1032 Y4.4752
G1 X1.1045 Y4.4845
G1 Z-0.09 F10
G1 X1.1032 Y4.4939 F30
G1 X1.0997 Y4.5023
G1 X1.0941 Y4.5097
G1 X1.0866 Y4.5154
G1 X1.0784 Y4.5188
G1 X1.0694 Y4.5199
G1 X1.06 Y4.5187
G1 X1.0515 Y4.5151
G1 X1.044 Y4.5094
G1 X1.0384 Y4.5021
G1 X1.0349 Y4.4936
G1 X1.0337 Y4.4844
G1 X1.0349 Y4.4752
G1 X1.0384 Y4.4667
G1 X1.044 Y4.4594
G1 X1.0515 Y4.4537
G1 X1.0597 Y4.4503
G1 X1.0691 Y4.4492
G1 X1.0784 Y4.4503
G1 X1.0866 Y4.4537
G1 X1.0941 Y4.4594
G1 X1.0997 Y4.4667
G1 X1.1032 Y4.4752
G1 X1.1045 Y4.4845
G1 Z-0.12 F10
G1 X1.1032 Y4.4939 F30
G1 X1.0997 Y4.5023
G1 X1.0941 Y4.5097
G1 X1.0866 Y4.5154
G1 X1.0784 Y4.5188
G1 X1.0694 Y4.5199
G1 X1.06 Y4.5187
G1 X1.0515 Y4.5151
G1 X1.044 Y4.5094
G1 X1.0384 Y4.5021
G1 X1.0349 Y4.4936
G1 X1.0337 Y4.4844
G1 X1.0349 Y4.4752
G1 X1.0384 Y4.4667
G1 X1.044 Y4.4594
G1 X1.0515 Y4.4537
G1 X1.0597 Y4.4503
G1 X1.0691 Y4.4492
G1 X1.0784 Y4.4503
G1 X1.0866 Y4.4537
G1 X1.0941 Y4.4594
G1 X1.0997 Y4.4667
G1 X1.1032 Y4.4752
G1 X1.1045 Y4.4845
G1 Z-0.15 F10
G1 X1.1032 Y4.4939 F30
G1 X1.0997 Y4.5023
G1 X1.0941 Y4.5097
G1 X1.0866 Y4.5154
G1 X1.0784 Y4.5188
G1 X1.0694 Y4.5199
G1 X1.06 Y4.5187
G1 X1.0515 Y4.5151
G1 X1.044 Y4.5094
G1 X1.0384 Y4.5021
G1 X1.0349 Y4.4936
G1 X1.0337 Y4.4844
G1 X1.0349 Y4.4752
G1 X1.0384 Y4.4667
G1 X1.044 Y4.4594
G1 X1.0515 Y4.4537
G1 X1.0597 Y4.4503
G1 X1.0691 Y4.4492
G1 X1.0784 Y4.4503
G1 X1.0866 Y4.4537
G1 X1.0941 Y4.4594
G1 X1.0997 Y4.4667
G1 X1.1032 Y4.4752
G1 X1.1045 Y4.4845
G1 Z-0.18 F10
G1 X1.1032 Y4.4939 F30
G1 X1.0997 Y4.5023
G1 X1.0941 Y4.5097
G1 X1.0866 Y4.5154
G1 X1.0784 Y4.5188
G1 X1.0694 Y4.5199
G1 X1.06 Y4.5187
G1 X1.0515 Y4.5151
G1 X1.044 Y4.5094
G1 X1.0384 Y4.5021
G1 X1.0349 Y4.4936
G1 X1.0337 Y4.4844
G1 X1.0349 Y4.4752
G1 X1.0384 Y4.4667
G1 X1.044 Y4.4594
G1 X1.0515 Y4.4537
G1 X1.0597 Y4.4503
G1 X1.0691 Y4.4492
G1 X1.0784 Y4.4503
G1 X1.0866 Y4.4537
G1 X1.0941 Y4.4594
G1 X1.0997 Y4.4667
G1 X1.1032 Y4.4752
G1 X1.1045 Y4.4845
G1 Z-0.21 F10
G1 X1.1032 Y4.4939 F30
G1 X1.0997 Y4.5023
G1 X1.0941 Y4.5097
G1 X1.0866 Y4.5154
G1 X1.0784 Y4.5188
G1 X1.0694 Y4.5199
G1 X1.06 Y4.5187
G1 X1.0515 Y4.5151
G1 X1.044 Y4.5094
G1 X1.0384 Y4.5021
G1 X1.0349 Y4.4936
G1 X1.0337 Y4.4844
G1 X1.0349 Y4.4752
G1 X1.0384 Y4.4667
G1 X1.044 Y4.4594
G1 X1.0515 Y4.4537
G1 X1.0597 Y4.4503
G1 X1.0691 Y4.4492
G1 X1.0784 Y4.4503
G1 X1.0866 Y4.4537
G1 X1.0941 Y4.4594
G1 X1.0997 Y4.4667
G1 X1.1032 Y4.4752
G1 X1.1045 Y4.4845
G1 Z-0.22 F10
G1 X1.1032 Y4.4939 F30
G1 X1.0997 Y4.5023
G1 X1.0941 Y4.5097
G1 X1.0866 Y4.5154
G1 X1.0784 Y4.5188
G1 X1.0694 Y4.5199
G1 X1.06 Y4.5187
G1 X1.0515 Y4.5151
G1 X1.044 Y4.5094
G1 X1.0384 Y4.5021
G1 X1.0349 Y4.4936
G1 X1.0337 Y4.4844
G1 X1.0349 Y4.4752
G1 X1.0384 Y4.4667
G1 X1.044 Y4.4594
G1 X1.0515 Y4.4537
G1 X1.0597 Y4.4503
G1 X1.0691 Y4.4492
G1 X1.0784 Y4.4503
G1 X1.0866 Y4.4537
G1 X1.0941 Y4.4594
G1 X1.0997 Y4.4667
G1 X1.1032 Y4.4752
G1 X1.1045 Y4.4845
G0 Z0.25
G0 X2.2592 Y4.4845
G1 Z-0.03 F10
G1 X2.258 Y4.4939 F30
G1 X2.2545 Y4.5023
G1 X2.2489 Y4.5097
G1 X2.2414 Y4.5154
G1 X2.2332 Y4.5188
G1 X2.2241 Y4.5199
G1 X2.2147 Y4.5187
G1 X2.2062 Y4.5151
G1 X2.1988 Y4.5094
G1 X2.1932 Y4.5021
G1 X2.1896 Y4.4936
G1 X2.1884 Y4.4844
G1 X2.1896 Y4.4752
G1 X2.1932 Y4.4667
G1 X2.1988 Y4.4594
G1 X2.2062 Y4.4537
G1 X2.2145 Y4.4503
G1 X2.2238 Y4.4492
G1 X2.2332 Y4.4503
G1 X2.2414 Y4.4537
G1 X2.2489 Y4.4594
G1 X2.2545 Y4.4667
G1 X2.258 Y4.4752
G1 X2.2592 Y4.4845
G1 Z-0.06 F10
G1 X2.258 Y4.4939 F30
G1 X2.2545 Y4.5023
G1 X2.2489 Y4.5097
G1 X2.2414 Y4.5154
G1 X2.2332 Y4.5188
G1 X2.2241 Y4.5199
G1 X2.2147 Y4.5187
G1 X2.2062 Y4.5151
G1 X2.1988 Y4.5094
G1 X2.1932 Y4.5021
G1 X2.1896 Y4.4936
G1 X2.1884 Y4.4844
G1 X2.1896 Y4.4752
G1 X2.1932 Y4.4667
G1 X2.1988 Y4.4594
G1 X2.2062 Y4.4537
G1 X2.2145 Y4.4503
G1 X2.2238 Y4.4492
G1 X2.2332 Y4.4503
G1 X2.2414 Y4.4537
G1 X2.2489 Y4.4594
G1 X2.2545 Y4.4667
G1 X2.258 Y4.4752
G1 X2.2592 Y4.4845
G1 Z-0.09 F10
G1 X2.258 Y4.4939 F30
G1 X2.2545 Y4.5023
G1 X2.2489 Y4.5097
G1 X2.2414 Y4.5154
G1 X2.2332 Y4.5188
G1 X2.2241 Y4.5199
G1 X2.2147 Y4.5187
G1 X2.2062 Y4.5151
G1 X2.1988 Y4.5094
G1 X2.1932 Y4.5021
G1 X2.1896 Y4.4936
G1 X2.1884 Y4.4844
G1 X2.1896 Y4.4752
G1 X2.1932 Y4.4667
G1 X2.1988 Y4.4594
G1 X2.2062 Y4.4537
G1 X2.2145 Y4.4503
G1 X2.2238 Y4.4492
G1 X2.2332 Y4.4503
G1 X2.2414 Y4.4537
G1 X2.2489 Y4.4594
G1 X2.2545 Y4.4667
G1 X2.258 Y4.4752
G1 X2.2592 Y4.4845
G1 Z-0.12 F10
G1 X2.258 Y4.4939 F30
G1 X2.2545 Y4.5023
G1 X2.2489 Y4.5097
G1 X2.2414 Y4.5154
G1 X2.2332 Y4.5188
G1 X2.2241 Y4.5199
G1 X2.2147 Y4.5187
G1 X2.2062 Y4.5151
G1 X2.1988 Y4.5094
G1 X2.1932 Y4.5021
G1 X2.1896 Y4.4936
G1 X2.1884 Y4.4844
G1 X2.1896 Y4.4752
G1 X2.1932 Y4.4667
G1 X2.1988 Y4.4594
G1 X2.2062 Y4.4537
G1 X2.2145 Y4.4503
G1 X2.2238 Y4.4492
G1 X2.2332 Y4.4503
G1 X2.2414 Y4.4537
G1 X2.2489 Y4.4594
G1 X2.2545 Y4.4667
G1 X2.258 Y4.4752
G1 X2.2592 Y4.4845
G1 Z-0.15 F10
G1 X2.258 Y4.4939 F30
G1 X2.2545 Y4.5023
G1 X2.2489 Y4.5097
G1 X2.2414 Y4.5154
G1 X2.2332 Y4.5188
G1 X2.2241 Y4.5199
G1 X2.2147 Y4.5187
G1 X2.2062 Y4.5151
G1 X2.1988 Y4.5094
G1 X2.1932 Y4.5021
G1 X2.1896 Y4.4936
G1 X2.1884 Y4.4844
G1 X2.1896 Y4.4752
G1 X2.1932 Y4.4667
G1 X2.1988 Y4.4594
G1 X2.2062 Y4.4537
G1 X2.2145 Y4.4503
G1 X2.2238 Y4.4492
G1 X2.2332 Y4.4503
G1 X2.2414 Y4.4537
G1 X2.2489 Y4.4594
G1 X2.2545 Y4.4667
G1 X2.258 Y4.4752
G1 X2.2592 Y4.4845
G1 Z-0.18 F10
G1 X2.258 Y4.4939 F30
G1 X2.2545 Y4.5023
G1 X2.2489 Y4.5097
G1 X2.2414 Y4.5154
G1 X2.2332 Y4.5188
G1 X2.2241 Y4.5199
G1 X2.2147 Y4.5187
G1 X2.2062 Y4.5151
G1 X2.1988 Y4.5094
G1 X2.1932 Y4.5021
G1 X2.1896 Y4.4936
G1 X2.1884 Y4.4844
G1 X2.1896 Y4.4752
G1 X2.1932 Y4.4667
G1 X2.1988 Y4.4594
G1 X2.2062 Y4.4537
G1 X2.2145 Y4.4503
G1 X2.2238 Y4.4492
G1 X2.2332 Y4.4503
G1 X2.2414 Y4.4537
G1 X2.2489 Y4.4594
G1 X2.2545 Y4.4667
G1 X2.258 Y4.4752
G1 X2.2592 Y4.4845
G1 Z-0.21 F10
G1 X2.258 Y4.4939 F30
G1 X2.2545 Y4.5023
G1 X2.2489 Y4.5097
G1 X2.2414 Y4.5154
G1 X2.2332 Y4.5188
G1 X2.2241 Y4.5199
G1 X2.2147 Y4.5187
G1 X2.2062 Y4.5151
G1 X2.1988 Y4.5094
G1 X2.1932 Y4.5021
G1 X2.1896 Y4.4936
G1 X2.1884 Y4.4844
G1 X2.1896 Y4.4752
G1 X2.1932 Y4.4667
G1 X2.1988 Y4.4594
G1 X2.2062 Y4.4537
G1 X2.2145 Y4.4503
G1 X2.2238 Y4.4492
G1 X2.2332 Y4.4503
G1 X2.2414 Y4.4537
G1 X2.2489 Y4.4594
G1 X2.2545 Y4.4667
G1 X2.258 Y4.4752
G1 X2.2592 Y4.4845
G1 Z-0.22 F10
G1 X2.258 Y4.4939 F30
G1 X2.2545 Y4.5023
G1 X2.2489 Y4.5097
G1 X2.2414 Y4.5154
G1 X2.2332 Y4.5188
G1 X2.2241 Y4.5199
G1 X2.2147 Y4.5187
G1 X2.2062 Y4.5151
G1 X2.1988 Y4.5094
G1 X2.1932 Y4.5021
G1 X2.1896 Y4.4936
G1 X2.1884 Y4.4844
G1 X2.1896 Y4.4752
G1 X2.1932 Y4.4667
G1 X2.1988 Y4.4594
G1 X2.2062 Y4.4537
G1 X2.2145 Y4.4503
G1 X2.2238 Y4.4492
G1 X2.2332 Y4.4503
G1 X2.2414 Y4.4537
G1 X2.2489 Y4.4594
G1 X2.2545 Y4.4667
G1 X2.258 Y4.4752
G1 X2.2592 Y4.4845
G0 Z0.25
G0 X2.2241 Y1.0409
G1 Z-0.03 F10
G1 X2.2147 Y1.0397 F30
G1 X2.2062 Y1.0361
G1 X2.1988 Y1.0304
G1 X2.1932 Y1.0231
G1 X2.1896 Y1.0146
G1 X2.1884 Y1.0055
G1 X2.1896 Y0.9965
G1 X2.1932 Y0.9879
G1 X2.1988 Y0.9806
G1 X2.2062 Y0.9749
G1 X2.2145 Y0.9715
G1 X2.2238 Y0.9704
G1 X2.2332 Y0.9715
G1 X2.2414 Y0.9749
G1 X2.2489 Y0.9806
G1 X2.2545 Y0.9879
G1 X2.258 Y0.9964
G1 X2.2592 Y1.0056
G1 X2.258 Y1.0148
G1 X2.2545 Y1.0233
G1 X2.2489 Y1.0306
G1 X2.2414 Y1.0363
G1 X2.2332 Y1.0398
G1 X2.2241 Y1.0409
G1 Z-0.06 F10
G1 X2.2147 Y1.0397 F30
G1 X2.2062 Y1.0361
G1 X2.1988 Y1.0304
G1 X2.1932 Y1.0231
G1 X2.1896 Y1.0146
G1 X2.1884 Y1.0055
G1 X2.1896 Y0.9965
G1 X2.1932 Y0.9879
G1 X2.1988 Y0.9806
G1 X2.2062 Y0.9749
G1 X2.2145 Y0.9715
G1 X2.2238 Y0.9704
G1 X2.2332 Y0.9715
G1 X2.2414 Y0.9749
G1 X2.2489 Y0.9806
G1 X2.2545 Y0.9879
G1 X2.258 Y0.9964
G1 X2.2592 Y1.0056
G1 X2.258 Y1.0148
G1 X2.2545 Y1.0233
G1 X2.2489 Y1.0306
G1 X2.2414 Y1.0363
G1 X2.2332 Y1.0398
G1 X2.2241 Y1.0409
G1 Z-0.09 F10
G1 X2.2147 Y1.0397 F30
G1 X2.2062 Y1.0361
G1 X2.1988 Y1.0304
G1 X2.1932 Y1.0231
G1 X2.1896 Y1.0146
G1 X2.1884 Y1.0055
G1 X2.1896 Y0.9965
G1 X2.1932 Y0.9879
G1 X2.1988 Y0.9806
G1 X2.2062 Y0.9749
G1 X2.2145 Y0.9715
G1 X2.2238 Y0.9704
G1 X2.2332 Y0.9715
G1 X2.2414 Y0.9749
G1 X2.2489 Y0.9806
G1 X2.2545 Y0.9879
G1 X2.258 Y0.9964
G1 X2.2592 Y1.0056
G1 X2.258 Y1.0148
G1 X2.2545 Y1.0233
G1 X2.2489 Y1.0306
G1 X2.2414 Y1.0363
G1 X2.2332 Y1.0398
G1 X2.2241 Y1.0409
G1 Z-0.12 F10
G1 X2.2147 Y1.0397 F30
G1 X2.2062 Y1.0361
G1 X2.1988 Y1.0304
G1 X2.1932 Y1.0231
G1 X2.1896 Y1.0146
G1 X2.1884 Y1.0055
G1 X2.1896 Y0.9965
G1 X2.1932 Y0.9879
G1 X2.1988 Y0.9806
G1 X2.2062 Y0.9749
G1 X2.2145 Y0.9715
G1 X2.2238 Y0.9704
G1 X2.2332 Y0.9715
G1 X2.2414 Y0.9749
G1 X2.2489 Y0.9806
G1 X2.2545 Y0.9879
G1 X2.258 Y0.9964
G1 X2.2592 Y1.0056
G1 X2.258 Y1.0148
G1 X2.2545 Y1.0233
G1 X2.2489 Y1.0306
G1 X2.2414 Y1.0363
G1 X2.2332 Y1.0398
G1 X2.2241 Y1.0409
G1 Z-0.15 F10
G1 X2.2147 Y1.0397 F30
G1 X2.2062 Y1.0361
G1 X2.1988 Y1.0304
G1 X2.1932 Y1.0231
G1 X2.1896 Y1.0146
G1 X2.1884 Y1.0055
G1 X2.1896 Y0.9965
G1 X2.1932 Y0.9879
G1 X2.1988 Y0.9806
G1 X2.2062 Y0.9749
G1 X2.2145 Y0.9715
G1 X2.2238 Y0.9704
G1 X2.2332 Y0.9715
G1 X2.2414 Y0.9749
G1 X2.2489 Y0.9806
G1 X2.2545 Y0.9879
G1 X2.258 Y0.9964
G1 X2.2592 Y1.0056
G1 X2.258 Y1.0148
G1 X2.2545 Y1.0233
G1 X2.2489 Y1.0306
G1 X2.2414 Y1.0363
G1 X2.2332 Y1.0398
G1 X2.2241 Y1.0409
G1 Z-0.18 F10
G1 X2.2147 Y1.0397 F30
G1 X2.2062 Y1.0361
G1 X2.1988 Y1.0304
G1 X2.1932 Y1.0231
G1 X2.1896 Y1.0146
G1 X2.1884 Y1.0055
G1 X2.1896 Y0.9965
G1 X2.1932 Y0.9879
G1 X2.1988 Y0.9806
G1 X2.2062 Y0.9749
G1 X2.2145 Y0.9715
G1 X2.2238 Y0.9704
G1 X2.2332 Y0.9715
G1 X2.2414 Y0.9749
G1 X2.2489 Y0.9806
G1 X2.2545 Y0.9879
G1 X2.258 Y0.9964
G1 X2.2592 Y1.0056
G1 X2.258 Y1.0148
G1 X2.2545 Y1.0233
G1 X2.2489 Y1.0306
G1 X2.2414 Y1.0363
G1 X2.2332 Y1.0398
G1 X2.2241 Y1.0409
G1 Z-0.21 F10
G1 X2.2147 Y1.0397 F30
G1 X2.2062 Y1.0361
G1 X2.1988 Y1.0304
G1 X2.1932 Y1.0231
G1 X2.1896 Y1.0146
G1 X2.1884 Y1.0055
G1 X2.1896 Y0.9965
G1 X2.1932 Y0.9879
G1 X2.1988 Y0.9806
G1 X2.2062 Y0.9749
G1 X2.2145 Y0.9715
G1 X2.2238 Y0.9704
G1 X2.2332 Y0.9715
G1 X2.2414 Y0.9749
G1 X2.2489 Y0.9806
G1 X2.2545 Y0.9879
G1 X2.258 Y0.9964
G1 X2.2592 Y1.0056
G1 X2.258 Y1.0148
G1 X2.2545 Y1.0233
G1 X2.2489 Y1.0306
G1 X2.2414 Y1.0363
G1 X2.2332 Y1.0398
G1 X2.2241 Y1.0409
G1 Z-0.22 F10
G1 X2.2147 Y1.0397 F30
G1 X2.2062 Y1.0361
G1 X2.1988 Y1.0304
G1 X2.1932 Y1.0231
G1 X2.1896 Y1.0146
G1 X2.1884 Y1.0055
G1 X2.1896 Y0.9965
G1 X2.1932 Y0.9879
G1 X2.1988 Y0.9806
G1 X2.2062 Y0.9749
G1 X2.2145 Y0.9715
G1 X2.2238 Y0.9704
G1 X2.2332 Y0.9715
G1 X2.2414 Y0.9749
G1 X2.2489 Y0.9806
G1 X2.2545 Y0.9879
G1 X2.258 Y0.9964
G1 X2.2592 Y1.0056
G1 X2.258 Y1.0148
G1 X2.2545 Y1.0233
G1 X2.2489 Y1.0306
G1 X2.2414 Y1.0363
G1 X2.2332 Y1.0398
G1 X2.2241 Y1.0409
G0 Z0.25
G0 X1.0693 Y1.0409
G1 Z-0.03 F10
G1 X1.0599 Y1.0397 F30
G1 X1.0515 Y1.0361
G1 X1.044 Y1.0304
G1 X1.0384 Y1.0231
G1 X1.0349 Y1.0146
G1 X1.0337 Y1.0055
G1 X1.0349 Y0.9965
G1 X1.0384 Y0.9879
G1 X1.044 Y0.9806
G1 X1.0515 Y0.9749
G1 X1.0597 Y0.9715
G1 X1.0691 Y0.9704
G1 X1.0784 Y0.9715
G1 X1.0866 Y0.9749
G1 X1.0941 Y0.9806
G1 X1.0997 Y0.9879
G1 X1.1032 Y0.9964
G1 X1.1044 Y1.0056
G1 X1.1032 Y1.0148
G1 X1.0997 Y1.0233
G1 X1.0941 Y1.0306
G1 X1.0866 Y1.0363
G1 X1.0784 Y1.0398
G1 X1.0693 Y1.0409
G1 Z-0.06 F10
G1 X1.0599 Y1.0397 F30
G1 X1.0515 Y1.0361
G1 X1.044 Y1.0304
G1 X1.0384 Y1.0231
G1 X1.0349 Y1.0146
G1 X1.0337 Y1.0055
G1 X1.0349 Y0.9965
G1 X1.0384 Y0.9879
G1 X1.044 Y0.9806
G1 X1.0515 Y0.9749
G1 X1.0597 Y0.9715
G1 X1.0691 Y0.9704
G1 X1.0784 Y0.9715
G1 X1.0866 Y0.9749
G1 X1.0941 Y0.9806
G1 X1.0997 Y0.9879
G1 X1.1032 Y0.9964
G1 X1.1044 Y1.0056
G1 X1.1032 Y1.0148
G1 X1.0997 Y1.0233
G1 X1.0941 Y1.0306
G1 X1.0866 Y1.0363
G1 X1.0784 Y1.0398
G1 X1.0693 Y1.0409
G1 Z-0.09 F10
G1 X1.0599 Y1.0397 F30
G1 X1.0515 Y1.0361
G1 X1.044 Y1.0304
G1 X1.0384 Y1.0231
G1 X1.0349 Y1.0146
G1 X1.0337 Y1.0055
G1 X1.0349 Y0.9965
G1 X1.0384 Y0.9879
G1 X1.044 Y0.9806
G1 X1.0515 Y0.9749
G1 X1.0597 Y0.9715
G1 X1.0691 Y0.9704
G1 X1.0784 Y0.9715
G1 X1.0866 Y0.9749
G1 X1.0941 Y0.9806
G1 X1.0997 Y0.9879
G1 X1.1032 Y0.9964
G1 X1.1044 Y1.0056
G1 X1.1032 Y1.0148
G1 X1.0997 Y1.0233
G1 X1.0941 Y1.0306
G1 X1.0866 Y1.0363
G1 X1.0784 Y1.0398
G1 X1.0693 Y1.0409
G1 Z-0.12 F10
G1 X1.0599 Y1.0397 F30
G1 X1.0515 Y1.0361
G1 X1.044 Y1.0304
G1 X1.0384 Y1.0231
G1 X1.0349 Y1.0146
G1 X1.0337 Y1.0055
G1 X1.0349 Y0.9965
G1 X1.0384 Y0.9879
G1 X1.044 Y0.9806
G1 X1.0515 Y0.9749
G1 X1.0597 Y0.9715
G1 X1.0691 Y0.9704
G1 X1.0784 Y0.9715
G1 X1.0866 Y0.9749
G1 X1.0941 Y0.9806
G1 X1.0997 Y0.9879
G1 X1.1032 Y0.9964
G1 X1.1044 Y1.0056
G1 X1.1032 Y1.0148
G1 X1.0997 Y1.0233
G1 X1.0941 Y1.0306
G1 X1.0866 Y1.0363
G1 X1.0784 Y1.0398
G1 X1.0693 Y1.0409
G1 Z-0.15 F10
G1 X1.0599 Y1.0397 F30
G1 X1.0515 Y1.0361
G1 X1.044 Y1.0304
G1 X1.0384 Y1.0231
G1 X1.0349 Y1.0146
G1 X1.0337 Y1.0055
G1 X1.0349 Y0.9965
G1 X1.0384 Y0.9879
G1 X1.044 Y0.9806
G1 X1.0515 Y0.9749
G1 X1.0597 Y0.9715
G1 X1.0691 Y0.9704
G1 X1.0784 Y0.9715
G1 X1.0866 Y0.9749
G1 X1.0941 Y0.9806
G1 X1.0997 Y0.9879
G1 X1.1032 Y0.9964
G1 X1.1044 Y1.0056
G1 X1.1032 Y1.0148
G1 X1.0997 Y1.0233
G1 X1.0941 Y1.0306
G1 X1.0866 Y1.0363
G1 X1.0784 Y1.0398
G1 X1.0693 Y1.0409
G1 Z-0.18 F10
G1 X1.0599 Y1.0397 F30
G1 X1.0515 Y1.0361
G1 X1.044 Y1.0304
G1 X1.0384 Y1.0231
G1 X1.0349 Y1.0146
G1 X1.0337 Y1.0055
G1 X1.0349 Y0.9965
G1 X1.0384 Y0.9879
G1 X1.044 Y0.9806
G1 X1.0515 Y0.9749
G1 X1.0597 Y0.9715
G1 X1.0691 Y0.9704
G1 X1.0784 Y0.9715
G1 X1.0866 Y0.9749
G1 X1.0941 Y0.9806
G1 X1.0997 Y0.9879
G1 X1.1032 Y0.9964
G1 X1.1044 Y1.0056
G1 X1.1032 Y1.0148
G1 X1.0997 Y1.0233
G1 X1.0941 Y1.0306
G1 X1.0866 Y1.0363
G1 X1.0784 Y1.0398
G1 X1.0693 Y1.0409
G1 Z-0.21 F10
G1 X1.0599 Y1.0397 F30
G1 X1.0515 Y1.0361
G1 X1.044 Y1.0304
G1 X1.0384 Y1.0231
G1 X1.0349 Y1.0146
G1 X1.0337 Y1.0055
G1 X1.0349 Y0.9965
G1 X1.0384 Y0.9879
G1 X1.044 Y0.9806
G1 X1.0515 Y0.9749
G1 X1.0597 Y0.9715
G1 X1.0691 Y0.9704
G1 X1.0784 Y0.9715
G1 X1.0866 Y0.9749
G1 X1.0941 Y0.9806
G1 X1.0997 Y0.9879
G1 X1.1032 Y0.9964
G1 X1.1044 Y1.0056
G1 X1.1032 Y1.0148
G1 X1.0997 Y1.0233
G1 X1.0941 Y1.0306
G1 X1.0866 Y1.0363
G1 X1.0784 Y1.0398
G1 X1.0693 Y1.0409
G1 Z-0.22 F10
G1 X1.0599 Y1.0397 F30
G1 X1.0515 Y1.0361
G1 X1.044 Y1.0304
G1 X1.0384 Y1.0231
G1 X1.0349 Y1.0146
G1 X1.0337 Y1.0055
G1 X1.0349 Y0.9965
G1 X1.0384 Y0.9879
G1 X1.044 Y0.9806
G1 X1.0515 Y0.9749
G1 X1.0597 Y0.9715
G1 X1.0691 Y0.9704
G1 X1.0784 Y0.9715
G1 X1.0866 Y0.9749
G1 X1.0941 Y0.9806
G1 X1.0997 Y0.9879
G1 X1.1032 Y0.9964
G1 X1.1044 Y1.0056
G1 X1.1032 Y1.0148
G1 X1.0997 Y1.0233
G1 X1.0941 Y1.0306
G1 X1.0866 Y1.0363
G1 X1.0784 Y1.0398
G1 X1.0693 Y1.0409

(outside profile 3)
G0 Z0.25
G0 X1.6613 Y2.2935
G1 Z-0.03 F20
G2 X1.7238 Y2.356 I0.0625 J0 F30
G1 X2.0934 Y2.356
G1 X2.3434 Y2.356
G1 X2.7238 Y2.356
G2 X2.7863 Y2.2935 I0 J-0.0625
G1 X2.7863 Y1.4899
G1 X2.7863 Y1.2399
G1 X2.7863 Y0.5554
G2 X2.7238 Y0.4929 I-0.0625 J0
G1 X2.319 Y0.4929
G1 X2.069 Y0.4929
G1 X1.7238 Y0.4929
G2 X1.6613 Y0.5554 I0 J0.0625
G1 X1.6613 Y1.2354
G1 X1.6613 Y1.4854
G1 X1.6613 Y2.2935
G1 Z-0.06 F20
G2 X1.7238 Y2.356 I0.0625 J0 F30
G1 X2.0934 Y2.356
G1 X2.3434 Y2.356
G1 X2.7238 Y2.356
G2 X2.7863 Y2.2935 I0 J-0.0625
G1 X2.7863 Y1.4899
G1 X2.7863 Y1.2399
G1 X2.7863 Y0.5554
G2 X2.7238 Y0.4929 I-0.0625 J0
G1 X2.319 Y0.4929
G1 X2.069 Y0.4929
G1 X1.7238 Y0.4929
G2 X1.6613 Y0.5554 I0 J0.0625
G1 X1.6613 Y1.2354
G1 X1.6613 Y1.4854
G1 X1.6613 Y2.2935
G1 Z-0.09 F20
G2 X1.7238 Y2.356 I0.0625 J0 F30
G1 X2.0934 Y2.356
G1 X2.3434 Y2.356
G1 X2.7238 Y2.356
G2 X2.7863 Y2.2935 I0 J-0.0625
G1 X2.7863 Y1.4899
G1 X2.7863 Y1.2399
G1 X2.7863 Y0.5554
G2 X2.7238 Y0.4929 I-0.0625 J0
G1 X2.319 Y0.4929
G1 X2.069 Y0.4929
G1 X1.7238 Y0.4929
G2 X1.6613 Y0.5554 I0 J0.0625
G1 X1.6613 Y1.2354
G1 X1.6613 Y1.4854
G1 X1.6613 Y2.2935
G1 Z-0.12 F20
G2 X1.7238 Y2.356 I0.0625 J0 F30
G1 X2.0934 Y2.356
G1 X2.3434 Y2.356
G1 X2.7238 Y2.356
G2 X2.7863 Y2.2935 I0 J-0.0625
G1 X2.7863 Y1.4899
G1 X2.7863 Y1.2399
G1 X2.7863 Y0.5554
G2 X2.7238 Y0.4929 I-0.0625 J0
G1 X2.319 Y0.4929
G1 X2.069 Y0.4929
G1 X1.7238 Y0.4929
G2 X1.6613 Y0.5554 I0 J0.0625
G1 X1.6613 Y1.2354
G1 X1.6613 Y1.4854
G1 X1.6613 Y2.2935
G1 Z-0.15 F20
G2 X1.7238 Y2.356 I0.0625 J0 F30
G1 X2.0934 Y2.356
G1 Z-0.14 F20
G1 X2.3434 Y2.356 F30
G1 Z-0.15 F20
G1 X2.7238 Y2.356 F30
G2 X2.7863 Y2.2935 I0 J-0.0625
G1 X2.7863 Y1.4899
G1 Z-0.14 F20
G1 X2.7863 Y1.2399 F30
G1 Z-0.15 F20
G1 X2.7863 Y0.5554 F30
G2 X2.7238 Y0.4929 I-0.0625 J0
G1 X2.319 Y0.4929
G1 Z-0.14 F20
G1 X2.069 Y0.4929 F30
G1 Z-0.15 F20
G1 X1.7238 Y0.4929 F30
G2 X1.6613 Y0.5554 I0 J0.0625
G1 X1.6613 Y1.2354
G1 Z-0.14 F20
G1 X1.6613 Y1.4854 F30
G1 Z-0.15 F20
G1 X1.6613 Y2.2935 F30
G1 Z-0.18 F20
G2 X1.7238 Y2.356 I0.0625 J0 F30
G1 X2.0934 Y2.356
G1 Z-0.14 F20
G1 X2.3434 Y2.356 F30
G1 Z-0.18 F20
G1 X2.7238 Y2.356 F30
G2 X2.7863 Y2.2935 I0 J-0.0625
G1 X2.7863 Y1.4899
G1 Z-0.14 F20
G1 X2.7863 Y1.2399 F30
G1 Z-0.18 F20
G1 X2.7863 Y0.5554 F30
G2 X2.7238 Y0.4929 I-0.0625 J0
G1 X2.319 Y0.4929
G1 Z-0.14 F20
G1 X2.069 Y0.4929 F30
G1 Z-0.18 F20
G1 X1.7238 Y0.4929 F30
G2 X1.6613 Y0.5554 I0 J0.0625
G1 X1.6613 Y1.2354
G1 Z-0.14 F20
G1 X1.6613 Y1.4854 F30
G1 Z-0.18 F20
G1 X1.6613 Y2.2935 F30
G1 Z-0.21 F20
G2 X1.7238 Y2.356 I0.0625 J0 F30
G1 X2.0934 Y2.356
G1 Z-0.14 F20
G1 X2.3434 Y2.356 F30
G1 Z-0.21 F20
G1 X2.7238 Y2.356 F30
G2 X2.7863 Y2.2935 I0 J-0.0625
G1 X2.7863 Y1.4899
G1 Z-0.14 F20
G1 X2.7863 Y1.2399 F30
G1 Z-0.21 F20
G1 X2.7863 Y0.5554 F30
G2 X2.7238 Y0.4929 I-0.0625 J0
G1 X2.319 Y0.4929
G1 Z-0.14 F20
G1 X2.069 Y0.4929 F30
G1 Z-0.21 F20
G1 X1.7238 Y0.4929 F30
G2 X1.6613 Y0.5554 I0 J0.0625
G1 X1.6613 Y1.2354
G1 Z-0.14 F20
G1 X1.6613 Y1.4854 F30
G1 Z-0.21 F20
G1 X1.6613 Y2.2935 F30
G1 Z-0.22 F20
G2 X1.7238 Y2.356 I0.0625 J0 F30
G1 X2.0934 Y2.356
G1 Z-0.14 F20
G1 X2.3434 Y2.356 F30
G1 Z-0.22 F20
G1 X2.7238 Y2.356 F30
G2 X2.7863 Y2.2935 I0 J-0.0625
G1 X2.7863 Y1.4899
G1 Z-0.14 F20
G1 X2.7863 Y1.2399 F30
G1 Z-0.22 F20
G1 X2.7863 Y0.5554 F30
G2 X2.7238 Y0.4929 I-0.0625 J0
G1 X2.319 Y0.4929
G1 Z-0.14 F20
G1 X2.069 Y0.4929 F30
G1 Z-0.22 F20
G1 X1.7238 Y0.4929 F30
G2 X1.6613 Y0.5554 I0 J0.0625
G1 X1.6613 Y1.2354
G1 Z-0.14 F20
G1 X1.6613 Y1.4854 F30
G1 Z-0.22 F20
G1 X1.6613 Y2.2935 F30
G0 Z0.25
G0 X0.5066 Y2.2935
G1 Z-0.03 F20
G2 X0.5691 Y2.356 I0.0625 J0 F30
G1 X0.9387 Y2.356
G1 X1.2004 Y2.356
G1 X1.5691 Y2.356
G2 X1.6316 Y2.2935 I0 J-0.0625
G1 X1.6316 Y1.4899
G1 X1.6316 Y1.2399
G1 X1.6316 Y0.5554
G2 X1.5691 Y0.4929 I-0.0625 J0
G1 X1.2053 Y0.4929
G1 X0.9553 Y0.4929
G1 X0.5691 Y0.4929
G2 X0.5066 Y0.5554 I0 J0.0625
G1 X0.5066 Y1.2706
G1 X0.5066 Y1.5206
G1 X0.5066 Y2.2935
G1 Z-0.06 F20
G2 X0.5691 Y2.356 I0.0625 J0 F30
G1 X0.9387 Y2.356
G1 X1.2004 Y2.356
G1 X1.5691 Y2.356
G2 X1.6316 Y2.2935 I0 J-0.0625
G1 X1.6316 Y1.4899
G1 X1.6316 Y1.2399
G1 X1.6316 Y0.5554
G2 X1.5691 Y0.4929 I-0.0625 J0
G1 X1.2053 Y0.4929
G1 X0.9553 Y0.4929
G1 X0.5691 Y0.4929
G2 X0.5066 Y0.5554 I0 J0.0625
G1 X0.5066 Y1.2706
G1 X0.5066 Y1.5206
G1 X0.5066 Y2.2935
G1 Z-0.09 F20
G2 X0.5691 Y2.356 I0.0625 J0 F30
G1 X0.9387 Y2.356
G1 X1.2004 Y2.356
G1 X1.5691 Y2.356
G2 X1.6316 Y2.2935 I0 J-0.0625
G1 X1.6316 Y1.4899
G1 X1.6316 Y1.2399
G1 X1.6316 Y0.5554
G2 X1.5691 Y0.4929 I-0.0625 J0
G1 X1.2053 Y0.4929
G1 X0.9553 Y0.4929
G1 X0.5691 Y0.4929
G2 X0.5066 Y0.5554 I0 J0.0625
G1 X0.5066 Y1.2706
G1 X0.5066 Y1.5206
G1 X0.5066 Y2.2935
G1 Z-0.12 F20
G2 X0.5691 Y2.356 I0.0625 J0 F30
G1 X0.9387 Y2.356
G1 X1.2004 Y2.356
G1 X1.5691 Y2.356
G2 X1.6316 Y2.2935 I0 J-0.0625
G1 X1.6316 Y1.4899
G1 X1.6316 Y1.2399
G1 X1.6316 Y0.5554
G2 X1.5691 Y0.4929 I-0.0625 J0
G1 X1.2053 Y0.4929
G1 X0.9553 Y0.4929
G1 X0.5691 Y0.4929
G2 X0.5066 Y0.5554 I0 J0.0625
G1 X0.5066 Y1.2706
G1 X0.5066 Y1.5206
G1 X0.5066 Y2.2935
G1 Z-0.15 F20
G2 X0.5691 Y2.356 I0.0625 J0 F30
G1 X0.9387 Y2.356
G1 Z-0.14 F20
G1 X1.2004 Y2.356 F30
G1 Z-0.15 F20
G1 X1.5691 Y2.356 F30
G2 X1.6316 Y2.2935 I0 J-0.0625
G1 X1.6316 Y1.4899
G1 Z-0.14 F20
G1 X1.6316 Y1.2399 F30
G1 Z-0.15 F20
G1 X1.6316 Y0.5554 F30
G2 X1.5691 Y0.4929 I-0.0625 J0
G1 X1.2053 Y0.4929
G1 Z-0.14 F20
G1 X0.9553 Y0.4929 F30
G1 Z-0.15 F20
G1 X0.5691 Y0.4929 F30
G2 X0.5066 Y0.5554 I0 J0.0625
G1 X0.5066 Y1.2706
G1 Z-0.14 F20
G1 X0.5066 Y1.5206 F30
G1 Z-0.15 F20
G1 X0.5066 Y2.2935 F30
G1 Z-0.18 F20
G2 X0.5691 Y2.356 I0.0625 J0 F30
G1 X0.9387 Y2.356
G1 Z-0.14 F20
G1 X1.2004 Y2.356 F30
G1 Z-0.18 F20
G1 X1.5691 Y2.356 F30
G2 X1.6316 Y2.2935 I0 J-0.0625
G1 X1.6316 Y1.4899
G1 Z-0.14 F20
G1 X1.6316 Y1.2399 F30
G1 Z-0.18 F20
G1 X1.6316 Y0.5554 F30
G2 X1.5691 Y0.4929 I-0.0625 J0
G1 X1.2053 Y0.4929
G1 Z-0.14 F20
G1 X0.9553 Y0.4929 F30
G1 Z-0.18 F20
G1 X0.5691 Y0.4929 F30
G2 X0.5066 Y0.5554 I0 J0.0625
G1 X0.5066 Y1.2706
G1 Z-0.14 F20
G1 X0.5066 Y1.5206 F30
G1 Z-0.18 F20
G1 X0.5066 Y2.2935 F30
G1 Z-0.21 F20
G2 X0.5691 Y2.356 I0.0625 J0 F30
G1 X0.9387 Y2.356
G1 Z-0.14 F20
G1 X1.2004 Y2.356 F30
G1 Z-0.21 F20
G1 X1.5691 Y2.356 F30
G2 X1.6316 Y2.2935 I0 J-0.0625
G1 X1.6316 Y1.4899
G1 Z-0.14 F20
G1 X1.6316 Y1.2399 F30
G1 Z-0.21 F20
G1 X1.6316 Y0.5554 F30
G2 X1.5691 Y0.4929 I-0.0625 J0
G1 X1.2053 Y0.4929
G1 Z-0.14 F20
G1 X0.9553 Y0.4929 F30
G1 Z-0.21 F20
G1 X0.5691 Y0.4929 F30
G2 X0.5066 Y0.5554 I0 J0.0625
G1 X0.5066 Y1.2706
G1 Z-0.14 F20
G1 X0.5066 Y1.5206 F30
G1 Z-0.21 F20
G1 X0.5066 Y2.2935 F30
G1 Z-0.22 F20
G2 X0.5691 Y2.356 I0.0625 J0 F30
G1 X0.9387 Y2.356
G1 Z-0.14 F20
G1 X1.2004 Y2.356 F30
G1 Z-0.22 F20
G1 X1.5691 Y2.356 F30
G2 X1.6316 Y2.2935 I0 J-0.0625
G1 X1.6316 Y1.4899
G1 Z-0.14 F20
G1 X1.6316 Y1.2399 F30
G1 Z-0.22 F20
G1 X1.6316 Y0.5554 F30
G2 X1.5691 Y0.4929 I-0.0625 J0
G1 X1.2053 Y0.4929
G1 Z-0.14 F20
G1 X0.9553 Y0.4929 F30
G1 Z-0.22 F20
G1 X0.5691 Y0.4929 F30
G2 X0.5066 Y0.5554 I0 J0.0625
G1 X0.5066 Y1.2706
G1 Z-0.14 F20
G1 X0.5066 Y1.5206 F30
G1 Z-0.22 F20
G1 X0.5066 Y2.2935 F30
G0 Z0.25
G0 X1.6613 Y4.9344
G1 Z-0.03 F20
G2 X1.7238 Y4.9969 I0.0625 J0 F30
G1 X2.1052 Y4.9969
G1 X2.3552 Y4.9969
G1 X2.7238 Y4.9969
G2 X2.7863 Y4.9344 I0 J-0.0625
G1 X2.7863 Y4.1312
G1 X2.7863 Y3.8808
G1 X2.7863 Y3.1963
G2 X2.7238 Y3.1338 I-0.0625 J0
G1 X2.2075 Y3.1338
G1 X1.9575 Y3.1338
G1 X1.7238 Y3.1338
G2 X1.6613 Y3.1963 I0 J0.0625
G1 X1.6613 Y3.8763
G1 X1.6613 Y4.1263
G1 X1.6613 Y4.9344
G1 Z-0.06 F20
G2 X1.7238 Y4.9969 I0.0625 J0 F30
G1 X2.1052 Y4.9969
G1 X2.3552 Y4.9969
G1 X2.7238 Y4.9969
G2 X2.7863 Y4.9344 I0 J-0.0625
G1 X2.7863 Y4.1312
G1 X2.7863 Y3.8808
G1 X2.7863 Y3.1963
G2 X2.7238 Y3.1338 I-0.0625 J0
G1 X2.2075 Y3.1338
G1 X1.9575 Y3.1338
G1 X1.7238 Y3.1338
G2 X1.6613 Y3.1963 I0 J0.0625
G1 X1.6613 Y3.8763
G1 X1.6613 Y4.1263
G1 X1.6613 Y4.9344
G1 Z-0.09 F20
G2 X1.7238 Y4.9969 I0.0625 J0 F30
G1 X2.1052 Y4.9969
G1 X2.3552 Y4.9969
G1 X2.7238 Y4.9969
G2 X2.7863 Y4.9344 I0 J-0.0625
G1 X2.7863 Y4.1312
G1 X2.7863 Y3.8808
G1 X2.7863 Y3.1963
G2 X2.7238 Y3.1338 I-0.0625 J0
G1 X2.2075 Y3.1338
G1 X1.9575 Y3.1338
G1 X1.7238 Y3.1338
G2 X1.6613 Y3.1963 I0 J0.0625
G1 X1.6613 Y3.8763
G1 X1.6613 Y4.1263
G1 X1.6613 Y4.9344
G1 Z-0.12 F20
G2 X1.7238 Y4.9969 I0.0625 J0 F30
G1 X2.1052 Y4.9969
G1 X2.3552 Y4.9969
G1 X2.7238 Y4.9969
G2 X2.7863 Y4.9344 I0 J-0.0625
G1 X2.7863 Y4.1312
G1 X2.7863 Y3.8808
G1 X2.7863 Y3.1963
G2 X2.7238 Y3.1338 I-0.0625 J0
G1 X2.2075 Y3.1338
G1 X1.9575 Y3.1338
G1 X1.7238 Y3.1338
G2 X1.6613 Y3.1963 I0 J0.0625
G1 X1.6613 Y3.8763
G1 X1.6613 Y4.1263
G1 X1.6613 Y4.9344
G1 Z-0.15 F20
G2 X1.7238 Y4.9969 I0.0625 J0 F30
G1 X2.1052 Y4.9969
G1 Z-0.14 F20
G1 X2.3552 Y4.9969 F30
G1 Z-0.15 F20
G1 X2.7238 Y4.9969 F30
G2 X2.7863 Y4.9344 I0 J-0.0625
G1 X2.7863 Y4.1312
G1 Z-0.14 F20
G1 X2.7863 Y3.8808 F30
G1 Z-0.15 F20
G1 X2.7863 Y3.1963 F30
G2 X2.7238 Y3.1338 I-0.0625 J0
G1 X2.2075 Y3.1338
G1 Z-0.14 F20
G1 X1.9575 Y3.1338 F30
G1 Z-0.15 F20
G1 X1.7238 Y3.1338 F30
G2 X1.6613 Y3.1963 I0 J0.0625
G1 X1.6613 Y3.8763
G1 Z-0.14 F20
G1 X1.6613 Y4.1263 F30
G1 Z-0.15 F20
G1 X1.6613 Y4.9344 F30
G1 Z-0.18 F20
G2 X1.7238 Y4.9969 I0.0625 J0 F30
G1 X2.1052 Y4.9969
G1 Z-0.14 F20
G1 X2.3552 Y4.9969 F30
G1 Z-0.18 F20
G1 X2.7238 Y4.9969 F30
G2 X2.7863 Y4.9344 I0 J-0.0625
G1 X2.7863 Y4.1312
G1 Z-0.14 F20
G1 X2.7863 Y3.8808 F30
G1 Z-0.18 F20
G1 X2.7863 Y3.1963 F30
G2 X2.7238 Y3.1338 I-0.0625 J0
G1 X2.2075 Y3.1338
G1 Z-0.14 F20
G1 X1.9575 Y3.1338 F30
G1 Z-0.18 F20
G1 X1.7238 Y3.1338 F30
G2 X1.6613 Y3.1963 I0 J0.0625
G1 X1.6613 Y3.8763
G1 Z-0.14 F20
G1 X1.6613 Y4.1263 F30
G1 Z-0.18 F20
G1 X1.6613 Y4.9344 F30
G1 Z-0.21 F20
G2 X1.7238 Y4.9969 I0.0625 J0 F30
G1 X2.1052 Y4.9969
G1 Z-0.14 F20
G1 X2.3552 Y4.9969 F30
G1 Z-0.21 F20
G1 X2.7238 Y4.9969 F30
G2 X2.7863 Y4.9344 I0 J-0.0625
G1 X2.7863 Y4.1312
G1 Z-0.14 F20
G1 X2.7863 Y3.8808 F30
G1 Z-0.21 F20
G1 X2.7863 Y3.1963 F30
G2 X2.7238 Y3.1338 I-0.0625 J0
G1 X2.2075 Y3.1338
G1 Z-0.14 F20
G1 X1.9575 Y3.1338 F30
G1 Z-0.21 F20
G1 X1.7238 Y3.1338 F30
G2 X1.6613 Y3.1963 I0 J0.0625
G1 X1.6613 Y3.8763
G1 Z-0.14 F20
G1 X1.6613 Y4.1263 F30
G1 Z-0.21 F20
G1 X1.6613 Y4.9344 F30
G1 Z-0.22 F20
G2 X1.7238 Y4.9969 I0.0625 J0 F30
G1 X2.1052 Y4.9969
G1 Z-0.14 F20
G1 X2.3552 Y4.9969 F30
G1 Z-0.22 F20
G1 X2.7238 Y4.9969 F30
G2 X2.7863 Y4.9344 I0 J-0.0625
G1 X2.7863 Y4.1312
G1 Z-0.14 F20
G1 X2.7863 Y3.8808 F30
G1 Z-0.22 F20
G1 X2.7863 Y3.1963 F30
G2 X2.7238 Y3.1338 I-0.0625 J0
G1 X2.2075 Y3.1338
G1 Z-0.14 F20
G1 X1.9575 Y3.1338 F30
G1 Z-0.22 F20
G1 X1.7238 Y3.1338 F30
G2 X1.6613 Y3.1963 I0 J0.0625
G1 X1.6613 Y3.8763
G1 Z-0.14 F20
G1 X1.6613 Y4.1263 F30
G1 Z-0.22 F20
G1 X1.6613 Y4.9344 F30
G0 Z0.25
G0 X0.5066 Y4.9344
G1 Z-0.03 F20
G2 X0.5691 Y4.9969 I0.0625 J0 F30
G1 X0.9328 Y4.9969
G1 X1.1828 Y4.9969
G1 X1.5691 Y4.9969
G2 X1.6316 Y4.9344 I0 J-0.0625
G1 X1.6316 Y4.1308
G1 X1.6316 Y3.8808
G1 X1.6316 Y3.1963
G2 X1.5691 Y3.1338 I-0.0625 J0
G1 X1.0704 Y3.1338
G1 X0.8204 Y3.1338
G1 X0.5691 Y3.1338
G2 X0.5066 Y3.1963 I0 J0.0625
G1 X0.5066 Y3.8998
G1 X0.5066 Y4.1498
G1 X0.5066 Y4.9344
G1 Z-0.06 F20
G2 X0.5691 Y4.9969 I0.0625 J0 F30
G1 X0.9328 Y4.9969
G1 X1.1828 Y4.9969
G1 X1.5691 Y4.9969
G2 X1.6316 Y4.9344 I0 J-0.0625
G1 X1.6316 Y4.1308
G1 X1.6316 Y3.8808
G1 X1.6316 Y3.1963
G2 X1.5691 Y3.1338 I-0.0625 J0
G1 X1.0704 Y3.1338
G1 X0.8204 Y3.1338
G1 X0.5691 Y3.1338
G2 X0.5066 Y3.1963 I0 J0.0625
G1 X0.5066 Y3.8998
G1 X0.5066 Y4.1498
G1 X0.5066 Y4.9344
G1 Z-0.09 F20
G2 X0.5691 Y4.9969 I0.0625 J0 F30
G1 X0.9328 Y4.9969
G1 X1.1828 Y4.9969
G1 X1.5691 Y4.9969
G2 X1.6316 Y4.9344 I0 J-0.0625
G1 X1.6316 Y4.1308
G1 X1.6316 Y3.8808
G1 X1.6316 Y3.1963
G2 X1.5691 Y3.1338 I-0.0625 J0
G1 X1.0704 Y3.1338
G1 X0.8204 Y3.1338
G1 X0.5691 Y3.1338
G2 X0.5066 Y3.1963 I0 J0.0625
G1 X0.5066 Y3.8998
G1 X0.5066 Y4.1498
G1 X0.5066 Y4.9344
G1 Z-0.12 F20
G2 X0.5691 Y4.9969 I0.0625 J0 F30
G1 X0.9328 Y4.9969
G1 X1.1828 Y4.9969
G1 X1.5691 Y4.9969
G2 X1.6316 Y4.9344 I0 J-0.0625
G1 X1.6316 Y4.1308
G1 X1.6316 Y3.8808
G1 X1.6316 Y3.1963
G2 X1.5691 Y3.1338 I-0.0625 J0
G1 X1.0704 Y3.1338
G1 X0.8204 Y3.1338
G1 X0.5691 Y3.1338
G2 X0.5066 Y3.1963 I0 J0.0625
G1 X0.5066 Y3.8998
G1 X0.5066 Y4.1498
G1 X0.5066 Y4.9344
G1 Z-0.15 F20
G2 X0.5691 Y4.9969 I0.0625 J0 F30
G1 X0.9328 Y4.9969
G1 Z-0.14 F20
G1 X1.1828 Y4.9969 F30
G1 Z-0.15 F20
G1 X1.5691 Y4.9969 F30
G2 X1.6316 Y4.9344 I0 J-0.0625
G1 X1.6316 Y4.1308
G1 Z-0.14 F20
G1 X1.6316 Y3.8808 F30
G1 Z-0.15 F20
G1 X1.6316 Y3.1963 F30
G2 X1.5691 Y3.1338 I-0.0625 J0
G1 X1.0704 Y3.1338
G1 Z-0.14 F20
G1 X0.8204 Y3.1338 F30
G1 Z-0.15 F20
G1 X0.5691 Y3.1338 F30
G2 X0.5066 Y3.1963 I0 J0.0625
G1 X0.5066 Y3.8998
G1 Z-0.14 F20
G1 X0.5066 Y4.1498 F30
G1 Z-0.15 F20
G1 X0.5066 Y4.9344 F30
G1 Z-0.18 F20
G2 X0.5691 Y4.9969 I0.0625 J0 F30
G1 X0.9328 Y4.9969
G1 Z-0.14 F20
G1 X1.1828 Y4.9969 F30
G1 Z-0.18 F20
G1 X1.5691 Y4.9969 F30
G2 X1.6316 Y4.9344 I0 J-0.0625
G1 X1.6316 Y4.1308
G1 Z-0.14 F20
G1 X1.6316 Y3.8808 F30
G1 Z-0.18 F20
G1 X1.6316 Y3.1963 F30
G2 X1.5691 Y3.1338 I-0.0625 J0
G1 X1.0704 Y3.1338
G1 Z-0.14 F20
G1 X0.8204 Y3.1338 F30
G1 Z-0.18 F20
G1 X0.5691 Y3.1338 F30
G2 X0.5066 Y3.1963 I0 J0.0625
G1 X0.5066 Y3.8998
G1 Z-0.14 F20
G1 X0.5066 Y4.1498 F30
G1 Z-0.18 F20
G1 X0.5066 Y4.9344 F30
G1 Z-0.21 F20
G2 X0.5691 Y4.9969 I0.0625 J0 F30
G1 X0.9328 Y4.9969
G1 Z-0.14 F20
G1 X1.1828 Y4.9969 F30
G1 Z-0.21 F20
G1 X1.5691 Y4.9969 F30
G2 X1.6316 Y4.9344 I0 J-0.0625
G1 X1.6316 Y4.1308
G1 Z-0.14 F20
G1 X1.6316 Y3.8808 F30
G1 Z-0.21 F20
G1 X1.6316 Y3.1963 F30
G2 X1.5691 Y3.1338 I-0.0625 J0
G1 X1.0704 Y3.1338
G1 Z-0.14 F20
G1 X0.8204 Y3.1338 F30
G1 Z-0.21 F20
G1 X0.5691 Y3.1338 F30
G2 X0.5066 Y3.1963 I0 J0.0625
G1 X0.5066 Y3.8998
G1 Z-0.14 F20
G1 X0.5066 Y4.1498 F30
G1 Z-0.21 F20
G1 X0.5066 Y4.9344 F30
G1 Z-0.22 F20
G2 X0.5691 Y4.9969 I0.0625 J0 F30
G1 X0.9328 Y4.9969
G1 Z-0.14 F20
G1 X1.1828 Y4.9969 F30
G1 Z-0.22 F20
G1 X1.5691 Y4.9969 F30
G2 X1.6316 Y4.9344 I0 J-0.0625
G1 X1.6316 Y4.1308
G1 Z-0.14 F20
G1 X1.6316 Y3.8808 F30
G1 Z-0.22 F20
G1 X1.6316 Y3.1963 F30
G2 X1.5691 Y3.1338 I-0.0625 J0
G1 X1.0704 Y3.1338
G1 Z-0.14 F20
G1 X0.8204 Y3.1338 F30
G1 Z-0.22 F20
G1 X0.5691 Y3.1338 F30
G2 X0.5066 Y3.1963 I0 J0.0625
G1 X0.5066 Y3.8998
G1 Z-0.14 F20
G1 X0.5066 Y4.1498 F30
G1 Z-0.22 F20
G1 X0.5066 Y4.9344 F30
G0 Z0.25
G0 X1.0674 Y3.1074
G1 Z-0.03 F20
G1 X1.5691 Y3.1074 F30
G2 X1.6316 Y3.0449 I0 J-0.0625
G1 X1.6316 Y3.0449
G1 X1.6316 Y2.8449
G2 X1.5691 Y2.7824 I-0.0625 J0
G1 X1.4718 Y2.7824
G3 X1.4702 Y2.7822 I0.0034 J-0.0271
G3 X1.4697 Y2.7753 I0.0453 J-0.0068
G1 X1.4697 Y2.7753
G1 X1.4697 Y2.7156
G3 X1.4718 Y2.708 I0.0348 J0.0056
G1 X1.4721 Y2.7075
G1 X1.5691 Y2.7074
G2 X1.6316 Y2.6449 I0 J-0.0625
G1 X1.6316 Y2.4449
G2 X1.5691 Y2.3824 I-0.0625 J0
G1 X1.2006 Y2.3824
G1 X1.0674 Y2.3824
G1 X0.9506 Y2.3824
G1 X0.5657 Y2.3824
G2 X0.5032 Y2.4449 I0 J0.0625
G1 X0.5032 Y2.6449
G2 X0.5657 Y2.7074 I0.0625 J0
G1 X0.6627 Y2.7075
G1 X0.663 Y2.708
G3 X0.6651 Y2.7156 I-0.0327 J0.0131
G1 X0.6651 Y2.7753
G1 X0.6651 Y2.7753
G3 X0.6646 Y2.7822 I-0.0459 J0
G3 X0.663 Y2.7824 I-0.005 J-0.0268
G1 X0.5657 Y2.7824
G2 X0.5032 Y2.8449 I0 J0.0625
G1 X0.5032 Y2.8449
G1 X0.5032 Y3.0449
G2 X0.5657 Y3.1074 I0.0625 J0
G1 X0.8174 Y3.1074
G1 X1.0674 Y3.1074
G1 Z-0.06 F20
G1 X1.5691 Y3.1074 F30
G2 X1.6316 Y3.0449 I0 J-0.0625
G1 X1.6316 Y3.0449
G1 X1.6316 Y2.8449
G2 X1.5691 Y2.7824 I-0.0625 J0
G1 X1.4718 Y2.7824
G3 X1.4702 Y2.7822 I0.0034 J-0.0271
G3 X1.4697 Y2.7753 I0.0453 J-0.0068
G1 X1.4697 Y2.7753
G1 X1.4697 Y2.7156
G3 X1.4718 Y2.708 I0.0348 J0.0056
G1 X1.4721 Y2.7075
G1 X1.5691 Y2.7074
G2 X1.6316 Y2.6449 I0 J-0.0625
G1 X1.6316 Y2.4449
G2 X1.5691 Y2.3824 I-0.0625 J0
G1 X1.2006 Y2.3824
G1 X1.0674 Y2.3824
G1 X0.9506 Y2.3824
G1 X0.5657 Y2.3824
G2 X0.5032 Y2.4449 I0 J0.0625
G1 X0.5032 Y2.6449
G2 X0.5657 Y2.7074 I0.0625 J0
G1 X0.6627 Y2.7075
G1 X0.663 Y2.708
G3 X0.6651 Y2.7156 I-0.0327 J0.0131
G1 X0.6651 Y2.7753
G1 X0.6651 Y2.7753
G3 X0.6646 Y2.7822 I-0.0459 J0
G3 X0.663 Y2.7824 I-0.005 J-0.0268
G1 X0.5657 Y2.7824
G2 X0.5032 Y2.8449 I0 J0.0625
G1 X0.5032 Y2.8449
G1 X0.5032 Y3.0449
G2 X0.5657 Y3.1074 I0.0625 J0
G1 X0.8174 Y3.1074
G1 X1.0674 Y3.1074
G1 Z-0.09 F20
G1 X1.5691 Y3.1074 F30
G2 X1.6316 Y3.0449 I0 J-0.0625
G1 X1.6316 Y3.0449
G1 X1.6316 Y2.8449
G2 X1.5691 Y2.7824 I-0.0625 J0
G1 X1.4718 Y2.7824
G3 X1.4702 Y2.7822 I0.0034 J-0.0271
G3 X1.4697 Y2.7753 I0.0453 J-0.0068
G1 X1.4697 Y2.7753
G1 X1.4697 Y2.7156
G3 X1.4718 Y2.708 I0.0348 J0.0056
G1 X1.4721 Y2.7075
G1 X1.5691 Y2.7074
G2 X1.6316 Y2.6449 I0 J-0.0625
G1 X1.6316 Y2.4449
G2 X1.5691 Y2.3824 I-0.0625 J0
G1 X1.2006 Y2.3824
G1 X1.0674 Y2.3824
G1 X0.9506 Y2.3824
G1 X0.5657 Y2.3824
G2 X0.5032 Y2.4449 I0 J0.0625
G1 X0.5032 Y2.6449
G2 X0.5657 Y2.7074 I0.0625 J0
G1 X0.6627 Y2.7075
G1 X0.663 Y2.708
G3 X0.6651 Y2.7156 I-0.0327 J0.0131
G1 X0.6651 Y2.7753
G1 X0.6651 Y2.7753
G3 X0.6646 Y2.7822 I-0.0459 J0
G3 X0.663 Y2.7824 I-0.005 J-0.0268
G1 X0.5657 Y2.7824
G2 X0.5032 Y2.8449 I0 J0.0625
G1 X0.5032 Y2.8449
G1 X0.5032 Y3.0449
G2 X0.5657 Y3.1074 I0.0625 J0
G1 X0.8174 Y3.1074
G1 X1.0674 Y3.1074
G1 Z-0.12 F20
G1 X1.5691 Y3.1074 F30
G2 X1.6316 Y3.0449 I0 J-0.0625
G1 X1.6316 Y3.0449
G1 X1.6316 Y2.8449
G2 X1.5691 Y2.7824 I-0.0625 J0
G1 X1.4718 Y2.7824
G3 X1.4702 Y2.7822 I0.0034 J-0.0271
G3 X1.4697 Y2.7753 I0.0453 J-0.0068
G1 X1.4697 Y2.7753
G1 X1.4697 Y2.7156
G3 X1.4718 Y2.708 I0.0348 J0.0056
G1 X1.4721 Y2.7075
G1 X1.5691 Y2.7074
G2 X1.6316 Y2.6449 I0 J-0.0625
G1 X1.6316 Y2.4449
G2 X1.5691 Y2.3824 I-0.0625 J0
G1 X1.2006 Y2.3824
G1 X1.0674 Y2.3824
G1 X0.9506 Y2.3824
G1 X0.5657 Y2.3824
G2 X0.5032 Y2.4449 I0 J0.0625
G1 X0.5032 Y2.6449
G2 X0.5657 Y2.7074 I0.0625 J0
G1 X0.6627 Y2.7075
G1 X0.663 Y2.708
G3 X0.6651 Y2.7156 I-0.0327 J0.0131
G1 X0.6651 Y2.7753
G1 X0.6651 Y2.7753
G3 X0.6646 Y2.7822 I-0.0459 J0
G3 X0.663 Y2.7824 I-0.005 J-0.0268
G1 X0.5657 Y2.7824
G2 X0.5032 Y2.8449 I0 J0.0625
G1 X0.5032 Y2.8449
G1 X0.5032 Y3.0449
G2 X0.5657 Y3.1074 I0.0625 J0
G1 X0.8174 Y3.1074
G1 X1.0674 Y3.1074
G1 Z-0.15 F20
G1 X1.5691 Y3.1074 F30
G2 X1.6316 Y3.0449 I0 J-0.0625
G1 X1.6316 Y3.0449
G1 X1.6316 Y2.8449
G2 X1.5691 Y2.7824 I-0.0625 J0
G1 X1.4718 Y2.7824
G3 X1.4702 Y2.7822 I0.0034 J-0.0271
G3 X1.4697 Y2.7753 I0.0453 J-0.0068
G1 X1.4697 Y2.7753
G1 X1.4697 Y2.7156
G3 X1.4718 Y2.708 I0.0348 J0.0056
G1 X1.4721 Y2.7075
G1 X1.5691 Y2.7074
G2 X1.6316 Y2.6449 I0 J-0.0625
G1 X1.6316 Y2.4449
G2 X1.5691 Y2.3824 I-0.0625 J0
G1 X1.2006 Y2.3824
G1 Z-0.14 F20
G1 X1.0674 Y2.3824 F30
G1 X0.9506 Y2.3824
G1 Z-0.15 F20
G1 X0.5657 Y2.3824 F30
G2 X0.5032 Y2.4449 I0 J0.0625
G1 X0.5032 Y2.6449
G2 X0.5657 Y2.7074 I0.0625 J0
G1 X0.6627 Y2.7075
G1 X0.663 Y2.708
G3 X0.6651 Y2.7156 I-0.0327 J0.0131
G1 X0.6651 Y2.7753
G1 X0.6651 Y2.7753
G3 X0.6646 Y2.7822 I-0.0459 J0
G3 X0.663 Y2.7824 I-0.005 J-0.0268
G1 X0.5657 Y2.7824
G2 X0.5032 Y2.8449 I0 J0.0625
G1 X0.5032 Y2.8449
G1 X0.5032 Y3.0449
G2 X0.5657 Y3.1074 I0.0625 J0
G1 X0.8174 Y3.1074
G1 Z-0.14 F20
G1 X1.0674 Y3.1074 F30
G1 Z-0.18 F20
G1 X1.5691 Y3.1074 F30
G2 X1.6316 Y3.0449 I0 J-0.0625
G1 X1.6316 Y3.0449
G1 X1.6316 Y2.8449
G2 X1.5691 Y2.7824 I-0.0625 J0
G1 X1.4718 Y2.7824
G3 X1.4702 Y2.7822 I0.0034 J-0.0271
G3 X1.4697 Y2.7753 I0.0453 J-0.0068
G1 X1.4697 Y2.7753
G1 X1.4697 Y2.7156
G3 X1.4718 Y2.708 I0.0348 J0.0056
G1 X1.4721 Y2.7075
G1 X1.5691 Y2.7074
G2 X1.6316 Y2.6449 I0 J-0.0625
G1 X1.6316 Y2.4449
G2 X1.5691 Y2.3824 I-0.0625 J0
G1 X1.2006 Y2.3824
G1 Z-0.14 F20
G1 X1.0674 Y2.3824 F30
G1 X0.9506 Y2.3824
G1 Z-0.18 F20
G1 X0.5657 Y2.3824 F30
G2 X0.5032 Y2.4449 I0 J0.0625
G1 X0.5032 Y2.6449
G2 X0.5657 Y2.7074 I0.0625 J0
G1 X0.6627 Y2.7075
G1 X0.663 Y2.708
G3 X0.6651 Y2.7156 I-0.0327 J0.0131
G1 X0.6651 Y2.7753
G1 X0.6651 Y2.7753
G3 X0.6646 Y2.7822 I-0.0459 J0
G3 X0.663 Y2.7824 I-0.005 J-0.0268
G1 X0.5657 Y2.7824
G2 X0.5032 Y2.8449 I0 J0.0625
G1 X0.5032 Y2.8449
G1 X0.5032 Y3.0449
G2 X0.5657 Y3.1074 I0.0625 J0
G1 X0.8174 Y3.1074
G1 Z-0.14 F20
G1 X1.0674 Y3.1074 F30
G1 Z-0.21 F20
G1 X1.5691 Y3.1074 F30
G2 X1.6316 Y3.0449 I0 J-0.0625
G1 X1.6316 Y3.0449
G1 X1.6316 Y2.8449
G2 X1.5691 Y2.7824 I-0.0625 J0
G1 X1.4718 Y2.7824
G3 X1.4702 Y2.7822 I0.0034 J-0.0271
G3 X1.4697 Y2.7753 I0.0453 J-0.0068
G1 X1.4697 Y2.7753
G1 X1.4697 Y2.7156
G3 X1.4718 Y2.708 I0.0348 J0.0056
G1 X1.4721 Y2.7075
G1 X1.5691 Y2.7074
G2 X1.6316 Y2.6449 I0 J-0.0625
G1 X1.6316 Y2.4449
G2 X1.5691 Y2.3824 I-0.0625 J0
G1 X1.2006 Y2.3824
G1 Z-0.14 F20
G1 X1.0674 Y2.3824 F30
G1 X0.9506 Y2.3824
G1 Z-0.21 F20
G1 X0.5657 Y2.3824 F30
G2 X0.5032 Y2.4449 I0 J0.0625
G1 X0.5032 Y2.6449
G2 X0.5657 Y2.7074 I0.0625 J0
G1 X0.6627 Y2.7075
G1 X0.663 Y2.708
G3 X0.6651 Y2.7156 I-0.0327 J0.0131
G1 X0.6651 Y2.7753
G1 X0.6651 Y2.7753
G3 X0.6646 Y2.7822 I-0.0459 J0
G3 X0.663 Y2.7824 I-0.005 J-0.0268
G1 X0.5657 Y2.7824
G2 X0.5032 Y2.8449 I0 J0.0625
G1 X0.5032 Y2.8449
G1 X0.5032 Y3.0449
G2 X0.5657 Y3.1074 I0.0625 J0
G1 X0.8174 Y3.1074
G1 Z-0.14 F20
G1 X1.0674 Y3.1074 F30
G1 Z-0.22 F20
G1 X1.5691 Y3.1074 F30
G2 X1.6316 Y3.0449 I0 J-0.0625
G1 X1.6316 Y3.0449
G1 X1.6316 Y2.8449
G2 X1.5691 Y2.7824 I-0.0625 J0
G1 X1.4718 Y2.7824
G3 X1.4702 Y2.7822 I0.0034 J-0.0271
G3 X1.4697 Y2.7753 I0.0453 J-0.0068
G1 X1.4697 Y2.7753
G1 X1.4697 Y2.7156
G3 X1.4718 Y2.708 I0.0348 J0.0056
G1 X1.4721 Y2.7075
G1 X1.5691 Y2.7074
G2 X1.6316 Y2.6449 I0 J-0.0625
G1 X1.6316 Y2.4449
G2 X1.5691 Y2.3824 I-0.0625 J0
G1 X1.2006 Y2.3824
G1 Z-0.14 F20
G1 X1.0674 Y2.3824 F30
G1 X0.9506 Y2.3824
G1 Z-0.22 F20
G1 X0.5657 Y2.3824 F30
G2 X0.5032 Y2.4449 I0 J0.0625
G1 X0.5032 Y2.6449
G2 X0.5657 Y2.7074 I0.0625 J0
G1 X0.6627 Y2.7075
G1 X0.663 Y2.708
G3 X0.6651 Y2.7156 I-0.0327 J0.0131
G1 X0.6651 Y2.7753
G1 X0.6651 Y2.7753
G3 X0.6646 Y2.7822 I-0.0459 J0
G3 X0.663 Y2.7824 I-0.005 J-0.0268
G1 X0.5657 Y2.7824
G2 X0.5032 Y2.8449 I0 J0.0625
G1 X0.5032 Y2.8449
G1 X0.5032 Y3.0449
G2 X0.5657 Y3.1074 I0.0625 J0
G1 X0.8174 Y3.1074
G1 Z-0.14 F20
G1 X1.0674 Y3.1074 F30
G0 Z0.25
G0 X2.2221 Y3.1074
G1 Z-0.03 F20
G1 X2.7238 Y3.1074 F30
G2 X2.7863 Y3.0449 I0 J-0.0625
G1 X2.7863 Y3.0449
G1 X2.7863 Y2.8449
G2 X2.7238 Y2.7824 I-0.0625 J0
G1 X2.6266 Y2.7824
G3 X2.625 Y2.7822 I0.0034 J-0.0271
G3 X2.6244 Y2.7753 I0.0453 J-0.0068
G1 X2.6244 Y2.7753
G1 X2.6244 Y2.7156
G3 X2.6265 Y2.708 I0.0348 J0.0056
G1 X2.6268 Y2.7075
G1 X2.7238 Y2.7074
G2 X2.7863 Y2.6449 I0 J-0.0625
G1 X2.7863 Y2.4449
G2 X2.7238 Y2.3824 I-0.0625 J0
G1 X2.3223 Y2.3824
G1 X2.2221 Y2.3824
G1 X2.0723 Y2.3824
G1 X1.7205 Y2.3824
G2 X1.658 Y2.4449 I0 J0.0625
G1 X1.658 Y2.6449
G2 X1.7205 Y2.7074 I0.0625 J0
G1 X1.8175 Y2.7075
G1 X1.8177 Y2.708
G3 X1.8198 Y2.7156 I-0.0327 J0.0131
G1 X1.8198 Y2.7753
G1 X1.8198 Y2.7753
G3 X1.8193 Y2.7822 I-0.0459 J0
G3 X1.8177 Y2.7824 I-0.005 J-0.0268
G1 X1.7205 Y2.7824
G2 X1.658 Y2.8449 I0 J0.0625
G1 X1.658 Y2.8449
G1 X1.658 Y3.0449
G2 X1.7205 Y3.1074 I0.0625 J0
G1 X1.9597 Y3.1074
G1 X2.2221 Y3.1074
G1 Z-0.06 F20
G1 X2.7238 Y3.1074 F30
G2 X2.7863 Y3.0449 I0 J-0.0625
G1 X2.7863 Y3.0449
G1 X2.7863 Y2.8449
G2 X2.7238 Y2.7824 I-0.0625 J0
G1 X2.6266 Y2.7824
G3 X2.625 Y2.7822 I0.0034 J-0.0271
G3 X2.6244 Y2.7753 I0.0453 J-0.0068
G1 X2.6244 Y2.7753
G1 X2.6244 Y2.7156
G3 X2.6265 Y2.708 I0.0348 J0.0056
G1 X2.6268 Y2.7075
G1 X2.7238 Y2.7074
G2 X2.7863 Y2.6449 I0 J-0.0625
G1 X2.7863 Y2.4449
G2 X2.7238 Y2.3824 I-0.0625 J0
G1 X2.3223 Y2.3824
G1 X2.2221 Y2.3824
G1 X2.0723 Y2.3824
G1 X1.7205 Y2.3824
G2 X1.658 Y2.4449 I0 J0.0625
G1 X1.658 Y2.6449
G2 X1.7205 Y2.7074 I0.0625 J0
G1 X1.8175 Y2.7075
G1 X1.8177 Y2.708
G3 X1.8198 Y2.7156 I-0.0327 J0.0131
G1 X1.8198 Y2.7753
G1 X1.8198 Y2.7753
G3 X1.8193 Y2.7822 I-0.0459 J0
G3 X1.8177 Y2.7824 I-0.005 J-0.0268
G1 X1.7205 Y2.7824
G2 X1.658 Y2.8449 I0 J0.0625
G1 X1.658 Y2.8449
G1 X1.658 Y3.0449
G2 X1.7205 Y3.1074 I0.0625 J0
G1 X1.9597 Y3.1074
G1 X2.2221 Y3.1074
G1 Z-0.09 F20
G1 X2.7238 Y3.1074 F30
G2 X2.7863 Y3.0449 I0 J-0.0625
G1 X2.7863 Y3.0449
G1 X2.7863 Y2.8449
G2 X2.7238 Y2.7824 I-0.0625 J0
G1 X2.6266 Y2.7824
G3 X2.625 Y2.7822 I0.0034 J-0.0271
G3 X2.6244 Y2.7753 I0.0453 J-0.0068
G1 X2.6244 Y2.7753
G1 X2.6244 Y2.7156
G3 X2.6265 Y2.708 I0.0348 J0.0056
G1 X2.6268 Y2.7075
G1 X2.7238 Y2.7074
G2 X2.7863 Y2.6449 I0 J-0.0625
G1 X2.7863 Y2.4449
G2 X2.7238 Y2.3824 I-0.0625 J0
G1 X2.3223 Y2.3824
G1 X2.2221 Y2.3824
G1 X2.0723 Y2.3824
G1 X1.7205 Y2.3824
G2 X1.658 Y2.4449 I0 J0.0625
G1 X1.658 Y2.6449
G2 X1.7205 Y2.7074 I0.0625 J0
G1 X1.8175 Y2.7075
G1 X1.8177 Y2.708
G3 X1.8198 Y2.7156 I-0.0327 J0.0131
G1 X1.8198 Y2.7753
G1 X1.8198 Y2.7753
G3 X1.8193 Y2.7822 I-0.0459 J0
G3 X1.8177 Y2.7824 I-0.005 J-0.0268
G1 X1.7205 Y2.7824
G2 X1.658 Y2.8449 I0 J0.0625
G1 X1.658 Y2.8449
G1 X1.658 Y3.0449
G2 X1.7205 Y3.1074 I0.0625 J0
G1 X1.9597 Y3.1074
G1 X2.2221 Y3.1074
G1 Z-0.12 F20
G1 X2.7238 Y3.1074 F30
G2 X2.7863 Y3.0449 I0 J-0.0625
G1 X2.7863 Y3.0449
G1 X2.7863 Y2.8449
G2 X2.7238 Y2.7824 I-0.0625 J0
G1 X2.6266 Y2.7824
G3 X2.625 Y2.7822 I0.0034 J-0.0271
G3 X2.6244 Y2.7753 I0.0453 J-0.0068
G1 X2.6244 Y2.7753
G1 X2.6244 Y2.7156
G3 X2.6265 Y2.708 I0.0348 J0.0056
G1 X2.6268 Y2.7075
G1 X2.7238 Y2.7074
G2 X2.7863 Y2.6449 I0 J-0.0625
G1 X2.7863 Y2.4449
G2 X2.7238 Y2.3824 I-0.0625 J0
G1 X2.3223 Y2.3824
G1 X2.2221 Y2.3824
G1 X2.0723 Y2.3824
G1 X1.7205 Y2.3824
G2 X1.658 Y2.4449 I0 J0.0625
G1 X1.658 Y2.6449
G2 X1.7205 Y2.7074 I0.0625 J0
G1 X1.8175 Y2.7075
G1 X1.8177 Y2.708
G3 X1.8198 Y2.7156 I-0.0327 J0.0131
G1 X1.8198 Y2.7753
G1 X1.8198 Y2.7753
G3 X1.8193 Y2.7822 I-0.0459 J0
G3 X1.8177 Y2.7824 I-0.005 J-0.0268
G1 X1.7205 Y2.7824
G2 X1.658 Y2.8449 I0 J0.0625
G1 X1.658 Y2.8449
G1 X1.658 Y3.0449
G2 X1.7205 Y3.1074 I0.0625 J0
G1 X1.9597 Y3.1074
G1 X2.2221 Y3.1074
G1 Z-0.15 F20
G1 X2.7238 Y3.1074 F30
G2 X2.7863 Y3.0449 I0 J-0.0625
G1 X2.7863 Y3.0449
G1 X2.7863 Y2.8449
G2 X2.7238 Y2.7824 I-0.0625 J0
G1 X2.6266 Y2.7824
G3 X2.625 Y2.7822 I0.0034 J-0.0271
G3 X2.6244 Y2.7753 I0.0453 J-0.0068
G1 X2.6244 Y2.7753
G1 X2.6244 Y2.7156
G3 X2.6265 Y2.708 I0.0348 J0.0056
G1 X2.6268 Y2.7075
G1 X2.7238 Y2.7074
G2 X2.7863 Y2.6449 I0 J-0.0625
G1 X2.7863 Y2.4449
G2 X2.7238 Y2.3824 I-0.0625 J0
G1 X2.3223 Y2.3824
G1 Z-0.14 F20
G1 X2.2221 Y2.3824 F30
G1 X2.0723 Y2.3824
G1 Z-0.15 F20
G1 X1.7205 Y2.3824 F30
G2 X1.658 Y2.4449 I0 J0.0625
G1 X1.658 Y2.6449
G2 X1.7205 Y2.7074 I0.0625 J0
G1 X1.8175 Y2.7075
G1 X1.8177 Y2.708
G3 X1.8198 Y2.7156 I-0.0327 J0.0131
G1 X1.8198 Y2.7753
G1 X1.8198 Y2.7753
G3 X1.8193 Y2.7822 I-0.0459 J0
G3 X1.8177 Y2.7824 I-0.005 J-0.0268
G1 X1.7205 Y2.7824
G2 X1.658 Y2.8449 I0 J0.0625
G1 X1.658 Y2.8449
G1 X1.658 Y3.0449
G2 X1.7205 Y3.1074 I0.0625 J0
G1 X1.9597 Y3.1074
G1 Z-0.14 F20
G1 X2.2221 Y3.1074 F30
G1 Z-0.18 F20
G1 X2.7238 Y3.1074 F30
G2 X2.7863 Y3.0449 I0 J-0.0625
G1 X2.7863 Y3.0449
G1 X2.7863 Y2.8449
G2 X2.7238 Y2.7824 I-0.0625 J0
G1 X2.6266 Y2.7824
G3 X2.625 Y2.7822 I0.0034 J-0.0271
G3 X2.6244 Y2.7753 I0.0453 J-0.0068
G1 X2.6244 Y2.7753
G1 X2.6244 Y2.7156
G3 X2.6265 Y2.708 I0.0348 J0.0056
G1 X2.6268 Y2.7075
G1 X2.7238 Y2.7074
G2 X2.7863 Y2.6449 I0 J-0.0625
G1 X2.7863 Y2.4449
G2 X2.7238 Y2.3824 I-0.0625 J0
G1 X2.3223 Y2.3824
G1 Z-0.14 F20
G1 X2.2221 Y2.3824 F30
G1 X2.0723 Y2.3824
G1 Z-0.18 F20
G1 X1.7205 Y2.3824 F30
G2 X1.658 Y2.4449 I0 J0.0625
G1 X1.658 Y2.6449
G2 X1.7205 Y2.7074 I0.0625 J0
G1 X1.8175 Y2.7075
G1 X1.8177 Y2.708
G3 X1.8198 Y2.7156 I-0.0327 J0.0131
G1 X1.8198 Y2.7753
G1 X1.8198 Y2.7753
G3 X1.8193 Y2.7822 I-0.0459 J0
G3 X1.8177 Y2.7824 I-0.005 J-0.0268
G1 X1.7205 Y2.7824
G2 X1.658 Y2.8449 I0 J0.0625
G1 X1.658 Y2.8449
G1 X1.658 Y3.0449
G2 X1.7205 Y3.1074 I0.0625 J0
G1 X1.9597 Y3.1074
G1 Z-0.14 F20
G1 X2.2221 Y3.1074 F30
G1 Z-0.21 F20
G1 X2.7238 Y3.1074 F30
G2 X2.7863 Y3.0449 I0 J-0.0625
G1 X2.7863 Y3.0449
G1 X2.7863 Y2.8449
G2 X2.7238 Y2.7824 I-0.0625 J0
G1 X2.6266 Y2.7824
G3 X2.625 Y2.7822 I0.0034 J-0.0271
G3 X2.6244 Y2.7753 I0.0453 J-0.0068
G1 X2.6244 Y2.7753
G1 X2.6244 Y2.7156
G3 X2.6265 Y2.708 I0.0348 J0.0056
G1 X2.6268 Y2.7075
G1 X2.7238 Y2.7074
G2 X2.7863 Y2.6449 I0 J-0.0625
G1 X2.7863 Y2.4449
G2 X2.7238 Y2.3824 I-0.0625 J0
G1 X2.3223 Y2.3824
G1 Z-0.14 F20
G1 X2.2221 Y2.3824 F30
G1 X2.0723 Y2.3824
G1 Z-0.21 F20
G1 X1.7205 Y2.3824 F30
G2 X1.658 Y2.4449 I0 J0.0625
G1 X1.658 Y2.6449
G2 X1.7205 Y2.7074 I0.0625 J0
G1 X1.8175 Y2.7075
G1 X1.8177 Y2.708
G3 X1.8198 Y2.7156 I-0.0327 J0.0131
G1 X1.8198 Y2.7753
G1 X1.8198 Y2.7753
G3 X1.8193 Y2.7822 I-0.0459 J0
G3 X1.8177 Y2.7824 I-0.005 J-0.0268
G1 X1.7205 Y2.7824
G2 X1.658 Y2.8449 I0 J0.0625
G1 X1.658 Y2.8449
G1 X1.658 Y3.0449
G2 X1.7205 Y3.1074 I0.0625 J0
G1 X1.9597 Y3.1074
G1 Z-0.14 F20
G1 X2.2221 Y3.1074 F30
G1 Z-0.22 F20
G1 X2.7238 Y3.1074 F30
G2 X2.7863 Y3.0449 I0 J-0.0625
G1 X2.7863 Y3.0449
G1 X2.7863 Y2.8449
G2 X2.7238 Y2.7824 I-0.0625 J0
G1 X2.6266 Y2.7824
G3 X2.625 Y2.7822 I0.0034 J-0.0271
G3 X2.6244 Y2.7753 I0.0453 J-0.0068
G1 X2.6244 Y2.7753
G1 X2.6244 Y2.7156
G3 X2.6265 Y2.708 I0.0348 J0.0056
G1 X2.6268 Y2.7075
G1 X2.7238 Y2.7074
G2 X2.7863 Y2.6449 I0 J-0.0625
G1 X2.7863 Y2.4449
G2 X2.7238 Y2.3824 I-0.0625 J0
G1 X2.3223 Y2.3824
G1 Z-0.14 F20
G1 X2.2221 Y2.3824 F30
G1 X2.0723 Y2.3824
G1 Z-0.22 F20
G1 X1.7205 Y2.3824 F30
G2 X1.658 Y2.4449 I0 J0.0625
G1 X1.658 Y2.6449
G2 X1.7205 Y2.7074 I0.0625 J0
G1 X1.8175 Y2.7075
G1 X1.8177 Y2.708
G3 X1.8198 Y2.7156 I-0.0327 J0.0131
G1 X1.8198 Y2.7753
G1 X1.8198 Y2.7753
G3 X1.8193 Y2.7822 I-0.0459 J0
G3 X1.8177 Y2.7824 I-0.005 J-0.0268
G1 X1.7205 Y2.7824
G2 X1.658 Y2.8449 I0 J0.0625
G1 X1.658 Y2.8449
G1 X1.658 Y3.0449
G2 X1.7205 Y3.1074 I0.0625 J0
G1 X1.9597 Y3.1074
G1 Z-0.14 F20
G1 X2.2221 Y3.1074 F30
G0 Z0.25
M5
M30
