(Generated by PartKam Version 0.05)

G20 G90 G40

(drill 1-0)
G0 Z0.25
T0 M6
G17
M3
G0 X4.2834 Y3.7003
G1 Z-0.125 F20
G1 Z0 F20
G1 Z-0.25 F20
G1 Z0 F20
G1 Z-0.375 F20
G1 Z0 F20
G1 Z-0.5 F20
G1 Z0 F20
G1 Z-0.625 F20
G1 Z0 F20
G1 Z-0.75 F20
G1 Z0 F20
G1 Z-0.78 F20
G1 Z0 F20

(drill 1-1)
G0 Z0.25
G0 X4.2834 Y4.4877
G1 Z-0.125 F20
G1 Z0 F20
G1 Z-0.25 F20
G1 Z0 F20
G1 Z-0.375 F20
G1 Z0 F20
G1 Z-0.5 F20
G1 Z0 F20
G1 Z-0.625 F20
G1 Z0 F20
G1 Z-0.75 F20
G1 Z0 F20
G1 Z-0.78 F20
G1 Z0 F20

(drill 1-2)
G0 Z0.25
G0 X3.4264 Y4.4877
G1 Z-0.125 F20
G1 Z0 F20
G1 Z-0.25 F20
G1 Z0 F20
G1 Z-0.375 F20
G1 Z0 F20
G1 Z-0.5 F20
G1 Z0 F20
G1 Z-0.625 F20
G1 Z0 F20
G1 Z-0.75 F20
G1 Z0 F20
G1 Z-0.78 F20
G1 Z0 F20

(drill 1-3)
G0 Z0.25
G0 X3.4264 Y3.7003
G1 Z-0.125 F20
G1 Z0 F20
G1 Z-0.25 F20
G1 Z0 F20
G1 Z-0.375 F20
G1 Z0 F20
G1 Z-0.5 F20
G1 Z0 F20
G1 Z-0.625 F20
G1 Z0 F20
G1 Z-0.75 F20
G1 Z0 F20
G1 Z-0.78 F20
G1 Z0 F20

(pocket 5-0)
G0 Z0.25
G0 X4.3174 Y3.6859
G1 Z-0.02 F20
G3 X4.3203 Y3.7001 I-0.0339 J0.0144 F20
G1 X4.3203 Y3.7003
G3 X4.3176 Y3.7141 I-0.0369 J0
G3 X4.3098 Y3.7261 I-0.0342 J-0.0138
G3 X4.2979 Y3.7342 I-0.0263 J-0.0258
G3 X4.2838 Y3.7372 I-0.0144 J-0.0339
G3 X4.2697 Y3.7345 I-0.0004 J-0.0369
G3 X4.2576 Y3.7266 I0.0138 J-0.0342
G3 X4.2495 Y3.7147 I0.0258 J-0.0263
G3 X4.2466 Y3.7005 I0.0339 J-0.0144
G1 X4.2466 Y3.7003
G3 X4.2493 Y3.6865 I0.0369 J0
G3 X4.2571 Y3.6745 I0.0342 J0.0138
G3 X4.269 Y3.6664 I0.0263 J0.0258
G3 X4.2831 Y3.6634 I0.0144 J0.0339
G3 X4.2972 Y3.6661 I0.0004 J0.0369
G3 X4.3093 Y3.674 I-0.0138 J0.0342
G3 X4.3174 Y3.6859 I-0.0258 J0.0263
G1 X4.4209 Y3.6418 F20
G3 X4.4328 Y3.6989 I-0.1374 J0.0585 F20
G3 X4.4328 Y3.7003 I-0.1493 J0.0014
G3 X4.422 Y3.7561 I-0.1494 J0
G3 X4.3901 Y3.8049 I-0.1385 J-0.0558
G3 X4.3419 Y3.8377 I-0.1066 J-0.1046
G3 X4.2849 Y3.8496 I-0.0585 J-0.1374
G3 X4.2276 Y3.8388 I-0.0014 J-0.1493
G3 X4.1789 Y3.8069 I0.0558 J-0.1385
G3 X4.146 Y3.7588 I0.1046 J-0.1066
G3 X4.1341 Y3.7017 I0.1374 J-0.0585
G3 X4.1341 Y3.7003 I0.1493 J-0.0014
G3 X4.1449 Y3.6445 I0.1494 J0
G3 X4.1768 Y3.5957 I0.1385 J0.0558
G3 X4.225 Y3.5629 I0.1066 J0.1046
G3 X4.282 Y3.551 I0.0585 J0.1374
G3 X4.3393 Y3.5618 I0.0014 J0.1493
G3 X4.388 Y3.5937 I-0.0558 J0.1385
G3 X4.4209 Y3.6418 I-0.1046 J0.1066
G0 Z0.25
G0 X4.3174 Y3.6859
G1 Z-0.04 F20
G3 X4.3203 Y3.7001 I-0.0339 J0.0144 F20
G1 X4.3203 Y3.7003
G3 X4.3176 Y3.7141 I-0.0369 J0
G3 X4.3098 Y3.7261 I-0.0342 J-0.0138
G3 X4.2979 Y3.7342 I-0.0263 J-0.0258
G3 X4.2838 Y3.7372 I-0.0144 J-0.0339
G3 X4.2697 Y3.7345 I-0.0004 J-0.0369
G3 X4.2576 Y3.7266 I0.0138 J-0.0342
G3 X4.2495 Y3.7147 I0.0258 J-0.0263
G3 X4.2466 Y3.7005 I0.0339 J-0.0144
G1 X4.2466 Y3.7003
G3 X4.2493 Y3.6865 I0.0369 J0
G3 X4.2571 Y3.6745 I0.0342 J0.0138
G3 X4.269 Y3.6664 I0.0263 J0.0258
G3 X4.2831 Y3.6634 I0.0144 J0.0339
G3 X4.2972 Y3.6661 I0.0004 J0.0369
G3 X4.3093 Y3.674 I-0.0138 J0.0342
G3 X4.3174 Y3.6859 I-0.0258 J0.0263
G1 X4.4209 Y3.6418 F20
G3 X4.4328 Y3.6989 I-0.1374 J0.0585 F20
G3 X4.4328 Y3.7003 I-0.1493 J0.0014
G3 X4.422 Y3.7561 I-0.1494 J0
G3 X4.3901 Y3.8049 I-0.1385 J-0.0558
G3 X4.3419 Y3.8377 I-0.1066 J-0.1046
G3 X4.2849 Y3.8496 I-0.0585 J-0.1374
G3 X4.2276 Y3.8388 I-0.0014 J-0.1493
G3 X4.1789 Y3.8069 I0.0558 J-0.1385
G3 X4.146 Y3.7588 I0.1046 J-0.1066
G3 X4.1341 Y3.7017 I0.1374 J-0.0585
G3 X4.1341 Y3.7003 I0.1493 J-0.0014
G3 X4.1449 Y3.6445 I0.1494 J0
G3 X4.1768 Y3.5957 I0.1385 J0.0558
G3 X4.225 Y3.5629 I0.1066 J0.1046
G3 X4.282 Y3.551 I0.0585 J0.1374
G3 X4.3393 Y3.5618 I0.0014 J0.1493
G3 X4.388 Y3.5937 I-0.0558 J0.1385
G3 X4.4209 Y3.6418 I-0.1046 J0.1066
G0 Z0.25
G0 X4.3174 Y3.6859
G1 Z-0.06 F20
G3 X4.3203 Y3.7001 I-0.0339 J0.0144 F20
G1 X4.3203 Y3.7003
G3 X4.3176 Y3.7141 I-0.0369 J0
G3 X4.3098 Y3.7261 I-0.0342 J-0.0138
G3 X4.2979 Y3.7342 I-0.0263 J-0.0258
G3 X4.2838 Y3.7372 I-0.0144 J-0.0339
G3 X4.2697 Y3.7345 I-0.0004 J-0.0369
G3 X4.2576 Y3.7266 I0.0138 J-0.0342
G3 X4.2495 Y3.7147 I0.0258 J-0.0263
G3 X4.2466 Y3.7005 I0.0339 J-0.0144
G1 X4.2466 Y3.7003
G3 X4.2493 Y3.6865 I0.0369 J0
G3 X4.2571 Y3.6745 I0.0342 J0.0138
G3 X4.269 Y3.6664 I0.0263 J0.0258
G3 X4.2831 Y3.6634 I0.0144 J0.0339
G3 X4.2972 Y3.6661 I0.0004 J0.0369
G3 X4.3093 Y3.674 I-0.0138 J0.0342
G3 X4.3174 Y3.6859 I-0.0258 J0.0263
G1 X4.4209 Y3.6418 F20
G3 X4.4328 Y3.6989 I-0.1374 J0.0585 F20
G3 X4.4328 Y3.7003 I-0.1493 J0.0014
G3 X4.422 Y3.7561 I-0.1494 J0
G3 X4.3901 Y3.8049 I-0.1385 J-0.0558
G3 X4.3419 Y3.8377 I-0.1066 J-0.1046
G3 X4.2849 Y3.8496 I-0.0585 J-0.1374
G3 X4.2276 Y3.8388 I-0.0014 J-0.1493
G3 X4.1789 Y3.8069 I0.0558 J-0.1385
G3 X4.146 Y3.7588 I0.1046 J-0.1066
G3 X4.1341 Y3.7017 I0.1374 J-0.0585
G3 X4.1341 Y3.7003 I0.1493 J-0.0014
G3 X4.1449 Y3.6445 I0.1494 J0
G3 X4.1768 Y3.5957 I0.1385 J0.0558
G3 X4.225 Y3.5629 I0.1066 J0.1046
G3 X4.282 Y3.551 I0.0585 J0.1374
G3 X4.3393 Y3.5618 I0.0014 J0.1493
G3 X4.388 Y3.5937 I-0.0558 J0.1385
G3 X4.4209 Y3.6418 I-0.1046 J0.1066
G0 Z0.25
G0 X4.3174 Y3.6859
G1 Z-0.08 F20
G3 X4.3203 Y3.7001 I-0.0339 J0.0144 F20
G1 X4.3203 Y3.7003
G3 X4.3176 Y3.7141 I-0.0369 J0
G3 X4.3098 Y3.7261 I-0.0342 J-0.0138
G3 X4.2979 Y3.7342 I-0.0263 J-0.0258
G3 X4.2838 Y3.7372 I-0.0144 J-0.0339
G3 X4.2697 Y3.7345 I-0.0004 J-0.0369
G3 X4.2576 Y3.7266 I0.0138 J-0.0342
G3 X4.2495 Y3.7147 I0.0258 J-0.0263
G3 X4.2466 Y3.7005 I0.0339 J-0.0144
G1 X4.2466 Y3.7003
G3 X4.2493 Y3.6865 I0.0369 J0
G3 X4.2571 Y3.6745 I0.0342 J0.0138
G3 X4.269 Y3.6664 I0.0263 J0.0258
G3 X4.2831 Y3.6634 I0.0144 J0.0339
G3 X4.2972 Y3.6661 I0.0004 J0.0369
G3 X4.3093 Y3.674 I-0.0138 J0.0342
G3 X4.3174 Y3.6859 I-0.0258 J0.0263
G1 X4.4209 Y3.6418 F20
G3 X4.4328 Y3.6989 I-0.1374 J0.0585 F20
G3 X4.4328 Y3.7003 I-0.1493 J0.0014
G3 X4.422 Y3.7561 I-0.1494 J0
G3 X4.3901 Y3.8049 I-0.1385 J-0.0558
G3 X4.3419 Y3.8377 I-0.1066 J-0.1046
G3 X4.2849 Y3.8496 I-0.0585 J-0.1374
G3 X4.2276 Y3.8388 I-0.0014 J-0.1493
G3 X4.1789 Y3.8069 I0.0558 J-0.1385
G3 X4.146 Y3.7588 I0.1046 J-0.1066
G3 X4.1341 Y3.7017 I0.1374 J-0.0585
G3 X4.1341 Y3.7003 I0.1493 J-0.0014
G3 X4.1449 Y3.6445 I0.1494 J0
G3 X4.1768 Y3.5957 I0.1385 J0.0558
G3 X4.225 Y3.5629 I0.1066 J0.1046
G3 X4.282 Y3.551 I0.0585 J0.1374
G3 X4.3393 Y3.5618 I0.0014 J0.1493
G3 X4.388 Y3.5937 I-0.0558 J0.1385
G3 X4.4209 Y3.6418 I-0.1046 J0.1066
G0 Z0.25
G0 X4.3174 Y3.6859
G1 Z-0.1 F20
G3 X4.3203 Y3.7001 I-0.0339 J0.0144 F20
G1 X4.3203 Y3.7003
G3 X4.3176 Y3.7141 I-0.0369 J0
G3 X4.3098 Y3.7261 I-0.0342 J-0.0138
G3 X4.2979 Y3.7342 I-0.0263 J-0.0258
G3 X4.2838 Y3.7372 I-0.0144 J-0.0339
G3 X4.2697 Y3.7345 I-0.0004 J-0.0369
G3 X4.2576 Y3.7266 I0.0138 J-0.0342
G3 X4.2495 Y3.7147 I0.0258 J-0.0263
G3 X4.2466 Y3.7005 I0.0339 J-0.0144
G1 X4.2466 Y3.7003
G3 X4.2493 Y3.6865 I0.0369 J0
G3 X4.2571 Y3.6745 I0.0342 J0.0138
G3 X4.269 Y3.6664 I0.0263 J0.0258
G3 X4.2831 Y3.6634 I0.0144 J0.0339
G3 X4.2972 Y3.6661 I0.0004 J0.0369
G3 X4.3093 Y3.674 I-0.0138 J0.0342
G3 X4.3174 Y3.6859 I-0.0258 J0.0263
G1 X4.4209 Y3.6418 F20
G3 X4.4328 Y3.6989 I-0.1374 J0.0585 F20
G3 X4.4328 Y3.7003 I-0.1493 J0.0014
G3 X4.422 Y3.7561 I-0.1494 J0
G3 X4.3901 Y3.8049 I-0.1385 J-0.0558
G3 X4.3419 Y3.8377 I-0.1066 J-0.1046
G3 X4.2849 Y3.8496 I-0.0585 J-0.1374
G3 X4.2276 Y3.8388 I-0.0014 J-0.1493
G3 X4.1789 Y3.8069 I0.0558 J-0.1385
G3 X4.146 Y3.7588 I0.1046 J-0.1066
G3 X4.1341 Y3.7017 I0.1374 J-0.0585
G3 X4.1341 Y3.7003 I0.1493 J-0.0014
G3 X4.1449 Y3.6445 I0.1494 J0
G3 X4.1768 Y3.5957 I0.1385 J0.0558
G3 X4.225 Y3.5629 I0.1066 J0.1046
G3 X4.282 Y3.551 I0.0585 J0.1374
G3 X4.3393 Y3.5618 I0.0014 J0.1493
G3 X4.388 Y3.5937 I-0.0558 J0.1385
G3 X4.4209 Y3.6418 I-0.1046 J0.1066
G0 Z0.25
G0 X4.3174 Y3.6859
G1 Z-0.12 F20
G3 X4.3203 Y3.7001 I-0.0339 J0.0144 F20
G1 X4.3203 Y3.7003
G3 X4.3176 Y3.7141 I-0.0369 J0
G3 X4.3098 Y3.7261 I-0.0342 J-0.0138
G3 X4.2979 Y3.7342 I-0.0263 J-0.0258
G3 X4.2838 Y3.7372 I-0.0144 J-0.0339
G3 X4.2697 Y3.7345 I-0.0004 J-0.0369
G3 X4.2576 Y3.7266 I0.0138 J-0.0342
G3 X4.2495 Y3.7147 I0.0258 J-0.0263
G3 X4.2466 Y3.7005 I0.0339 J-0.0144
G1 X4.2466 Y3.7003
G3 X4.2493 Y3.6865 I0.0369 J0
G3 X4.2571 Y3.6745 I0.0342 J0.0138
G3 X4.269 Y3.6664 I0.0263 J0.0258
G3 X4.2831 Y3.6634 I0.0144 J0.0339
G3 X4.2972 Y3.6661 I0.0004 J0.0369
G3 X4.3093 Y3.674 I-0.0138 J0.0342
G3 X4.3174 Y3.6859 I-0.0258 J0.0263
G1 X4.4209 Y3.6418 F20
G3 X4.4328 Y3.6989 I-0.1374 J0.0585 F20
G3 X4.4328 Y3.7003 I-0.1493 J0.0014
G3 X4.422 Y3.7561 I-0.1494 J0
G3 X4.3901 Y3.8049 I-0.1385 J-0.0558
G3 X4.3419 Y3.8377 I-0.1066 J-0.1046
G3 X4.2849 Y3.8496 I-0.0585 J-0.1374
G3 X4.2276 Y3.8388 I-0.0014 J-0.1493
G3 X4.1789 Y3.8069 I0.0558 J-0.1385
G3 X4.146 Y3.7588 I0.1046 J-0.1066
G3 X4.1341 Y3.7017 I0.1374 J-0.0585
G3 X4.1341 Y3.7003 I0.1493 J-0.0014
G3 X4.1449 Y3.6445 I0.1494 J0
G3 X4.1768 Y3.5957 I0.1385 J0.0558
G3 X4.225 Y3.5629 I0.1066 J0.1046
G3 X4.282 Y3.551 I0.0585 J0.1374
G3 X4.3393 Y3.5618 I0.0014 J0.1493
G3 X4.388 Y3.5937 I-0.0558 J0.1385
G3 X4.4209 Y3.6418 I-0.1046 J0.1066
G0 Z0.25
G0 X4.3174 Y3.6859
G1 Z-0.14 F20
G3 X4.3203 Y3.7001 I-0.0339 J0.0144 F20
G1 X4.3203 Y3.7003
G3 X4.3176 Y3.7141 I-0.0369 J0
G3 X4.3098 Y3.7261 I-0.0342 J-0.0138
G3 X4.2979 Y3.7342 I-0.0263 J-0.0258
G3 X4.2838 Y3.7372 I-0.0144 J-0.0339
G3 X4.2697 Y3.7345 I-0.0004 J-0.0369
G3 X4.2576 Y3.7266 I0.0138 J-0.0342
G3 X4.2495 Y3.7147 I0.0258 J-0.0263
G3 X4.2466 Y3.7005 I0.0339 J-0.0144
G1 X4.2466 Y3.7003
G3 X4.2493 Y3.6865 I0.0369 J0
G3 X4.2571 Y3.6745 I0.0342 J0.0138
G3 X4.269 Y3.6664 I0.0263 J0.0258
G3 X4.2831 Y3.6634 I0.0144 J0.0339
G3 X4.2972 Y3.6661 I0.0004 J0.0369
G3 X4.3093 Y3.674 I-0.0138 J0.0342
G3 X4.3174 Y3.6859 I-0.0258 J0.0263
G1 X4.4209 Y3.6418 F20
G3 X4.4328 Y3.6989 I-0.1374 J0.0585 F20
G3 X4.4328 Y3.7003 I-0.1493 J0.0014
G3 X4.422 Y3.7561 I-0.1494 J0
G3 X4.3901 Y3.8049 I-0.1385 J-0.0558
G3 X4.3419 Y3.8377 I-0.1066 J-0.1046
G3 X4.2849 Y3.8496 I-0.0585 J-0.1374
G3 X4.2276 Y3.8388 I-0.0014 J-0.1493
G3 X4.1789 Y3.8069 I0.0558 J-0.1385
G3 X4.146 Y3.7588 I0.1046 J-0.1066
G3 X4.1341 Y3.7017 I0.1374 J-0.0585
G3 X4.1341 Y3.7003 I0.1493 J-0.0014
G3 X4.1449 Y3.6445 I0.1494 J0
G3 X4.1768 Y3.5957 I0.1385 J0.0558
G3 X4.225 Y3.5629 I0.1066 J0.1046
G3 X4.282 Y3.551 I0.0585 J0.1374
G3 X4.3393 Y3.5618 I0.0014 J0.1493
G3 X4.388 Y3.5937 I-0.0558 J0.1385
G3 X4.4209 Y3.6418 I-0.1046 J0.1066
G0 Z0.25
G0 X4.3174 Y3.6859
G1 Z-0.16 F20
G3 X4.3203 Y3.7001 I-0.0339 J0.0144 F20
G1 X4.3203 Y3.7003
G3 X4.3176 Y3.7141 I-0.0369 J0
G3 X4.3098 Y3.7261 I-0.0342 J-0.0138
G3 X4.2979 Y3.7342 I-0.0263 J-0.0258
G3 X4.2838 Y3.7372 I-0.0144 J-0.0339
G3 X4.2697 Y3.7345 I-0.0004 J-0.0369
G3 X4.2576 Y3.7266 I0.0138 J-0.0342
G3 X4.2495 Y3.7147 I0.0258 J-0.0263
G3 X4.2466 Y3.7005 I0.0339 J-0.0144
G1 X4.2466 Y3.7003
G3 X4.2493 Y3.6865 I0.0369 J0
G3 X4.2571 Y3.6745 I0.0342 J0.0138
G3 X4.269 Y3.6664 I0.0263 J0.0258
G3 X4.2831 Y3.6634 I0.0144 J0.0339
G3 X4.2972 Y3.6661 I0.0004 J0.0369
G3 X4.3093 Y3.674 I-0.0138 J0.0342
G3 X4.3174 Y3.6859 I-0.0258 J0.0263
G1 X4.4209 Y3.6418 F20
G3 X4.4328 Y3.6989 I-0.1374 J0.0585 F20
G3 X4.4328 Y3.7003 I-0.1493 J0.0014
G3 X4.422 Y3.7561 I-0.1494 J0
G3 X4.3901 Y3.8049 I-0.1385 J-0.0558
G3 X4.3419 Y3.8377 I-0.1066 J-0.1046
G3 X4.2849 Y3.8496 I-0.0585 J-0.1374
G3 X4.2276 Y3.8388 I-0.0014 J-0.1493
G3 X4.1789 Y3.8069 I0.0558 J-0.1385
G3 X4.146 Y3.7588 I0.1046 J-0.1066
G3 X4.1341 Y3.7017 I0.1374 J-0.0585
G3 X4.1341 Y3.7003 I0.1493 J-0.0014
G3 X4.1449 Y3.6445 I0.1494 J0
G3 X4.1768 Y3.5957 I0.1385 J0.0558
G3 X4.225 Y3.5629 I0.1066 J0.1046
G3 X4.282 Y3.551 I0.0585 J0.1374
G3 X4.3393 Y3.5618 I0.0014 J0.1493
G3 X4.388 Y3.5937 I-0.0558 J0.1385
G3 X4.4209 Y3.6418 I-0.1046 J0.1066
G0 Z0.25
G0 X4.3174 Y3.6859
G1 Z-0.18 F20
G3 X4.3203 Y3.7001 I-0.0339 J0.0144 F20
G1 X4.3203 Y3.7003
G3 X4.3176 Y3.7141 I-0.0369 J0
G3 X4.3098 Y3.7261 I-0.0342 J-0.0138
G3 X4.2979 Y3.7342 I-0.0263 J-0.0258
G3 X4.2838 Y3.7372 I-0.0144 J-0.0339
G3 X4.2697 Y3.7345 I-0.0004 J-0.0369
G3 X4.2576 Y3.7266 I0.0138 J-0.0342
G3 X4.2495 Y3.7147 I0.0258 J-0.0263
G3 X4.2466 Y3.7005 I0.0339 J-0.0144
G1 X4.2466 Y3.7003
G3 X4.2493 Y3.6865 I0.0369 J0
G3 X4.2571 Y3.6745 I0.0342 J0.0138
G3 X4.269 Y3.6664 I0.0263 J0.0258
G3 X4.2831 Y3.6634 I0.0144 J0.0339
G3 X4.2972 Y3.6661 I0.0004 J0.0369
G3 X4.3093 Y3.674 I-0.0138 J0.0342
G3 X4.3174 Y3.6859 I-0.0258 J0.0263
G1 X4.4209 Y3.6418 F20
G3 X4.4328 Y3.6989 I-0.1374 J0.0585 F20
G3 X4.4328 Y3.7003 I-0.1493 J0.0014
G3 X4.422 Y3.7561 I-0.1494 J0
G3 X4.3901 Y3.8049 I-0.1385 J-0.0558
G3 X4.3419 Y3.8377 I-0.1066 J-0.1046
G3 X4.2849 Y3.8496 I-0.0585 J-0.1374
G3 X4.2276 Y3.8388 I-0.0014 J-0.1493
G3 X4.1789 Y3.8069 I0.0558 J-0.1385
G3 X4.146 Y3.7588 I0.1046 J-0.1066
G3 X4.1341 Y3.7017 I0.1374 J-0.0585
G3 X4.1341 Y3.7003 I0.1493 J-0.0014
G3 X4.1449 Y3.6445 I0.1494 J0
G3 X4.1768 Y3.5957 I0.1385 J0.0558
G3 X4.225 Y3.5629 I0.1066 J0.1046
G3 X4.282 Y3.551 I0.0585 J0.1374
G3 X4.3393 Y3.5618 I0.0014 J0.1493
G3 X4.388 Y3.5937 I-0.0558 J0.1385
G3 X4.4209 Y3.6418 I-0.1046 J0.1066
G0 Z0.25
G0 X4.3174 Y3.6859
G1 Z-0.2 F20
G3 X4.3203 Y3.7001 I-0.0339 J0.0144 F20
G1 X4.3203 Y3.7003
G3 X4.3176 Y3.7141 I-0.0369 J0
G3 X4.3098 Y3.7261 I-0.0342 J-0.0138
G3 X4.2979 Y3.7342 I-0.0263 J-0.0258
G3 X4.2838 Y3.7372 I-0.0144 J-0.0339
G3 X4.2697 Y3.7345 I-0.0004 J-0.0369
G3 X4.2576 Y3.7266 I0.0138 J-0.0342
G3 X4.2495 Y3.7147 I0.0258 J-0.0263
G3 X4.2466 Y3.7005 I0.0339 J-0.0144
G1 X4.2466 Y3.7003
G3 X4.2493 Y3.6865 I0.0369 J0
G3 X4.2571 Y3.6745 I0.0342 J0.0138
G3 X4.269 Y3.6664 I0.0263 J0.0258
G3 X4.2831 Y3.6634 I0.0144 J0.0339
G3 X4.2972 Y3.6661 I0.0004 J0.0369
G3 X4.3093 Y3.674 I-0.0138 J0.0342
G3 X4.3174 Y3.6859 I-0.0258 J0.0263
G1 X4.4209 Y3.6418 F20
G3 X4.4328 Y3.6989 I-0.1374 J0.0585 F20
G3 X4.4328 Y3.7003 I-0.1493 J0.0014
G3 X4.422 Y3.7561 I-0.1494 J0
G3 X4.3901 Y3.8049 I-0.1385 J-0.0558
G3 X4.3419 Y3.8377 I-0.1066 J-0.1046
G3 X4.2849 Y3.8496 I-0.0585 J-0.1374
G3 X4.2276 Y3.8388 I-0.0014 J-0.1493
G3 X4.1789 Y3.8069 I0.0558 J-0.1385
G3 X4.146 Y3.7588 I0.1046 J-0.1066
G3 X4.1341 Y3.7017 I0.1374 J-0.0585
G3 X4.1341 Y3.7003 I0.1493 J-0.0014
G3 X4.1449 Y3.6445 I0.1494 J0
G3 X4.1768 Y3.5957 I0.1385 J0.0558
G3 X4.225 Y3.5629 I0.1066 J0.1046
G3 X4.282 Y3.551 I0.0585 J0.1374
G3 X4.3393 Y3.5618 I0.0014 J0.1493
G3 X4.388 Y3.5937 I-0.0558 J0.1385
G3 X4.4209 Y3.6418 I-0.1046 J0.1066
G0 Z0.25
G0 X4.3174 Y3.6859
G1 Z-0.22 F20
G3 X4.3203 Y3.7001 I-0.0339 J0.0144 F20
G1 X4.3203 Y3.7003
G3 X4.3176 Y3.7141 I-0.0369 J0
G3 X4.3098 Y3.7261 I-0.0342 J-0.0138
G3 X4.2979 Y3.7342 I-0.0263 J-0.0258
G3 X4.2838 Y3.7372 I-0.0144 J-0.0339
G3 X4.2697 Y3.7345 I-0.0004 J-0.0369
G3 X4.2576 Y3.7266 I0.0138 J-0.0342
G3 X4.2495 Y3.7147 I0.0258 J-0.0263
G3 X4.2466 Y3.7005 I0.0339 J-0.0144
G1 X4.2466 Y3.7003
G3 X4.2493 Y3.6865 I0.0369 J0
G3 X4.2571 Y3.6745 I0.0342 J0.0138
G3 X4.269 Y3.6664 I0.0263 J0.0258
G3 X4.2831 Y3.6634 I0.0144 J0.0339
G3 X4.2972 Y3.6661 I0.0004 J0.0369
G3 X4.3093 Y3.674 I-0.0138 J0.0342
G3 X4.3174 Y3.6859 I-0.0258 J0.0263
G1 X4.4209 Y3.6418 F20
G3 X4.4328 Y3.6989 I-0.1374 J0.0585 F20
G3 X4.4328 Y3.7003 I-0.1493 J0.0014
G3 X4.422 Y3.7561 I-0.1494 J0
G3 X4.3901 Y3.8049 I-0.1385 J-0.0558
G3 X4.3419 Y3.8377 I-0.1066 J-0.1046
G3 X4.2849 Y3.8496 I-0.0585 J-0.1374
G3 X4.2276 Y3.8388 I-0.0014 J-0.1493
G3 X4.1789 Y3.8069 I0.0558 J-0.1385
G3 X4.146 Y3.7588 I0.1046 J-0.1066
G3 X4.1341 Y3.7017 I0.1374 J-0.0585
G3 X4.1341 Y3.7003 I0.1493 J-0.0014
G3 X4.1449 Y3.6445 I0.1494 J0
G3 X4.1768 Y3.5957 I0.1385 J0.0558
G3 X4.225 Y3.5629 I0.1066 J0.1046
G3 X4.282 Y3.551 I0.0585 J0.1374
G3 X4.3393 Y3.5618 I0.0014 J0.1493
G3 X4.388 Y3.5937 I-0.0558 J0.1385
G3 X4.4209 Y3.6418 I-0.1046 J0.1066
G0 Z0.25
G0 X4.3174 Y3.6859
G1 Z-0.24 F20
G3 X4.3203 Y3.7001 I-0.0339 J0.0144 F20
G1 X4.3203 Y3.7003
G3 X4.3176 Y3.7141 I-0.0369 J0
G3 X4.3098 Y3.7261 I-0.0342 J-0.0138
G3 X4.2979 Y3.7342 I-0.0263 J-0.0258
G3 X4.2838 Y3.7372 I-0.0144 J-0.0339
G3 X4.2697 Y3.7345 I-0.0004 J-0.0369
G3 X4.2576 Y3.7266 I0.0138 J-0.0342
G3 X4.2495 Y3.7147 I0.0258 J-0.0263
G3 X4.2466 Y3.7005 I0.0339 J-0.0144
G1 X4.2466 Y3.7003
G3 X4.2493 Y3.6865 I0.0369 J0
G3 X4.2571 Y3.6745 I0.0342 J0.0138
G3 X4.269 Y3.6664 I0.0263 J0.0258
G3 X4.2831 Y3.6634 I0.0144 J0.0339
G3 X4.2972 Y3.6661 I0.0004 J0.0369
G3 X4.3093 Y3.674 I-0.0138 J0.0342
G3 X4.3174 Y3.6859 I-0.0258 J0.0263
G1 X4.4209 Y3.6418 F20
G3 X4.4328 Y3.6989 I-0.1374 J0.0585 F20
G3 X4.4328 Y3.7003 I-0.1493 J0.0014
G3 X4.422 Y3.7561 I-0.1494 J0
G3 X4.3901 Y3.8049 I-0.1385 J-0.0558
G3 X4.3419 Y3.8377 I-0.1066 J-0.1046
G3 X4.2849 Y3.8496 I-0.0585 J-0.1374
G3 X4.2276 Y3.8388 I-0.0014 J-0.1493
G3 X4.1789 Y3.8069 I0.0558 J-0.1385
G3 X4.146 Y3.7588 I0.1046 J-0.1066
G3 X4.1341 Y3.7017 I0.1374 J-0.0585
G3 X4.1341 Y3.7003 I0.1493 J-0.0014
G3 X4.1449 Y3.6445 I0.1494 J0
G3 X4.1768 Y3.5957 I0.1385 J0.0558
G3 X4.225 Y3.5629 I0.1066 J0.1046
G3 X4.282 Y3.551 I0.0585 J0.1374
G3 X4.3393 Y3.5618 I0.0014 J0.1493
G3 X4.388 Y3.5937 I-0.0558 J0.1385
G3 X4.4209 Y3.6418 I-0.1046 J0.1066
G0 Z0.25
G0 X4.3174 Y3.6859
G1 Z-0.26 F20
G3 X4.3203 Y3.7001 I-0.0339 J0.0144 F20
G1 X4.3203 Y3.7003
G3 X4.3176 Y3.7141 I-0.0369 J0
G3 X4.3098 Y3.7261 I-0.0342 J-0.0138
G3 X4.2979 Y3.7342 I-0.0263 J-0.0258
G3 X4.2838 Y3.7372 I-0.0144 J-0.0339
G3 X4.2697 Y3.7345 I-0.0004 J-0.0369
G3 X4.2576 Y3.7266 I0.0138 J-0.0342
G3 X4.2495 Y3.7147 I0.0258 J-0.0263
G3 X4.2466 Y3.7005 I0.0339 J-0.0144
G1 X4.2466 Y3.7003
G3 X4.2493 Y3.6865 I0.0369 J0
G3 X4.2571 Y3.6745 I0.0342 J0.0138
G3 X4.269 Y3.6664 I0.0263 J0.0258
G3 X4.2831 Y3.6634 I0.0144 J0.0339
G3 X4.2972 Y3.6661 I0.0004 J0.0369
G3 X4.3093 Y3.674 I-0.0138 J0.0342
G3 X4.3174 Y3.6859 I-0.0258 J0.0263
G1 X4.4209 Y3.6418 F20
G3 X4.4328 Y3.6989 I-0.1374 J0.0585 F20
G3 X4.4328 Y3.7003 I-0.1493 J0.0014
G3 X4.422 Y3.7561 I-0.1494 J0
G3 X4.3901 Y3.8049 I-0.1385 J-0.0558
G3 X4.3419 Y3.8377 I-0.1066 J-0.1046
G3 X4.2849 Y3.8496 I-0.0585 J-0.1374
G3 X4.2276 Y3.8388 I-0.0014 J-0.1493
G3 X4.1789 Y3.8069 I0.0558 J-0.1385
G3 X4.146 Y3.7588 I0.1046 J-0.1066
G3 X4.1341 Y3.7017 I0.1374 J-0.0585
G3 X4.1341 Y3.7003 I0.1493 J-0.0014
G3 X4.1449 Y3.6445 I0.1494 J0
G3 X4.1768 Y3.5957 I0.1385 J0.0558
G3 X4.225 Y3.5629 I0.1066 J0.1046
G3 X4.282 Y3.551 I0.0585 J0.1374
G3 X4.3393 Y3.5618 I0.0014 J0.1493
G3 X4.388 Y3.5937 I-0.0558 J0.1385
G3 X4.4209 Y3.6418 I-0.1046 J0.1066
G0 Z0.25
G0 X4.3174 Y3.6859
G1 Z-0.28 F20
G3 X4.3203 Y3.7001 I-0.0339 J0.0144 F20
G1 X4.3203 Y3.7003
G3 X4.3176 Y3.7141 I-0.0369 J0
G3 X4.3098 Y3.7261 I-0.0342 J-0.0138
G3 X4.2979 Y3.7342 I-0.0263 J-0.0258
G3 X4.2838 Y3.7372 I-0.0144 J-0.0339
G3 X4.2697 Y3.7345 I-0.0004 J-0.0369
G3 X4.2576 Y3.7266 I0.0138 J-0.0342
G3 X4.2495 Y3.7147 I0.0258 J-0.0263
G3 X4.2466 Y3.7005 I0.0339 J-0.0144
G1 X4.2466 Y3.7003
G3 X4.2493 Y3.6865 I0.0369 J0
G3 X4.2571 Y3.6745 I0.0342 J0.0138
G3 X4.269 Y3.6664 I0.0263 J0.0258
G3 X4.2831 Y3.6634 I0.0144 J0.0339
G3 X4.2972 Y3.6661 I0.0004 J0.0369
G3 X4.3093 Y3.674 I-0.0138 J0.0342
G3 X4.3174 Y3.6859 I-0.0258 J0.0263
G1 X4.4209 Y3.6418 F20
G3 X4.4328 Y3.6989 I-0.1374 J0.0585 F20
G3 X4.4328 Y3.7003 I-0.1493 J0.0014
G3 X4.422 Y3.7561 I-0.1494 J0
G3 X4.3901 Y3.8049 I-0.1385 J-0.0558
G3 X4.3419 Y3.8377 I-0.1066 J-0.1046
G3 X4.2849 Y3.8496 I-0.0585 J-0.1374
G3 X4.2276 Y3.8388 I-0.0014 J-0.1493
G3 X4.1789 Y3.8069 I0.0558 J-0.1385
G3 X4.146 Y3.7588 I0.1046 J-0.1066
G3 X4.1341 Y3.7017 I0.1374 J-0.0585
G3 X4.1341 Y3.7003 I0.1493 J-0.0014
G3 X4.1449 Y3.6445 I0.1494 J0
G3 X4.1768 Y3.5957 I0.1385 J0.0558
G3 X4.225 Y3.5629 I0.1066 J0.1046
G3 X4.282 Y3.551 I0.0585 J0.1374
G3 X4.3393 Y3.5618 I0.0014 J0.1493
G3 X4.388 Y3.5937 I-0.0558 J0.1385
G3 X4.4209 Y3.6418 I-0.1046 J0.1066
G0 Z0.25
G0 X4.3174 Y3.6859
G1 Z-0.3 F20
G3 X4.3203 Y3.7001 I-0.0339 J0.0144 F20
G1 X4.3203 Y3.7003
G3 X4.3176 Y3.7141 I-0.0369 J0
G3 X4.3098 Y3.7261 I-0.0342 J-0.0138
G3 X4.2979 Y3.7342 I-0.0263 J-0.0258
G3 X4.2838 Y3.7372 I-0.0144 J-0.0339
G3 X4.2697 Y3.7345 I-0.0004 J-0.0369
G3 X4.2576 Y3.7266 I0.0138 J-0.0342
G3 X4.2495 Y3.7147 I0.0258 J-0.0263
G3 X4.2466 Y3.7005 I0.0339 J-0.0144
G1 X4.2466 Y3.7003
G3 X4.2493 Y3.6865 I0.0369 J0
G3 X4.2571 Y3.6745 I0.0342 J0.0138
G3 X4.269 Y3.6664 I0.0263 J0.0258
G3 X4.2831 Y3.6634 I0.0144 J0.0339
G3 X4.2972 Y3.6661 I0.0004 J0.0369
G3 X4.3093 Y3.674 I-0.0138 J0.0342
G3 X4.3174 Y3.6859 I-0.0258 J0.0263
G1 X4.4209 Y3.6418 F20
G3 X4.4328 Y3.6989 I-0.1374 J0.0585 F20
G3 X4.4328 Y3.7003 I-0.1493 J0.0014
G3 X4.422 Y3.7561 I-0.1494 J0
G3 X4.3901 Y3.8049 I-0.1385 J-0.0558
G3 X4.3419 Y3.8377 I-0.1066 J-0.1046
G3 X4.2849 Y3.8496 I-0.0585 J-0.1374
G3 X4.2276 Y3.8388 I-0.0014 J-0.1493
G3 X4.1789 Y3.8069 I0.0558 J-0.1385
G3 X4.146 Y3.7588 I0.1046 J-0.1066
G3 X4.1341 Y3.7017 I0.1374 J-0.0585
G3 X4.1341 Y3.7003 I0.1493 J-0.0014
G3 X4.1449 Y3.6445 I0.1494 J0
G3 X4.1768 Y3.5957 I0.1385 J0.0558
G3 X4.225 Y3.5629 I0.1066 J0.1046
G3 X4.282 Y3.551 I0.0585 J0.1374
G3 X4.3393 Y3.5618 I0.0014 J0.1493
G3 X4.388 Y3.5937 I-0.0558 J0.1385
G3 X4.4209 Y3.6418 I-0.1046 J0.1066

(pocket 5-1)
G0 Z0.25
G0 X4.3174 Y4.4733
G1 Z-0.02 F20
G3 X4.3203 Y4.4875 I-0.0339 J0.0144 F20
G1 X4.3203 Y4.4877
G3 X4.3176 Y4.5015 I-0.0369 J0
G3 X4.3098 Y4.5135 I-0.0342 J-0.0138
G3 X4.2979 Y4.5216 I-0.0263 J-0.0258
G3 X4.2838 Y4.5246 I-0.0144 J-0.0339
G3 X4.2697 Y4.5219 I-0.0004 J-0.0369
G3 X4.2576 Y4.514 I0.0138 J-0.0342
G3 X4.2495 Y4.5021 I0.0258 J-0.0263
G3 X4.2466 Y4.4879 I0.0339 J-0.0144
G1 X4.2466 Y4.4877
G3 X4.2493 Y4.4739 I0.0369 J0
G3 X4.2571 Y4.4619 I0.0342 J0.0138
G3 X4.269 Y4.4538 I0.0263 J0.0258
G3 X4.2831 Y4.4508 I0.0144 J0.0339
G3 X4.2972 Y4.4535 I0.0004 J0.0369
G3 X4.3093 Y4.4614 I-0.0138 J0.0342
G3 X4.3174 Y4.4733 I-0.0258 J0.0263
G1 X4.4209 Y4.4292 F20
G3 X4.4328 Y4.4863 I-0.1374 J0.0585 F20
G3 X4.4328 Y4.4877 I-0.1493 J0.0014
G3 X4.422 Y4.5435 I-0.1494 J0
G3 X4.3901 Y4.5923 I-0.1385 J-0.0558
G3 X4.3419 Y4.6251 I-0.1066 J-0.1046
G3 X4.2849 Y4.637 I-0.0585 J-0.1374
G3 X4.2276 Y4.6262 I-0.0014 J-0.1493
G3 X4.1789 Y4.5943 I0.0558 J-0.1385
G3 X4.146 Y4.5462 I0.1046 J-0.1066
G3 X4.1341 Y4.4891 I0.1374 J-0.0585
G3 X4.1341 Y4.4877 I0.1493 J-0.0014
G3 X4.1449 Y4.4319 I0.1494 J0
G3 X4.1768 Y4.3831 I0.1385 J0.0558
G3 X4.225 Y4.3503 I0.1066 J0.1046
G3 X4.282 Y4.3384 I0.0585 J0.1374
G3 X4.3393 Y4.3492 I0.0014 J0.1493
G3 X4.388 Y4.3811 I-0.0558 J0.1385
G3 X4.4209 Y4.4292 I-0.1046 J0.1066
G0 Z0.25
G0 X4.3174 Y4.4733
G1 Z-0.04 F20
G3 X4.3203 Y4.4875 I-0.0339 J0.0144 F20
G1 X4.3203 Y4.4877
G3 X4.3176 Y4.5015 I-0.0369 J0
G3 X4.3098 Y4.5135 I-0.0342 J-0.0138
G3 X4.2979 Y4.5216 I-0.0263 J-0.0258
G3 X4.2838 Y4.5246 I-0.0144 J-0.0339
G3 X4.2697 Y4.5219 I-0.0004 J-0.0369
G3 X4.2576 Y4.514 I0.0138 J-0.0342
G3 X4.2495 Y4.5021 I0.0258 J-0.0263
G3 X4.2466 Y4.4879 I0.0339 J-0.0144
G1 X4.2466 Y4.4877
G3 X4.2493 Y4.4739 I0.0369 J0
G3 X4.2571 Y4.4619 I0.0342 J0.0138
G3 X4.269 Y4.4538 I0.0263 J0.0258
G3 X4.2831 Y4.4508 I0.0144 J0.0339
G3 X4.2972 Y4.4535 I0.0004 J0.0369
G3 X4.3093 Y4.4614 I-0.0138 J0.0342
G3 X4.3174 Y4.4733 I-0.0258 J0.0263
G1 X4.4209 Y4.4292 F20
G3 X4.4328 Y4.4863 I-0.1374 J0.0585 F20
G3 X4.4328 Y4.4877 I-0.1493 J0.0014
G3 X4.422 Y4.5435 I-0.1494 J0
G3 X4.3901 Y4.5923 I-0.1385 J-0.0558
G3 X4.3419 Y4.6251 I-0.1066 J-0.1046
G3 X4.2849 Y4.637 I-0.0585 J-0.1374
G3 X4.2276 Y4.6262 I-0.0014 J-0.1493
G3 X4.1789 Y4.5943 I0.0558 J-0.1385
G3 X4.146 Y4.5462 I0.1046 J-0.1066
G3 X4.1341 Y4.4891 I0.1374 J-0.0585
G3 X4.1341 Y4.4877 I0.1493 J-0.0014
G3 X4.1449 Y4.4319 I0.1494 J0
G3 X4.1768 Y4.3831 I0.1385 J0.0558
G3 X4.225 Y4.3503 I0.1066 J0.1046
G3 X4.282 Y4.3384 I0.0585 J0.1374
G3 X4.3393 Y4.3492 I0.0014 J0.1493
G3 X4.388 Y4.3811 I-0.0558 J0.1385
G3 X4.4209 Y4.4292 I-0.1046 J0.1066
G0 Z0.25
G0 X4.3174 Y4.4733
G1 Z-0.06 F20
G3 X4.3203 Y4.4875 I-0.0339 J0.0144 F20
G1 X4.3203 Y4.4877
G3 X4.3176 Y4.5015 I-0.0369 J0
G3 X4.3098 Y4.5135 I-0.0342 J-0.0138
G3 X4.2979 Y4.5216 I-0.0263 J-0.0258
G3 X4.2838 Y4.5246 I-0.0144 J-0.0339
G3 X4.2697 Y4.5219 I-0.0004 J-0.0369
G3 X4.2576 Y4.514 I0.0138 J-0.0342
G3 X4.2495 Y4.5021 I0.0258 J-0.0263
G3 X4.2466 Y4.4879 I0.0339 J-0.0144
G1 X4.2466 Y4.4877
G3 X4.2493 Y4.4739 I0.0369 J0
G3 X4.2571 Y4.4619 I0.0342 J0.0138
G3 X4.269 Y4.4538 I0.0263 J0.0258
G3 X4.2831 Y4.4508 I0.0144 J0.0339
G3 X4.2972 Y4.4535 I0.0004 J0.0369
G3 X4.3093 Y4.4614 I-0.0138 J0.0342
G3 X4.3174 Y4.4733 I-0.0258 J0.0263
G1 X4.4209 Y4.4292 F20
G3 X4.4328 Y4.4863 I-0.1374 J0.0585 F20
G3 X4.4328 Y4.4877 I-0.1493 J0.0014
G3 X4.422 Y4.5435 I-0.1494 J0
G3 X4.3901 Y4.5923 I-0.1385 J-0.0558
G3 X4.3419 Y4.6251 I-0.1066 J-0.1046
G3 X4.2849 Y4.637 I-0.0585 J-0.1374
G3 X4.2276 Y4.6262 I-0.0014 J-0.1493
G3 X4.1789 Y4.5943 I0.0558 J-0.1385
G3 X4.146 Y4.5462 I0.1046 J-0.1066
G3 X4.1341 Y4.4891 I0.1374 J-0.0585
G3 X4.1341 Y4.4877 I0.1493 J-0.0014
G3 X4.1449 Y4.4319 I0.1494 J0
G3 X4.1768 Y4.3831 I0.1385 J0.0558
G3 X4.225 Y4.3503 I0.1066 J0.1046
G3 X4.282 Y4.3384 I0.0585 J0.1374
G3 X4.3393 Y4.3492 I0.0014 J0.1493
G3 X4.388 Y4.3811 I-0.0558 J0.1385
G3 X4.4209 Y4.4292 I-0.1046 J0.1066
G0 Z0.25
G0 X4.3174 Y4.4733
G1 Z-0.08 F20
G3 X4.3203 Y4.4875 I-0.0339 J0.0144 F20
G1 X4.3203 Y4.4877
G3 X4.3176 Y4.5015 I-0.0369 J0
G3 X4.3098 Y4.5135 I-0.0342 J-0.0138
G3 X4.2979 Y4.5216 I-0.0263 J-0.0258
G3 X4.2838 Y4.5246 I-0.0144 J-0.0339
G3 X4.2697 Y4.5219 I-0.0004 J-0.0369
G3 X4.2576 Y4.514 I0.0138 J-0.0342
G3 X4.2495 Y4.5021 I0.0258 J-0.0263
G3 X4.2466 Y4.4879 I0.0339 J-0.0144
G1 X4.2466 Y4.4877
G3 X4.2493 Y4.4739 I0.0369 J0
G3 X4.2571 Y4.4619 I0.0342 J0.0138
G3 X4.269 Y4.4538 I0.0263 J0.0258
G3 X4.2831 Y4.4508 I0.0144 J0.0339
G3 X4.2972 Y4.4535 I0.0004 J0.0369
G3 X4.3093 Y4.4614 I-0.0138 J0.0342
G3 X4.3174 Y4.4733 I-0.0258 J0.0263
G1 X4.4209 Y4.4292 F20
G3 X4.4328 Y4.4863 I-0.1374 J0.0585 F20
G3 X4.4328 Y4.4877 I-0.1493 J0.0014
G3 X4.422 Y4.5435 I-0.1494 J0
G3 X4.3901 Y4.5923 I-0.1385 J-0.0558
G3 X4.3419 Y4.6251 I-0.1066 J-0.1046
G3 X4.2849 Y4.637 I-0.0585 J-0.1374
G3 X4.2276 Y4.6262 I-0.0014 J-0.1493
G3 X4.1789 Y4.5943 I0.0558 J-0.1385
G3 X4.146 Y4.5462 I0.1046 J-0.1066
G3 X4.1341 Y4.4891 I0.1374 J-0.0585
G3 X4.1341 Y4.4877 I0.1493 J-0.0014
G3 X4.1449 Y4.4319 I0.1494 J0
G3 X4.1768 Y4.3831 I0.1385 J0.0558
G3 X4.225 Y4.3503 I0.1066 J0.1046
G3 X4.282 Y4.3384 I0.0585 J0.1374
G3 X4.3393 Y4.3492 I0.0014 J0.1493
G3 X4.388 Y4.3811 I-0.0558 J0.1385
G3 X4.4209 Y4.4292 I-0.1046 J0.1066
G0 Z0.25
G0 X4.3174 Y4.4733
G1 Z-0.1 F20
G3 X4.3203 Y4.4875 I-0.0339 J0.0144 F20
G1 X4.3203 Y4.4877
G3 X4.3176 Y4.5015 I-0.0369 J0
G3 X4.3098 Y4.5135 I-0.0342 J-0.0138
G3 X4.2979 Y4.5216 I-0.0263 J-0.0258
G3 X4.2838 Y4.5246 I-0.0144 J-0.0339
G3 X4.2697 Y4.5219 I-0.0004 J-0.0369
G3 X4.2576 Y4.514 I0.0138 J-0.0342
G3 X4.2495 Y4.5021 I0.0258 J-0.0263
G3 X4.2466 Y4.4879 I0.0339 J-0.0144
G1 X4.2466 Y4.4877
G3 X4.2493 Y4.4739 I0.0369 J0
G3 X4.2571 Y4.4619 I0.0342 J0.0138
G3 X4.269 Y4.4538 I0.0263 J0.0258
G3 X4.2831 Y4.4508 I0.0144 J0.0339
G3 X4.2972 Y4.4535 I0.0004 J0.0369
G3 X4.3093 Y4.4614 I-0.0138 J0.0342
G3 X4.3174 Y4.4733 I-0.0258 J0.0263
G1 X4.4209 Y4.4292 F20
G3 X4.4328 Y4.4863 I-0.1374 J0.0585 F20
G3 X4.4328 Y4.4877 I-0.1493 J0.0014
G3 X4.422 Y4.5435 I-0.1494 J0
G3 X4.3901 Y4.5923 I-0.1385 J-0.0558
G3 X4.3419 Y4.6251 I-0.1066 J-0.1046
G3 X4.2849 Y4.637 I-0.0585 J-0.1374
G3 X4.2276 Y4.6262 I-0.0014 J-0.1493
G3 X4.1789 Y4.5943 I0.0558 J-0.1385
G3 X4.146 Y4.5462 I0.1046 J-0.1066
G3 X4.1341 Y4.4891 I0.1374 J-0.0585
G3 X4.1341 Y4.4877 I0.1493 J-0.0014
G3 X4.1449 Y4.4319 I0.1494 J0
G3 X4.1768 Y4.3831 I0.1385 J0.0558
G3 X4.225 Y4.3503 I0.1066 J0.1046
G3 X4.282 Y4.3384 I0.0585 J0.1374
G3 X4.3393 Y4.3492 I0.0014 J0.1493
G3 X4.388 Y4.3811 I-0.0558 J0.1385
G3 X4.4209 Y4.4292 I-0.1046 J0.1066
G0 Z0.25
G0 X4.3174 Y4.4733
G1 Z-0.12 F20
G3 X4.3203 Y4.4875 I-0.0339 J0.0144 F20
G1 X4.3203 Y4.4877
G3 X4.3176 Y4.5015 I-0.0369 J0
G3 X4.3098 Y4.5135 I-0.0342 J-0.0138
G3 X4.2979 Y4.5216 I-0.0263 J-0.0258
G3 X4.2838 Y4.5246 I-0.0144 J-0.0339
G3 X4.2697 Y4.5219 I-0.0004 J-0.0369
G3 X4.2576 Y4.514 I0.0138 J-0.0342
G3 X4.2495 Y4.5021 I0.0258 J-0.0263
G3 X4.2466 Y4.4879 I0.0339 J-0.0144
G1 X4.2466 Y4.4877
G3 X4.2493 Y4.4739 I0.0369 J0
G3 X4.2571 Y4.4619 I0.0342 J0.0138
G3 X4.269 Y4.4538 I0.0263 J0.0258
G3 X4.2831 Y4.4508 I0.0144 J0.0339
G3 X4.2972 Y4.4535 I0.0004 J0.0369
G3 X4.3093 Y4.4614 I-0.0138 J0.0342
G3 X4.3174 Y4.4733 I-0.0258 J0.0263
G1 X4.4209 Y4.4292 F20
G3 X4.4328 Y4.4863 I-0.1374 J0.0585 F20
G3 X4.4328 Y4.4877 I-0.1493 J0.0014
G3 X4.422 Y4.5435 I-0.1494 J0
G3 X4.3901 Y4.5923 I-0.1385 J-0.0558
G3 X4.3419 Y4.6251 I-0.1066 J-0.1046
G3 X4.2849 Y4.637 I-0.0585 J-0.1374
G3 X4.2276 Y4.6262 I-0.0014 J-0.1493
G3 X4.1789 Y4.5943 I0.0558 J-0.1385
G3 X4.146 Y4.5462 I0.1046 J-0.1066
G3 X4.1341 Y4.4891 I0.1374 J-0.0585
G3 X4.1341 Y4.4877 I0.1493 J-0.0014
G3 X4.1449 Y4.4319 I0.1494 J0
G3 X4.1768 Y4.3831 I0.1385 J0.0558
G3 X4.225 Y4.3503 I0.1066 J0.1046
G3 X4.282 Y4.3384 I0.0585 J0.1374
G3 X4.3393 Y4.3492 I0.0014 J0.1493
G3 X4.388 Y4.3811 I-0.0558 J0.1385
G3 X4.4209 Y4.4292 I-0.1046 J0.1066
G0 Z0.25
G0 X4.3174 Y4.4733
G1 Z-0.14 F20
G3 X4.3203 Y4.4875 I-0.0339 J0.0144 F20
G1 X4.3203 Y4.4877
G3 X4.3176 Y4.5015 I-0.0369 J0
G3 X4.3098 Y4.5135 I-0.0342 J-0.0138
G3 X4.2979 Y4.5216 I-0.0263 J-0.0258
G3 X4.2838 Y4.5246 I-0.0144 J-0.0339
G3 X4.2697 Y4.5219 I-0.0004 J-0.0369
G3 X4.2576 Y4.514 I0.0138 J-0.0342
G3 X4.2495 Y4.5021 I0.0258 J-0.0263
G3 X4.2466 Y4.4879 I0.0339 J-0.0144
G1 X4.2466 Y4.4877
G3 X4.2493 Y4.4739 I0.0369 J0
G3 X4.2571 Y4.4619 I0.0342 J0.0138
G3 X4.269 Y4.4538 I0.0263 J0.0258
G3 X4.2831 Y4.4508 I0.0144 J0.0339
G3 X4.2972 Y4.4535 I0.0004 J0.0369
G3 X4.3093 Y4.4614 I-0.0138 J0.0342
G3 X4.3174 Y4.4733 I-0.0258 J0.0263
G1 X4.4209 Y4.4292 F20
G3 X4.4328 Y4.4863 I-0.1374 J0.0585 F20
G3 X4.4328 Y4.4877 I-0.1493 J0.0014
G3 X4.422 Y4.5435 I-0.1494 J0
G3 X4.3901 Y4.5923 I-0.1385 J-0.0558
G3 X4.3419 Y4.6251 I-0.1066 J-0.1046
G3 X4.2849 Y4.637 I-0.0585 J-0.1374
G3 X4.2276 Y4.6262 I-0.0014 J-0.1493
G3 X4.1789 Y4.5943 I0.0558 J-0.1385
G3 X4.146 Y4.5462 I0.1046 J-0.1066
G3 X4.1341 Y4.4891 I0.1374 J-0.0585
G3 X4.1341 Y4.4877 I0.1493 J-0.0014
G3 X4.1449 Y4.4319 I0.1494 J0
G3 X4.1768 Y4.3831 I0.1385 J0.0558
G3 X4.225 Y4.3503 I0.1066 J0.1046
G3 X4.282 Y4.3384 I0.0585 J0.1374
G3 X4.3393 Y4.3492 I0.0014 J0.1493
G3 X4.388 Y4.3811 I-0.0558 J0.1385
G3 X4.4209 Y4.4292 I-0.1046 J0.1066
G0 Z0.25
G0 X4.3174 Y4.4733
G1 Z-0.16 F20
G3 X4.3203 Y4.4875 I-0.0339 J0.0144 F20
G1 X4.3203 Y4.4877
G3 X4.3176 Y4.5015 I-0.0369 J0
G3 X4.3098 Y4.5135 I-0.0342 J-0.0138
G3 X4.2979 Y4.5216 I-0.0263 J-0.0258
G3 X4.2838 Y4.5246 I-0.0144 J-0.0339
G3 X4.2697 Y4.5219 I-0.0004 J-0.0369
G3 X4.2576 Y4.514 I0.0138 J-0.0342
G3 X4.2495 Y4.5021 I0.0258 J-0.0263
G3 X4.2466 Y4.4879 I0.0339 J-0.0144
G1 X4.2466 Y4.4877
G3 X4.2493 Y4.4739 I0.0369 J0
G3 X4.2571 Y4.4619 I0.0342 J0.0138
G3 X4.269 Y4.4538 I0.0263 J0.0258
G3 X4.2831 Y4.4508 I0.0144 J0.0339
G3 X4.2972 Y4.4535 I0.0004 J0.0369
G3 X4.3093 Y4.4614 I-0.0138 J0.0342
G3 X4.3174 Y4.4733 I-0.0258 J0.0263
G1 X4.4209 Y4.4292 F20
G3 X4.4328 Y4.4863 I-0.1374 J0.0585 F20
G3 X4.4328 Y4.4877 I-0.1493 J0.0014
G3 X4.422 Y4.5435 I-0.1494 J0
G3 X4.3901 Y4.5923 I-0.1385 J-0.0558
G3 X4.3419 Y4.6251 I-0.1066 J-0.1046
G3 X4.2849 Y4.637 I-0.0585 J-0.1374
G3 X4.2276 Y4.6262 I-0.0014 J-0.1493
G3 X4.1789 Y4.5943 I0.0558 J-0.1385
G3 X4.146 Y4.5462 I0.1046 J-0.1066
G3 X4.1341 Y4.4891 I0.1374 J-0.0585
G3 X4.1341 Y4.4877 I0.1493 J-0.0014
G3 X4.1449 Y4.4319 I0.1494 J0
G3 X4.1768 Y4.3831 I0.1385 J0.0558
G3 X4.225 Y4.3503 I0.1066 J0.1046
G3 X4.282 Y4.3384 I0.0585 J0.1374
G3 X4.3393 Y4.3492 I0.0014 J0.1493
G3 X4.388 Y4.3811 I-0.0558 J0.1385
G3 X4.4209 Y4.4292 I-0.1046 J0.1066
G0 Z0.25
G0 X4.3174 Y4.4733
G1 Z-0.18 F20
G3 X4.3203 Y4.4875 I-0.0339 J0.0144 F20
G1 X4.3203 Y4.4877
G3 X4.3176 Y4.5015 I-0.0369 J0
G3 X4.3098 Y4.5135 I-0.0342 J-0.0138
G3 X4.2979 Y4.5216 I-0.0263 J-0.0258
G3 X4.2838 Y4.5246 I-0.0144 J-0.0339
G3 X4.2697 Y4.5219 I-0.0004 J-0.0369
G3 X4.2576 Y4.514 I0.0138 J-0.0342
G3 X4.2495 Y4.5021 I0.0258 J-0.0263
G3 X4.2466 Y4.4879 I0.0339 J-0.0144
G1 X4.2466 Y4.4877
G3 X4.2493 Y4.4739 I0.0369 J0
G3 X4.2571 Y4.4619 I0.0342 J0.0138
G3 X4.269 Y4.4538 I0.0263 J0.0258
G3 X4.2831 Y4.4508 I0.0144 J0.0339
G3 X4.2972 Y4.4535 I0.0004 J0.0369
G3 X4.3093 Y4.4614 I-0.0138 J0.0342
G3 X4.3174 Y4.4733 I-0.0258 J0.0263
G1 X4.4209 Y4.4292 F20
G3 X4.4328 Y4.4863 I-0.1374 J0.0585 F20
G3 X4.4328 Y4.4877 I-0.1493 J0.0014
G3 X4.422 Y4.5435 I-0.1494 J0
G3 X4.3901 Y4.5923 I-0.1385 J-0.0558
G3 X4.3419 Y4.6251 I-0.1066 J-0.1046
G3 X4.2849 Y4.637 I-0.0585 J-0.1374
G3 X4.2276 Y4.6262 I-0.0014 J-0.1493
G3 X4.1789 Y4.5943 I0.0558 J-0.1385
G3 X4.146 Y4.5462 I0.1046 J-0.1066
G3 X4.1341 Y4.4891 I0.1374 J-0.0585
G3 X4.1341 Y4.4877 I0.1493 J-0.0014
G3 X4.1449 Y4.4319 I0.1494 J0
G3 X4.1768 Y4.3831 I0.1385 J0.0558
G3 X4.225 Y4.3503 I0.1066 J0.1046
G3 X4.282 Y4.3384 I0.0585 J0.1374
G3 X4.3393 Y4.3492 I0.0014 J0.1493
G3 X4.388 Y4.3811 I-0.0558 J0.1385
G3 X4.4209 Y4.4292 I-0.1046 J0.1066
G0 Z0.25
G0 X4.3174 Y4.4733
G1 Z-0.2 F20
G3 X4.3203 Y4.4875 I-0.0339 J0.0144 F20
G1 X4.3203 Y4.4877
G3 X4.3176 Y4.5015 I-0.0369 J0
G3 X4.3098 Y4.5135 I-0.0342 J-0.0138
G3 X4.2979 Y4.5216 I-0.0263 J-0.0258
G3 X4.2838 Y4.5246 I-0.0144 J-0.0339
G3 X4.2697 Y4.5219 I-0.0004 J-0.0369
G3 X4.2576 Y4.514 I0.0138 J-0.0342
G3 X4.2495 Y4.5021 I0.0258 J-0.0263
G3 X4.2466 Y4.4879 I0.0339 J-0.0144
G1 X4.2466 Y4.4877
G3 X4.2493 Y4.4739 I0.0369 J0
G3 X4.2571 Y4.4619 I0.0342 J0.0138
G3 X4.269 Y4.4538 I0.0263 J0.0258
G3 X4.2831 Y4.4508 I0.0144 J0.0339
G3 X4.2972 Y4.4535 I0.0004 J0.0369
G3 X4.3093 Y4.4614 I-0.0138 J0.0342
G3 X4.3174 Y4.4733 I-0.0258 J0.0263
G1 X4.4209 Y4.4292 F20
G3 X4.4328 Y4.4863 I-0.1374 J0.0585 F20
G3 X4.4328 Y4.4877 I-0.1493 J0.0014
G3 X4.422 Y4.5435 I-0.1494 J0
G3 X4.3901 Y4.5923 I-0.1385 J-0.0558
G3 X4.3419 Y4.6251 I-0.1066 J-0.1046
G3 X4.2849 Y4.637 I-0.0585 J-0.1374
G3 X4.2276 Y4.6262 I-0.0014 J-0.1493
G3 X4.1789 Y4.5943 I0.0558 J-0.1385
G3 X4.146 Y4.5462 I0.1046 J-0.1066
G3 X4.1341 Y4.4891 I0.1374 J-0.0585
G3 X4.1341 Y4.4877 I0.1493 J-0.0014
G3 X4.1449 Y4.4319 I0.1494 J0
G3 X4.1768 Y4.3831 I0.1385 J0.0558
G3 X4.225 Y4.3503 I0.1066 J0.1046
G3 X4.282 Y4.3384 I0.0585 J0.1374
G3 X4.3393 Y4.3492 I0.0014 J0.1493
G3 X4.388 Y4.3811 I-0.0558 J0.1385
G3 X4.4209 Y4.4292 I-0.1046 J0.1066
G0 Z0.25
G0 X4.3174 Y4.4733
G1 Z-0.22 F20
G3 X4.3203 Y4.4875 I-0.0339 J0.0144 F20
G1 X4.3203 Y4.4877
G3 X4.3176 Y4.5015 I-0.0369 J0
G3 X4.3098 Y4.5135 I-0.0342 J-0.0138
G3 X4.2979 Y4.5216 I-0.0263 J-0.0258
G3 X4.2838 Y4.5246 I-0.0144 J-0.0339
G3 X4.2697 Y4.5219 I-0.0004 J-0.0369
G3 X4.2576 Y4.514 I0.0138 J-0.0342
G3 X4.2495 Y4.5021 I0.0258 J-0.0263
G3 X4.2466 Y4.4879 I0.0339 J-0.0144
G1 X4.2466 Y4.4877
G3 X4.2493 Y4.4739 I0.0369 J0
G3 X4.2571 Y4.4619 I0.0342 J0.0138
G3 X4.269 Y4.4538 I0.0263 J0.0258
G3 X4.2831 Y4.4508 I0.0144 J0.0339
G3 X4.2972 Y4.4535 I0.0004 J0.0369
G3 X4.3093 Y4.4614 I-0.0138 J0.0342
G3 X4.3174 Y4.4733 I-0.0258 J0.0263
G1 X4.4209 Y4.4292 F20
G3 X4.4328 Y4.4863 I-0.1374 J0.0585 F20
G3 X4.4328 Y4.4877 I-0.1493 J0.0014
G3 X4.422 Y4.5435 I-0.1494 J0
G3 X4.3901 Y4.5923 I-0.1385 J-0.0558
G3 X4.3419 Y4.6251 I-0.1066 J-0.1046
G3 X4.2849 Y4.637 I-0.0585 J-0.1374
G3 X4.2276 Y4.6262 I-0.0014 J-0.1493
G3 X4.1789 Y4.5943 I0.0558 J-0.1385
G3 X4.146 Y4.5462 I0.1046 J-0.1066
G3 X4.1341 Y4.4891 I0.1374 J-0.0585
G3 X4.1341 Y4.4877 I0.1493 J-0.0014
G3 X4.1449 Y4.4319 I0.1494 J0
G3 X4.1768 Y4.3831 I0.1385 J0.0558
G3 X4.225 Y4.3503 I0.1066 J0.1046
G3 X4.282 Y4.3384 I0.0585 J0.1374
G3 X4.3393 Y4.3492 I0.0014 J0.1493
G3 X4.388 Y4.3811 I-0.0558 J0.1385
G3 X4.4209 Y4.4292 I-0.1046 J0.1066
G0 Z0.25
G0 X4.3174 Y4.4733
G1 Z-0.24 F20
G3 X4.3203 Y4.4875 I-0.0339 J0.0144 F20
G1 X4.3203 Y4.4877
G3 X4.3176 Y4.5015 I-0.0369 J0
G3 X4.3098 Y4.5135 I-0.0342 J-0.0138
G3 X4.2979 Y4.5216 I-0.0263 J-0.0258
G3 X4.2838 Y4.5246 I-0.0144 J-0.0339
G3 X4.2697 Y4.5219 I-0.0004 J-0.0369
G3 X4.2576 Y4.514 I0.0138 J-0.0342
G3 X4.2495 Y4.5021 I0.0258 J-0.0263
G3 X4.2466 Y4.4879 I0.0339 J-0.0144
G1 X4.2466 Y4.4877
G3 X4.2493 Y4.4739 I0.0369 J0
G3 X4.2571 Y4.4619 I0.0342 J0.0138
G3 X4.269 Y4.4538 I0.0263 J0.0258
G3 X4.2831 Y4.4508 I0.0144 J0.0339
G3 X4.2972 Y4.4535 I0.0004 J0.0369
G3 X4.3093 Y4.4614 I-0.0138 J0.0342
G3 X4.3174 Y4.4733 I-0.0258 J0.0263
G1 X4.4209 Y4.4292 F20
G3 X4.4328 Y4.4863 I-0.1374 J0.0585 F20
G3 X4.4328 Y4.4877 I-0.1493 J0.0014
G3 X4.422 Y4.5435 I-0.1494 J0
G3 X4.3901 Y4.5923 I-0.1385 J-0.0558
G3 X4.3419 Y4.6251 I-0.1066 J-0.1046
G3 X4.2849 Y4.637 I-0.0585 J-0.1374
G3 X4.2276 Y4.6262 I-0.0014 J-0.1493
G3 X4.1789 Y4.5943 I0.0558 J-0.1385
G3 X4.146 Y4.5462 I0.1046 J-0.1066
G3 X4.1341 Y4.4891 I0.1374 J-0.0585
G3 X4.1341 Y4.4877 I0.1493 J-0.0014
G3 X4.1449 Y4.4319 I0.1494 J0
G3 X4.1768 Y4.3831 I0.1385 J0.0558
G3 X4.225 Y4.3503 I0.1066 J0.1046
G3 X4.282 Y4.3384 I0.0585 J0.1374
G3 X4.3393 Y4.3492 I0.0014 J0.1493
G3 X4.388 Y4.3811 I-0.0558 J0.1385
G3 X4.4209 Y4.4292 I-0.1046 J0.1066
G0 Z0.25
G0 X4.3174 Y4.4733
G1 Z-0.26 F20
G3 X4.3203 Y4.4875 I-0.0339 J0.0144 F20
G1 X4.3203 Y4.4877
G3 X4.3176 Y4.5015 I-0.0369 J0
G3 X4.3098 Y4.5135 I-0.0342 J-0.0138
G3 X4.2979 Y4.5216 I-0.0263 J-0.0258
G3 X4.2838 Y4.5246 I-0.0144 J-0.0339
G3 X4.2697 Y4.5219 I-0.0004 J-0.0369
G3 X4.2576 Y4.514 I0.0138 J-0.0342
G3 X4.2495 Y4.5021 I0.0258 J-0.0263
G3 X4.2466 Y4.4879 I0.0339 J-0.0144
G1 X4.2466 Y4.4877
G3 X4.2493 Y4.4739 I0.0369 J0
G3 X4.2571 Y4.4619 I0.0342 J0.0138
G3 X4.269 Y4.4538 I0.0263 J0.0258
G3 X4.2831 Y4.4508 I0.0144 J0.0339
G3 X4.2972 Y4.4535 I0.0004 J0.0369
G3 X4.3093 Y4.4614 I-0.0138 J0.0342
G3 X4.3174 Y4.4733 I-0.0258 J0.0263
G1 X4.4209 Y4.4292 F20
G3 X4.4328 Y4.4863 I-0.1374 J0.0585 F20
G3 X4.4328 Y4.4877 I-0.1493 J0.0014
G3 X4.422 Y4.5435 I-0.1494 J0
G3 X4.3901 Y4.5923 I-0.1385 J-0.0558
G3 X4.3419 Y4.6251 I-0.1066 J-0.1046
G3 X4.2849 Y4.637 I-0.0585 J-0.1374
G3 X4.2276 Y4.6262 I-0.0014 J-0.1493
G3 X4.1789 Y4.5943 I0.0558 J-0.1385
G3 X4.146 Y4.5462 I0.1046 J-0.1066
G3 X4.1341 Y4.4891 I0.1374 J-0.0585
G3 X4.1341 Y4.4877 I0.1493 J-0.0014
G3 X4.1449 Y4.4319 I0.1494 J0
G3 X4.1768 Y4.3831 I0.1385 J0.0558
G3 X4.225 Y4.3503 I0.1066 J0.1046
G3 X4.282 Y4.3384 I0.0585 J0.1374
G3 X4.3393 Y4.3492 I0.0014 J0.1493
G3 X4.388 Y4.3811 I-0.0558 J0.1385
G3 X4.4209 Y4.4292 I-0.1046 J0.1066
G0 Z0.25
G0 X4.3174 Y4.4733
G1 Z-0.28 F20
G3 X4.3203 Y4.4875 I-0.0339 J0.0144 F20
G1 X4.3203 Y4.4877
G3 X4.3176 Y4.5015 I-0.0369 J0
G3 X4.3098 Y4.5135 I-0.0342 J-0.0138
G3 X4.2979 Y4.5216 I-0.0263 J-0.0258
G3 X4.2838 Y4.5246 I-0.0144 J-0.0339
G3 X4.2697 Y4.5219 I-0.0004 J-0.0369
G3 X4.2576 Y4.514 I0.0138 J-0.0342
G3 X4.2495 Y4.5021 I0.0258 J-0.0263
G3 X4.2466 Y4.4879 I0.0339 J-0.0144
G1 X4.2466 Y4.4877
G3 X4.2493 Y4.4739 I0.0369 J0
G3 X4.2571 Y4.4619 I0.0342 J0.0138
G3 X4.269 Y4.4538 I0.0263 J0.0258
G3 X4.2831 Y4.4508 I0.0144 J0.0339
G3 X4.2972 Y4.4535 I0.0004 J0.0369
G3 X4.3093 Y4.4614 I-0.0138 J0.0342
G3 X4.3174 Y4.4733 I-0.0258 J0.0263
G1 X4.4209 Y4.4292 F20
G3 X4.4328 Y4.4863 I-0.1374 J0.0585 F20
G3 X4.4328 Y4.4877 I-0.1493 J0.0014
G3 X4.422 Y4.5435 I-0.1494 J0
G3 X4.3901 Y4.5923 I-0.1385 J-0.0558
G3 X4.3419 Y4.6251 I-0.1066 J-0.1046
G3 X4.2849 Y4.637 I-0.0585 J-0.1374
G3 X4.2276 Y4.6262 I-0.0014 J-0.1493
G3 X4.1789 Y4.5943 I0.0558 J-0.1385
G3 X4.146 Y4.5462 I0.1046 J-0.1066
G3 X4.1341 Y4.4891 I0.1374 J-0.0585
G3 X4.1341 Y4.4877 I0.1493 J-0.0014
G3 X4.1449 Y4.4319 I0.1494 J0
G3 X4.1768 Y4.3831 I0.1385 J0.0558
G3 X4.225 Y4.3503 I0.1066 J0.1046
G3 X4.282 Y4.3384 I0.0585 J0.1374
G3 X4.3393 Y4.3492 I0.0014 J0.1493
G3 X4.388 Y4.3811 I-0.0558 J0.1385
G3 X4.4209 Y4.4292 I-0.1046 J0.1066
G0 Z0.25
G0 X4.3174 Y4.4733
G1 Z-0.3 F20
G3 X4.3203 Y4.4875 I-0.0339 J0.0144 F20
G1 X4.3203 Y4.4877
G3 X4.3176 Y4.5015 I-0.0369 J0
G3 X4.3098 Y4.5135 I-0.0342 J-0.0138
G3 X4.2979 Y4.5216 I-0.0263 J-0.0258
G3 X4.2838 Y4.5246 I-0.0144 J-0.0339
G3 X4.2697 Y4.5219 I-0.0004 J-0.0369
G3 X4.2576 Y4.514 I0.0138 J-0.0342
G3 X4.2495 Y4.5021 I0.0258 J-0.0263
G3 X4.2466 Y4.4879 I0.0339 J-0.0144
G1 X4.2466 Y4.4877
G3 X4.2493 Y4.4739 I0.0369 J0
G3 X4.2571 Y4.4619 I0.0342 J0.0138
G3 X4.269 Y4.4538 I0.0263 J0.0258
G3 X4.2831 Y4.4508 I0.0144 J0.0339
G3 X4.2972 Y4.4535 I0.0004 J0.0369
G3 X4.3093 Y4.4614 I-0.0138 J0.0342
G3 X4.3174 Y4.4733 I-0.0258 J0.0263
G1 X4.4209 Y4.4292 F20
G3 X4.4328 Y4.4863 I-0.1374 J0.0585 F20
G3 X4.4328 Y4.4877 I-0.1493 J0.0014
G3 X4.422 Y4.5435 I-0.1494 J0
G3 X4.3901 Y4.5923 I-0.1385 J-0.0558
G3 X4.3419 Y4.6251 I-0.1066 J-0.1046
G3 X4.2849 Y4.637 I-0.0585 J-0.1374
G3 X4.2276 Y4.6262 I-0.0014 J-0.1493
G3 X4.1789 Y4.5943 I0.0558 J-0.1385
G3 X4.146 Y4.5462 I0.1046 J-0.1066
G3 X4.1341 Y4.4891 I0.1374 J-0.0585
G3 X4.1341 Y4.4877 I0.1493 J-0.0014
G3 X4.1449 Y4.4319 I0.1494 J0
G3 X4.1768 Y4.3831 I0.1385 J0.0558
G3 X4.225 Y4.3503 I0.1066 J0.1046
G3 X4.282 Y4.3384 I0.0585 J0.1374
G3 X4.3393 Y4.3492 I0.0014 J0.1493
G3 X4.388 Y4.3811 I-0.0558 J0.1385
G3 X4.4209 Y4.4292 I-0.1046 J0.1066

(pocket 5-2)
G0 Z0.25
G0 X3.4603 Y4.4733
G1 Z-0.02 F20
G3 X3.4632 Y4.4875 I-0.0339 J0.0144 F20
G1 X3.4632 Y4.4877
G3 X3.4606 Y4.5015 I-0.0369 J0
G3 X3.4527 Y4.5135 I-0.0342 J-0.0138
G3 X3.4408 Y4.5216 I-0.0263 J-0.0258
G3 X3.4267 Y4.5246 I-0.0144 J-0.0339
G3 X3.4126 Y4.5219 I-0.0004 J-0.0369
G3 X3.4006 Y4.514 I0.0138 J-0.0342
G3 X3.3925 Y4.5021 I0.0258 J-0.0263
G3 X3.3895 Y4.4879 I0.0339 J-0.0144
G1 X3.3895 Y4.4877
G3 X3.3922 Y4.4739 I0.0369 J0
G3 X3.4001 Y4.4619 I0.0342 J0.0138
G3 X3.412 Y4.4538 I0.0263 J0.0258
G3 X3.426 Y4.4508 I0.0144 J0.0339
G3 X3.4402 Y4.4535 I0.0004 J0.0369
G3 X3.4522 Y4.4614 I-0.0138 J0.0342
G3 X3.4603 Y4.4733 I-0.0258 J0.0263
G1 X3.5638 Y4.4292 F20
G3 X3.5757 Y4.4863 I-0.1374 J0.0585 F20
G3 X3.5757 Y4.4877 I-0.1493 J0.0014
G3 X3.5649 Y4.5435 I-0.1494 J0
G3 X3.533 Y4.5923 I-0.1385 J-0.0558
G3 X3.4849 Y4.6251 I-0.1066 J-0.1046
G3 X3.4278 Y4.637 I-0.0585 J-0.1374
G3 X3.3706 Y4.6262 I-0.0014 J-0.1493
G3 X3.3218 Y4.5943 I0.0558 J-0.1385
G3 X3.289 Y4.5462 I0.1046 J-0.1066
G3 X3.277 Y4.4891 I0.1374 J-0.0585
G3 X3.277 Y4.4877 I0.1493 J-0.0014
G3 X3.2879 Y4.4319 I0.1494 J0
G3 X3.3198 Y4.3831 I0.1385 J0.0558
G3 X3.3679 Y4.3503 I0.1066 J0.1046
G3 X3.4249 Y4.3384 I0.0585 J0.1374
G3 X3.4822 Y4.3492 I0.0014 J0.1493
G3 X3.531 Y4.3811 I-0.0558 J0.1385
G3 X3.5638 Y4.4292 I-0.1046 J0.1066
G0 Z0.25
G0 X3.4603 Y4.4733
G1 Z-0.04 F20
G3 X3.4632 Y4.4875 I-0.0339 J0.0144 F20
G1 X3.4632 Y4.4877
G3 X3.4606 Y4.5015 I-0.0369 J0
G3 X3.4527 Y4.5135 I-0.0342 J-0.0138
G3 X3.4408 Y4.5216 I-0.0263 J-0.0258
G3 X3.4267 Y4.5246 I-0.0144 J-0.0339
G3 X3.4126 Y4.5219 I-0.0004 J-0.0369
G3 X3.4006 Y4.514 I0.0138 J-0.0342
G3 X3.3925 Y4.5021 I0.0258 J-0.0263
G3 X3.3895 Y4.4879 I0.0339 J-0.0144
G1 X3.3895 Y4.4877
G3 X3.3922 Y4.4739 I0.0369 J0
G3 X3.4001 Y4.4619 I0.0342 J0.0138
G3 X3.412 Y4.4538 I0.0263 J0.0258
G3 X3.426 Y4.4508 I0.0144 J0.0339
G3 X3.4402 Y4.4535 I0.0004 J0.0369
G3 X3.4522 Y4.4614 I-0.0138 J0.0342
G3 X3.4603 Y4.4733 I-0.0258 J0.0263
G1 X3.5638 Y4.4292 F20
G3 X3.5757 Y4.4863 I-0.1374 J0.0585 F20
G3 X3.5757 Y4.4877 I-0.1493 J0.0014
G3 X3.5649 Y4.5435 I-0.1494 J0
G3 X3.533 Y4.5923 I-0.1385 J-0.0558
G3 X3.4849 Y4.6251 I-0.1066 J-0.1046
G3 X3.4278 Y4.637 I-0.0585 J-0.1374
G3 X3.3706 Y4.6262 I-0.0014 J-0.1493
G3 X3.3218 Y4.5943 I0.0558 J-0.1385
G3 X3.289 Y4.5462 I0.1046 J-0.1066
G3 X3.277 Y4.4891 I0.1374 J-0.0585
G3 X3.277 Y4.4877 I0.1493 J-0.0014
G3 X3.2879 Y4.4319 I0.1494 J0
G3 X3.3198 Y4.3831 I0.1385 J0.0558
G3 X3.3679 Y4.3503 I0.1066 J0.1046
G3 X3.4249 Y4.3384 I0.0585 J0.1374
G3 X3.4822 Y4.3492 I0.0014 J0.1493
G3 X3.531 Y4.3811 I-0.0558 J0.1385
G3 X3.5638 Y4.4292 I-0.1046 J0.1066
G0 Z0.25
G0 X3.4603 Y4.4733
G1 Z-0.06 F20
G3 X3.4632 Y4.4875 I-0.0339 J0.0144 F20
G1 X3.4632 Y4.4877
G3 X3.4606 Y4.5015 I-0.0369 J0
G3 X3.4527 Y4.5135 I-0.0342 J-0.0138
G3 X3.4408 Y4.5216 I-0.0263 J-0.0258
G3 X3.4267 Y4.5246 I-0.0144 J-0.0339
G3 X3.4126 Y4.5219 I-0.0004 J-0.0369
G3 X3.4006 Y4.514 I0.0138 J-0.0342
G3 X3.3925 Y4.5021 I0.0258 J-0.0263
G3 X3.3895 Y4.4879 I0.0339 J-0.0144
G1 X3.3895 Y4.4877
G3 X3.3922 Y4.4739 I0.0369 J0
G3 X3.4001 Y4.4619 I0.0342 J0.0138
G3 X3.412 Y4.4538 I0.0263 J0.0258
G3 X3.426 Y4.4508 I0.0144 J0.0339
G3 X3.4402 Y4.4535 I0.0004 J0.0369
G3 X3.4522 Y4.4614 I-0.0138 J0.0342
G3 X3.4603 Y4.4733 I-0.0258 J0.0263
G1 X3.5638 Y4.4292 F20
G3 X3.5757 Y4.4863 I-0.1374 J0.0585 F20
G3 X3.5757 Y4.4877 I-0.1493 J0.0014
G3 X3.5649 Y4.5435 I-0.1494 J0
G3 X3.533 Y4.5923 I-0.1385 J-0.0558
G3 X3.4849 Y4.6251 I-0.1066 J-0.1046
G3 X3.4278 Y4.637 I-0.0585 J-0.1374
G3 X3.3706 Y4.6262 I-0.0014 J-0.1493
G3 X3.3218 Y4.5943 I0.0558 J-0.1385
G3 X3.289 Y4.5462 I0.1046 J-0.1066
G3 X3.277 Y4.4891 I0.1374 J-0.0585
G3 X3.277 Y4.4877 I0.1493 J-0.0014
G3 X3.2879 Y4.4319 I0.1494 J0
G3 X3.3198 Y4.3831 I0.1385 J0.0558
G3 X3.3679 Y4.3503 I0.1066 J0.1046
G3 X3.4249 Y4.3384 I0.0585 J0.1374
G3 X3.4822 Y4.3492 I0.0014 J0.1493
G3 X3.531 Y4.3811 I-0.0558 J0.1385
G3 X3.5638 Y4.4292 I-0.1046 J0.1066
G0 Z0.25
G0 X3.4603 Y4.4733
G1 Z-0.08 F20
G3 X3.4632 Y4.4875 I-0.0339 J0.0144 F20
G1 X3.4632 Y4.4877
G3 X3.4606 Y4.5015 I-0.0369 J0
G3 X3.4527 Y4.5135 I-0.0342 J-0.0138
G3 X3.4408 Y4.5216 I-0.0263 J-0.0258
G3 X3.4267 Y4.5246 I-0.0144 J-0.0339
G3 X3.4126 Y4.5219 I-0.0004 J-0.0369
G3 X3.4006 Y4.514 I0.0138 J-0.0342
G3 X3.3925 Y4.5021 I0.0258 J-0.0263
G3 X3.3895 Y4.4879 I0.0339 J-0.0144
G1 X3.3895 Y4.4877
G3 X3.3922 Y4.4739 I0.0369 J0
G3 X3.4001 Y4.4619 I0.0342 J0.0138
G3 X3.412 Y4.4538 I0.0263 J0.0258
G3 X3.426 Y4.4508 I0.0144 J0.0339
G3 X3.4402 Y4.4535 I0.0004 J0.0369
G3 X3.4522 Y4.4614 I-0.0138 J0.0342
G3 X3.4603 Y4.4733 I-0.0258 J0.0263
G1 X3.5638 Y4.4292 F20
G3 X3.5757 Y4.4863 I-0.1374 J0.0585 F20
G3 X3.5757 Y4.4877 I-0.1493 J0.0014
G3 X3.5649 Y4.5435 I-0.1494 J0
G3 X3.533 Y4.5923 I-0.1385 J-0.0558
G3 X3.4849 Y4.6251 I-0.1066 J-0.1046
G3 X3.4278 Y4.637 I-0.0585 J-0.1374
G3 X3.3706 Y4.6262 I-0.0014 J-0.1493
G3 X3.3218 Y4.5943 I0.0558 J-0.1385
G3 X3.289 Y4.5462 I0.1046 J-0.1066
G3 X3.277 Y4.4891 I0.1374 J-0.0585
G3 X3.277 Y4.4877 I0.1493 J-0.0014
G3 X3.2879 Y4.4319 I0.1494 J0
G3 X3.3198 Y4.3831 I0.1385 J0.0558
G3 X3.3679 Y4.3503 I0.1066 J0.1046
G3 X3.4249 Y4.3384 I0.0585 J0.1374
G3 X3.4822 Y4.3492 I0.0014 J0.1493
G3 X3.531 Y4.3811 I-0.0558 J0.1385
G3 X3.5638 Y4.4292 I-0.1046 J0.1066
G0 Z0.25
G0 X3.4603 Y4.4733
G1 Z-0.1 F20
G3 X3.4632 Y4.4875 I-0.0339 J0.0144 F20
G1 X3.4632 Y4.4877
G3 X3.4606 Y4.5015 I-0.0369 J0
G3 X3.4527 Y4.5135 I-0.0342 J-0.0138
G3 X3.4408 Y4.5216 I-0.0263 J-0.0258
G3 X3.4267 Y4.5246 I-0.0144 J-0.0339
G3 X3.4126 Y4.5219 I-0.0004 J-0.0369
G3 X3.4006 Y4.514 I0.0138 J-0.0342
G3 X3.3925 Y4.5021 I0.0258 J-0.0263
G3 X3.3895 Y4.4879 I0.0339 J-0.0144
G1 X3.3895 Y4.4877
G3 X3.3922 Y4.4739 I0.0369 J0
G3 X3.4001 Y4.4619 I0.0342 J0.0138
G3 X3.412 Y4.4538 I0.0263 J0.0258
G3 X3.426 Y4.4508 I0.0144 J0.0339
G3 X3.4402 Y4.4535 I0.0004 J0.0369
G3 X3.4522 Y4.4614 I-0.0138 J0.0342
G3 X3.4603 Y4.4733 I-0.0258 J0.0263
G1 X3.5638 Y4.4292 F20
G3 X3.5757 Y4.4863 I-0.1374 J0.0585 F20
G3 X3.5757 Y4.4877 I-0.1493 J0.0014
G3 X3.5649 Y4.5435 I-0.1494 J0
G3 X3.533 Y4.5923 I-0.1385 J-0.0558
G3 X3.4849 Y4.6251 I-0.1066 J-0.1046
G3 X3.4278 Y4.637 I-0.0585 J-0.1374
G3 X3.3706 Y4.6262 I-0.0014 J-0.1493
G3 X3.3218 Y4.5943 I0.0558 J-0.1385
G3 X3.289 Y4.5462 I0.1046 J-0.1066
G3 X3.277 Y4.4891 I0.1374 J-0.0585
G3 X3.277 Y4.4877 I0.1493 J-0.0014
G3 X3.2879 Y4.4319 I0.1494 J0
G3 X3.3198 Y4.3831 I0.1385 J0.0558
G3 X3.3679 Y4.3503 I0.1066 J0.1046
G3 X3.4249 Y4.3384 I0.0585 J0.1374
G3 X3.4822 Y4.3492 I0.0014 J0.1493
G3 X3.531 Y4.3811 I-0.0558 J0.1385
G3 X3.5638 Y4.4292 I-0.1046 J0.1066
G0 Z0.25
G0 X3.4603 Y4.4733
G1 Z-0.12 F20
G3 X3.4632 Y4.4875 I-0.0339 J0.0144 F20
G1 X3.4632 Y4.4877
G3 X3.4606 Y4.5015 I-0.0369 J0
G3 X3.4527 Y4.5135 I-0.0342 J-0.0138
G3 X3.4408 Y4.5216 I-0.0263 J-0.0258
G3 X3.4267 Y4.5246 I-0.0144 J-0.0339
G3 X3.4126 Y4.5219 I-0.0004 J-0.0369
G3 X3.4006 Y4.514 I0.0138 J-0.0342
G3 X3.3925 Y4.5021 I0.0258 J-0.0263
G3 X3.3895 Y4.4879 I0.0339 J-0.0144
G1 X3.3895 Y4.4877
G3 X3.3922 Y4.4739 I0.0369 J0
G3 X3.4001 Y4.4619 I0.0342 J0.0138
G3 X3.412 Y4.4538 I0.0263 J0.0258
G3 X3.426 Y4.4508 I0.0144 J0.0339
G3 X3.4402 Y4.4535 I0.0004 J0.0369
G3 X3.4522 Y4.4614 I-0.0138 J0.0342
G3 X3.4603 Y4.4733 I-0.0258 J0.0263
G1 X3.5638 Y4.4292 F20
G3 X3.5757 Y4.4863 I-0.1374 J0.0585 F20
G3 X3.5757 Y4.4877 I-0.1493 J0.0014
G3 X3.5649 Y4.5435 I-0.1494 J0
G3 X3.533 Y4.5923 I-0.1385 J-0.0558
G3 X3.4849 Y4.6251 I-0.1066 J-0.1046
G3 X3.4278 Y4.637 I-0.0585 J-0.1374
G3 X3.3706 Y4.6262 I-0.0014 J-0.1493
G3 X3.3218 Y4.5943 I0.0558 J-0.1385
G3 X3.289 Y4.5462 I0.1046 J-0.1066
G3 X3.277 Y4.4891 I0.1374 J-0.0585
G3 X3.277 Y4.4877 I0.1493 J-0.0014
G3 X3.2879 Y4.4319 I0.1494 J0
G3 X3.3198 Y4.3831 I0.1385 J0.0558
G3 X3.3679 Y4.3503 I0.1066 J0.1046
G3 X3.4249 Y4.3384 I0.0585 J0.1374
G3 X3.4822 Y4.3492 I0.0014 J0.1493
G3 X3.531 Y4.3811 I-0.0558 J0.1385
G3 X3.5638 Y4.4292 I-0.1046 J0.1066
G0 Z0.25
G0 X3.4603 Y4.4733
G1 Z-0.14 F20
G3 X3.4632 Y4.4875 I-0.0339 J0.0144 F20
G1 X3.4632 Y4.4877
G3 X3.4606 Y4.5015 I-0.0369 J0
G3 X3.4527 Y4.5135 I-0.0342 J-0.0138
G3 X3.4408 Y4.5216 I-0.0263 J-0.0258
G3 X3.4267 Y4.5246 I-0.0144 J-0.0339
G3 X3.4126 Y4.5219 I-0.0004 J-0.0369
G3 X3.4006 Y4.514 I0.0138 J-0.0342
G3 X3.3925 Y4.5021 I0.0258 J-0.0263
G3 X3.3895 Y4.4879 I0.0339 J-0.0144
G1 X3.3895 Y4.4877
G3 X3.3922 Y4.4739 I0.0369 J0
G3 X3.4001 Y4.4619 I0.0342 J0.0138
G3 X3.412 Y4.4538 I0.0263 J0.0258
G3 X3.426 Y4.4508 I0.0144 J0.0339
G3 X3.4402 Y4.4535 I0.0004 J0.0369
G3 X3.4522 Y4.4614 I-0.0138 J0.0342
G3 X3.4603 Y4.4733 I-0.0258 J0.0263
G1 X3.5638 Y4.4292 F20
G3 X3.5757 Y4.4863 I-0.1374 J0.0585 F20
G3 X3.5757 Y4.4877 I-0.1493 J0.0014
G3 X3.5649 Y4.5435 I-0.1494 J0
G3 X3.533 Y4.5923 I-0.1385 J-0.0558
G3 X3.4849 Y4.6251 I-0.1066 J-0.1046
G3 X3.4278 Y4.637 I-0.0585 J-0.1374
G3 X3.3706 Y4.6262 I-0.0014 J-0.1493
G3 X3.3218 Y4.5943 I0.0558 J-0.1385
G3 X3.289 Y4.5462 I0.1046 J-0.1066
G3 X3.277 Y4.4891 I0.1374 J-0.0585
G3 X3.277 Y4.4877 I0.1493 J-0.0014
G3 X3.2879 Y4.4319 I0.1494 J0
G3 X3.3198 Y4.3831 I0.1385 J0.0558
G3 X3.3679 Y4.3503 I0.1066 J0.1046
G3 X3.4249 Y4.3384 I0.0585 J0.1374
G3 X3.4822 Y4.3492 I0.0014 J0.1493
G3 X3.531 Y4.3811 I-0.0558 J0.1385
G3 X3.5638 Y4.4292 I-0.1046 J0.1066
G0 Z0.25
G0 X3.4603 Y4.4733
G1 Z-0.16 F20
G3 X3.4632 Y4.4875 I-0.0339 J0.0144 F20
G1 X3.4632 Y4.4877
G3 X3.4606 Y4.5015 I-0.0369 J0
G3 X3.4527 Y4.5135 I-0.0342 J-0.0138
G3 X3.4408 Y4.5216 I-0.0263 J-0.0258
G3 X3.4267 Y4.5246 I-0.0144 J-0.0339
G3 X3.4126 Y4.5219 I-0.0004 J-0.0369
G3 X3.4006 Y4.514 I0.0138 J-0.0342
G3 X3.3925 Y4.5021 I0.0258 J-0.0263
G3 X3.3895 Y4.4879 I0.0339 J-0.0144
G1 X3.3895 Y4.4877
G3 X3.3922 Y4.4739 I0.0369 J0
G3 X3.4001 Y4.4619 I0.0342 J0.0138
G3 X3.412 Y4.4538 I0.0263 J0.0258
G3 X3.426 Y4.4508 I0.0144 J0.0339
G3 X3.4402 Y4.4535 I0.0004 J0.0369
G3 X3.4522 Y4.4614 I-0.0138 J0.0342
G3 X3.4603 Y4.4733 I-0.0258 J0.0263
G1 X3.5638 Y4.4292 F20
G3 X3.5757 Y4.4863 I-0.1374 J0.0585 F20
G3 X3.5757 Y4.4877 I-0.1493 J0.0014
G3 X3.5649 Y4.5435 I-0.1494 J0
G3 X3.533 Y4.5923 I-0.1385 J-0.0558
G3 X3.4849 Y4.6251 I-0.1066 J-0.1046
G3 X3.4278 Y4.637 I-0.0585 J-0.1374
G3 X3.3706 Y4.6262 I-0.0014 J-0.1493
G3 X3.3218 Y4.5943 I0.0558 J-0.1385
G3 X3.289 Y4.5462 I0.1046 J-0.1066
G3 X3.277 Y4.4891 I0.1374 J-0.0585
G3 X3.277 Y4.4877 I0.1493 J-0.0014
G3 X3.2879 Y4.4319 I0.1494 J0
G3 X3.3198 Y4.3831 I0.1385 J0.0558
G3 X3.3679 Y4.3503 I0.1066 J0.1046
G3 X3.4249 Y4.3384 I0.0585 J0.1374
G3 X3.4822 Y4.3492 I0.0014 J0.1493
G3 X3.531 Y4.3811 I-0.0558 J0.1385
G3 X3.5638 Y4.4292 I-0.1046 J0.1066
G0 Z0.25
G0 X3.4603 Y4.4733
G1 Z-0.18 F20
G3 X3.4632 Y4.4875 I-0.0339 J0.0144 F20
G1 X3.4632 Y4.4877
G3 X3.4606 Y4.5015 I-0.0369 J0
G3 X3.4527 Y4.5135 I-0.0342 J-0.0138
G3 X3.4408 Y4.5216 I-0.0263 J-0.0258
G3 X3.4267 Y4.5246 I-0.0144 J-0.0339
G3 X3.4126 Y4.5219 I-0.0004 J-0.0369
G3 X3.4006 Y4.514 I0.0138 J-0.0342
G3 X3.3925 Y4.5021 I0.0258 J-0.0263
G3 X3.3895 Y4.4879 I0.0339 J-0.0144
G1 X3.3895 Y4.4877
G3 X3.3922 Y4.4739 I0.0369 J0
G3 X3.4001 Y4.4619 I0.0342 J0.0138
G3 X3.412 Y4.4538 I0.0263 J0.0258
G3 X3.426 Y4.4508 I0.0144 J0.0339
G3 X3.4402 Y4.4535 I0.0004 J0.0369
G3 X3.4522 Y4.4614 I-0.0138 J0.0342
G3 X3.4603 Y4.4733 I-0.0258 J0.0263
G1 X3.5638 Y4.4292 F20
G3 X3.5757 Y4.4863 I-0.1374 J0.0585 F20
G3 X3.5757 Y4.4877 I-0.1493 J0.0014
G3 X3.5649 Y4.5435 I-0.1494 J0
G3 X3.533 Y4.5923 I-0.1385 J-0.0558
G3 X3.4849 Y4.6251 I-0.1066 J-0.1046
G3 X3.4278 Y4.637 I-0.0585 J-0.1374
G3 X3.3706 Y4.6262 I-0.0014 J-0.1493
G3 X3.3218 Y4.5943 I0.0558 J-0.1385
G3 X3.289 Y4.5462 I0.1046 J-0.1066
G3 X3.277 Y4.4891 I0.1374 J-0.0585
G3 X3.277 Y4.4877 I0.1493 J-0.0014
G3 X3.2879 Y4.4319 I0.1494 J0
G3 X3.3198 Y4.3831 I0.1385 J0.0558
G3 X3.3679 Y4.3503 I0.1066 J0.1046
G3 X3.4249 Y4.3384 I0.0585 J0.1374
G3 X3.4822 Y4.3492 I0.0014 J0.1493
G3 X3.531 Y4.3811 I-0.0558 J0.1385
G3 X3.5638 Y4.4292 I-0.1046 J0.1066
G0 Z0.25
G0 X3.4603 Y4.4733
G1 Z-0.2 F20
G3 X3.4632 Y4.4875 I-0.0339 J0.0144 F20
G1 X3.4632 Y4.4877
G3 X3.4606 Y4.5015 I-0.0369 J0
G3 X3.4527 Y4.5135 I-0.0342 J-0.0138
G3 X3.4408 Y4.5216 I-0.0263 J-0.0258
G3 X3.4267 Y4.5246 I-0.0144 J-0.0339
G3 X3.4126 Y4.5219 I-0.0004 J-0.0369
G3 X3.4006 Y4.514 I0.0138 J-0.0342
G3 X3.3925 Y4.5021 I0.0258 J-0.0263
G3 X3.3895 Y4.4879 I0.0339 J-0.0144
G1 X3.3895 Y4.4877
G3 X3.3922 Y4.4739 I0.0369 J0
G3 X3.4001 Y4.4619 I0.0342 J0.0138
G3 X3.412 Y4.4538 I0.0263 J0.0258
G3 X3.426 Y4.4508 I0.0144 J0.0339
G3 X3.4402 Y4.4535 I0.0004 J0.0369
G3 X3.4522 Y4.4614 I-0.0138 J0.0342
G3 X3.4603 Y4.4733 I-0.0258 J0.0263
G1 X3.5638 Y4.4292 F20
G3 X3.5757 Y4.4863 I-0.1374 J0.0585 F20
G3 X3.5757 Y4.4877 I-0.1493 J0.0014
G3 X3.5649 Y4.5435 I-0.1494 J0
G3 X3.533 Y4.5923 I-0.1385 J-0.0558
G3 X3.4849 Y4.6251 I-0.1066 J-0.1046
G3 X3.4278 Y4.637 I-0.0585 J-0.1374
G3 X3.3706 Y4.6262 I-0.0014 J-0.1493
G3 X3.3218 Y4.5943 I0.0558 J-0.1385
G3 X3.289 Y4.5462 I0.1046 J-0.1066
G3 X3.277 Y4.4891 I0.1374 J-0.0585
G3 X3.277 Y4.4877 I0.1493 J-0.0014
G3 X3.2879 Y4.4319 I0.1494 J0
G3 X3.3198 Y4.3831 I0.1385 J0.0558
G3 X3.3679 Y4.3503 I0.1066 J0.1046
G3 X3.4249 Y4.3384 I0.0585 J0.1374
G3 X3.4822 Y4.3492 I0.0014 J0.1493
G3 X3.531 Y4.3811 I-0.0558 J0.1385
G3 X3.5638 Y4.4292 I-0.1046 J0.1066
G0 Z0.25
G0 X3.4603 Y4.4733
G1 Z-0.22 F20
G3 X3.4632 Y4.4875 I-0.0339 J0.0144 F20
G1 X3.4632 Y4.4877
G3 X3.4606 Y4.5015 I-0.0369 J0
G3 X3.4527 Y4.5135 I-0.0342 J-0.0138
G3 X3.4408 Y4.5216 I-0.0263 J-0.0258
G3 X3.4267 Y4.5246 I-0.0144 J-0.0339
G3 X3.4126 Y4.5219 I-0.0004 J-0.0369
G3 X3.4006 Y4.514 I0.0138 J-0.0342
G3 X3.3925 Y4.5021 I0.0258 J-0.0263
G3 X3.3895 Y4.4879 I0.0339 J-0.0144
G1 X3.3895 Y4.4877
G3 X3.3922 Y4.4739 I0.0369 J0
G3 X3.4001 Y4.4619 I0.0342 J0.0138
G3 X3.412 Y4.4538 I0.0263 J0.0258
G3 X3.426 Y4.4508 I0.0144 J0.0339
G3 X3.4402 Y4.4535 I0.0004 J0.0369
G3 X3.4522 Y4.4614 I-0.0138 J0.0342
G3 X3.4603 Y4.4733 I-0.0258 J0.0263
G1 X3.5638 Y4.4292 F20
G3 X3.5757 Y4.4863 I-0.1374 J0.0585 F20
G3 X3.5757 Y4.4877 I-0.1493 J0.0014
G3 X3.5649 Y4.5435 I-0.1494 J0
G3 X3.533 Y4.5923 I-0.1385 J-0.0558
G3 X3.4849 Y4.6251 I-0.1066 J-0.1046
G3 X3.4278 Y4.637 I-0.0585 J-0.1374
G3 X3.3706 Y4.6262 I-0.0014 J-0.1493
G3 X3.3218 Y4.5943 I0.0558 J-0.1385
G3 X3.289 Y4.5462 I0.1046 J-0.1066
G3 X3.277 Y4.4891 I0.1374 J-0.0585
G3 X3.277 Y4.4877 I0.1493 J-0.0014
G3 X3.2879 Y4.4319 I0.1494 J0
G3 X3.3198 Y4.3831 I0.1385 J0.0558
G3 X3.3679 Y4.3503 I0.1066 J0.1046
G3 X3.4249 Y4.3384 I0.0585 J0.1374
G3 X3.4822 Y4.3492 I0.0014 J0.1493
G3 X3.531 Y4.3811 I-0.0558 J0.1385
G3 X3.5638 Y4.4292 I-0.1046 J0.1066
G0 Z0.25
G0 X3.4603 Y4.4733
G1 Z-0.24 F20
G3 X3.4632 Y4.4875 I-0.0339 J0.0144 F20
G1 X3.4632 Y4.4877
G3 X3.4606 Y4.5015 I-0.0369 J0
G3 X3.4527 Y4.5135 I-0.0342 J-0.0138
G3 X3.4408 Y4.5216 I-0.0263 J-0.0258
G3 X3.4267 Y4.5246 I-0.0144 J-0.0339
G3 X3.4126 Y4.5219 I-0.0004 J-0.0369
G3 X3.4006 Y4.514 I0.0138 J-0.0342
G3 X3.3925 Y4.5021 I0.0258 J-0.0263
G3 X3.3895 Y4.4879 I0.0339 J-0.0144
G1 X3.3895 Y4.4877
G3 X3.3922 Y4.4739 I0.0369 J0
G3 X3.4001 Y4.4619 I0.0342 J0.0138
G3 X3.412 Y4.4538 I0.0263 J0.0258
G3 X3.426 Y4.4508 I0.0144 J0.0339
G3 X3.4402 Y4.4535 I0.0004 J0.0369
G3 X3.4522 Y4.4614 I-0.0138 J0.0342
G3 X3.4603 Y4.4733 I-0.0258 J0.0263
G1 X3.5638 Y4.4292 F20
G3 X3.5757 Y4.4863 I-0.1374 J0.0585 F20
G3 X3.5757 Y4.4877 I-0.1493 J0.0014
G3 X3.5649 Y4.5435 I-0.1494 J0
G3 X3.533 Y4.5923 I-0.1385 J-0.0558
G3 X3.4849 Y4.6251 I-0.1066 J-0.1046
G3 X3.4278 Y4.637 I-0.0585 J-0.1374
G3 X3.3706 Y4.6262 I-0.0014 J-0.1493
G3 X3.3218 Y4.5943 I0.0558 J-0.1385
G3 X3.289 Y4.5462 I0.1046 J-0.1066
G3 X3.277 Y4.4891 I0.1374 J-0.0585
G3 X3.277 Y4.4877 I0.1493 J-0.0014
G3 X3.2879 Y4.4319 I0.1494 J0
G3 X3.3198 Y4.3831 I0.1385 J0.0558
G3 X3.3679 Y4.3503 I0.1066 J0.1046
G3 X3.4249 Y4.3384 I0.0585 J0.1374
G3 X3.4822 Y4.3492 I0.0014 J0.1493
G3 X3.531 Y4.3811 I-0.0558 J0.1385
G3 X3.5638 Y4.4292 I-0.1046 J0.1066
G0 Z0.25
G0 X3.4603 Y4.4733
G1 Z-0.26 F20
G3 X3.4632 Y4.4875 I-0.0339 J0.0144 F20
G1 X3.4632 Y4.4877
G3 X3.4606 Y4.5015 I-0.0369 J0
G3 X3.4527 Y4.5135 I-0.0342 J-0.0138
G3 X3.4408 Y4.5216 I-0.0263 J-0.0258
G3 X3.4267 Y4.5246 I-0.0144 J-0.0339
G3 X3.4126 Y4.5219 I-0.0004 J-0.0369
G3 X3.4006 Y4.514 I0.0138 J-0.0342
G3 X3.3925 Y4.5021 I0.0258 J-0.0263
G3 X3.3895 Y4.4879 I0.0339 J-0.0144
G1 X3.3895 Y4.4877
G3 X3.3922 Y4.4739 I0.0369 J0
G3 X3.4001 Y4.4619 I0.0342 J0.0138
G3 X3.412 Y4.4538 I0.0263 J0.0258
G3 X3.426 Y4.4508 I0.0144 J0.0339
G3 X3.4402 Y4.4535 I0.0004 J0.0369
G3 X3.4522 Y4.4614 I-0.0138 J0.0342
G3 X3.4603 Y4.4733 I-0.0258 J0.0263
G1 X3.5638 Y4.4292 F20
G3 X3.5757 Y4.4863 I-0.1374 J0.0585 F20
G3 X3.5757 Y4.4877 I-0.1493 J0.0014
G3 X3.5649 Y4.5435 I-0.1494 J0
G3 X3.533 Y4.5923 I-0.1385 J-0.0558
G3 X3.4849 Y4.6251 I-0.1066 J-0.1046
G3 X3.4278 Y4.637 I-0.0585 J-0.1374
G3 X3.3706 Y4.6262 I-0.0014 J-0.1493
G3 X3.3218 Y4.5943 I0.0558 J-0.1385
G3 X3.289 Y4.5462 I0.1046 J-0.1066
G3 X3.277 Y4.4891 I0.1374 J-0.0585
G3 X3.277 Y4.4877 I0.1493 J-0.0014
G3 X3.2879 Y4.4319 I0.1494 J0
G3 X3.3198 Y4.3831 I0.1385 J0.0558
G3 X3.3679 Y4.3503 I0.1066 J0.1046
G3 X3.4249 Y4.3384 I0.0585 J0.1374
G3 X3.4822 Y4.3492 I0.0014 J0.1493
G3 X3.531 Y4.3811 I-0.0558 J0.1385
G3 X3.5638 Y4.4292 I-0.1046 J0.1066
G0 Z0.25
G0 X3.4603 Y4.4733
G1 Z-0.28 F20
G3 X3.4632 Y4.4875 I-0.0339 J0.0144 F20
G1 X3.4632 Y4.4877
G3 X3.4606 Y4.5015 I-0.0369 J0
G3 X3.4527 Y4.5135 I-0.0342 J-0.0138
G3 X3.4408 Y4.5216 I-0.0263 J-0.0258
G3 X3.4267 Y4.5246 I-0.0144 J-0.0339
G3 X3.4126 Y4.5219 I-0.0004 J-0.0369
G3 X3.4006 Y4.514 I0.0138 J-0.0342
G3 X3.3925 Y4.5021 I0.0258 J-0.0263
G3 X3.3895 Y4.4879 I0.0339 J-0.0144
G1 X3.3895 Y4.4877
G3 X3.3922 Y4.4739 I0.0369 J0
G3 X3.4001 Y4.4619 I0.0342 J0.0138
G3 X3.412 Y4.4538 I0.0263 J0.0258
G3 X3.426 Y4.4508 I0.0144 J0.0339
G3 X3.4402 Y4.4535 I0.0004 J0.0369
G3 X3.4522 Y4.4614 I-0.0138 J0.0342
G3 X3.4603 Y4.4733 I-0.0258 J0.0263
G1 X3.5638 Y4.4292 F20
G3 X3.5757 Y4.4863 I-0.1374 J0.0585 F20
G3 X3.5757 Y4.4877 I-0.1493 J0.0014
G3 X3.5649 Y4.5435 I-0.1494 J0
G3 X3.533 Y4.5923 I-0.1385 J-0.0558
G3 X3.4849 Y4.6251 I-0.1066 J-0.1046
G3 X3.4278 Y4.637 I-0.0585 J-0.1374
G3 X3.3706 Y4.6262 I-0.0014 J-0.1493
G3 X3.3218 Y4.5943 I0.0558 J-0.1385
G3 X3.289 Y4.5462 I0.1046 J-0.1066
G3 X3.277 Y4.4891 I0.1374 J-0.0585
G3 X3.277 Y4.4877 I0.1493 J-0.0014
G3 X3.2879 Y4.4319 I0.1494 J0
G3 X3.3198 Y4.3831 I0.1385 J0.0558
G3 X3.3679 Y4.3503 I0.1066 J0.1046
G3 X3.4249 Y4.3384 I0.0585 J0.1374
G3 X3.4822 Y4.3492 I0.0014 J0.1493
G3 X3.531 Y4.3811 I-0.0558 J0.1385
G3 X3.5638 Y4.4292 I-0.1046 J0.1066
G0 Z0.25
G0 X3.4603 Y4.4733
G1 Z-0.3 F20
G3 X3.4632 Y4.4875 I-0.0339 J0.0144 F20
G1 X3.4632 Y4.4877
G3 X3.4606 Y4.5015 I-0.0369 J0
G3 X3.4527 Y4.5135 I-0.0342 J-0.0138
G3 X3.4408 Y4.5216 I-0.0263 J-0.0258
G3 X3.4267 Y4.5246 I-0.0144 J-0.0339
G3 X3.4126 Y4.5219 I-0.0004 J-0.0369
G3 X3.4006 Y4.514 I0.0138 J-0.0342
G3 X3.3925 Y4.5021 I0.0258 J-0.0263
G3 X3.3895 Y4.4879 I0.0339 J-0.0144
G1 X3.3895 Y4.4877
G3 X3.3922 Y4.4739 I0.0369 J0
G3 X3.4001 Y4.4619 I0.0342 J0.0138
G3 X3.412 Y4.4538 I0.0263 J0.0258
G3 X3.426 Y4.4508 I0.0144 J0.0339
G3 X3.4402 Y4.4535 I0.0004 J0.0369
G3 X3.4522 Y4.4614 I-0.0138 J0.0342
G3 X3.4603 Y4.4733 I-0.0258 J0.0263
G1 X3.5638 Y4.4292 F20
G3 X3.5757 Y4.4863 I-0.1374 J0.0585 F20
G3 X3.5757 Y4.4877 I-0.1493 J0.0014
G3 X3.5649 Y4.5435 I-0.1494 J0
G3 X3.533 Y4.5923 I-0.1385 J-0.0558
G3 X3.4849 Y4.6251 I-0.1066 J-0.1046
G3 X3.4278 Y4.637 I-0.0585 J-0.1374
G3 X3.3706 Y4.6262 I-0.0014 J-0.1493
G3 X3.3218 Y4.5943 I0.0558 J-0.1385
G3 X3.289 Y4.5462 I0.1046 J-0.1066
G3 X3.277 Y4.4891 I0.1374 J-0.0585
G3 X3.277 Y4.4877 I0.1493 J-0.0014
G3 X3.2879 Y4.4319 I0.1494 J0
G3 X3.3198 Y4.3831 I0.1385 J0.0558
G3 X3.3679 Y4.3503 I0.1066 J0.1046
G3 X3.4249 Y4.3384 I0.0585 J0.1374
G3 X3.4822 Y4.3492 I0.0014 J0.1493
G3 X3.531 Y4.3811 I-0.0558 J0.1385
G3 X3.5638 Y4.4292 I-0.1046 J0.1066

(pocket 5-3)
G0 Z0.25
G0 X3.4603 Y3.6859
G1 Z-0.02 F20
G3 X3.4632 Y3.7001 I-0.0339 J0.0144 F20
G1 X3.4632 Y3.7003
G3 X3.4606 Y3.7141 I-0.0369 J0
G3 X3.4527 Y3.7261 I-0.0342 J-0.0138
G3 X3.4408 Y3.7342 I-0.0263 J-0.0258
G3 X3.4267 Y3.7372 I-0.0144 J-0.0339
G3 X3.4126 Y3.7345 I-0.0004 J-0.0369
G3 X3.4006 Y3.7266 I0.0138 J-0.0342
G3 X3.3925 Y3.7147 I0.0258 J-0.0263
G3 X3.3895 Y3.7005 I0.0339 J-0.0144
G1 X3.3895 Y3.7003
G3 X3.3922 Y3.6865 I0.0369 J0
G3 X3.4001 Y3.6745 I0.0342 J0.0138
G3 X3.412 Y3.6664 I0.0263 J0.0258
G3 X3.426 Y3.6634 I0.0144 J0.0339
G3 X3.4402 Y3.6661 I0.0004 J0.0369
G3 X3.4522 Y3.674 I-0.0138 J0.0342
G3 X3.4603 Y3.6859 I-0.0258 J0.0263
G1 X3.5638 Y3.6418 F20
G3 X3.5757 Y3.6989 I-0.1374 J0.0585 F20
G3 X3.5757 Y3.7003 I-0.1493 J0.0014
G3 X3.5649 Y3.7561 I-0.1494 J0
G3 X3.533 Y3.8049 I-0.1385 J-0.0558
G3 X3.4849 Y3.8377 I-0.1066 J-0.1046
G3 X3.4278 Y3.8497 I-0.0585 J-0.1374
G3 X3.3706 Y3.8388 I-0.0014 J-0.1493
G3 X3.3218 Y3.8069 I0.0558 J-0.1385
G3 X3.289 Y3.7588 I0.1046 J-0.1066
G3 X3.277 Y3.7017 I0.1374 J-0.0585
G3 X3.277 Y3.7003 I0.1493 J-0.0014
G3 X3.2879 Y3.6445 I0.1494 J0
G3 X3.3198 Y3.5957 I0.1385 J0.0558
G3 X3.3679 Y3.5629 I0.1066 J0.1046
G3 X3.4249 Y3.551 I0.0585 J0.1374
G3 X3.4822 Y3.5618 I0.0014 J0.1493
G3 X3.531 Y3.5937 I-0.0558 J0.1385
G3 X3.5638 Y3.6418 I-0.1046 J0.1066
G0 Z0.25
G0 X3.4603 Y3.6859
G1 Z-0.04 F20
G3 X3.4632 Y3.7001 I-0.0339 J0.0144 F20
G1 X3.4632 Y3.7003
G3 X3.4606 Y3.7141 I-0.0369 J0
G3 X3.4527 Y3.7261 I-0.0342 J-0.0138
G3 X3.4408 Y3.7342 I-0.0263 J-0.0258
G3 X3.4267 Y3.7372 I-0.0144 J-0.0339
G3 X3.4126 Y3.7345 I-0.0004 J-0.0369
G3 X3.4006 Y3.7266 I0.0138 J-0.0342
G3 X3.3925 Y3.7147 I0.0258 J-0.0263
G3 X3.3895 Y3.7005 I0.0339 J-0.0144
G1 X3.3895 Y3.7003
G3 X3.3922 Y3.6865 I0.0369 J0
G3 X3.4001 Y3.6745 I0.0342 J0.0138
G3 X3.412 Y3.6664 I0.0263 J0.0258
G3 X3.426 Y3.6634 I0.0144 J0.0339
G3 X3.4402 Y3.6661 I0.0004 J0.0369
G3 X3.4522 Y3.674 I-0.0138 J0.0342
G3 X3.4603 Y3.6859 I-0.0258 J0.0263
G1 X3.5638 Y3.6418 F20
G3 X3.5757 Y3.6989 I-0.1374 J0.0585 F20
G3 X3.5757 Y3.7003 I-0.1493 J0.0014
G3 X3.5649 Y3.7561 I-0.1494 J0
G3 X3.533 Y3.8049 I-0.1385 J-0.0558
G3 X3.4849 Y3.8377 I-0.1066 J-0.1046
G3 X3.4278 Y3.8497 I-0.0585 J-0.1374
G3 X3.3706 Y3.8388 I-0.0014 J-0.1493
G3 X3.3218 Y3.8069 I0.0558 J-0.1385
G3 X3.289 Y3.7588 I0.1046 J-0.1066
G3 X3.277 Y3.7017 I0.1374 J-0.0585
G3 X3.277 Y3.7003 I0.1493 J-0.0014
G3 X3.2879 Y3.6445 I0.1494 J0
G3 X3.3198 Y3.5957 I0.1385 J0.0558
G3 X3.3679 Y3.5629 I0.1066 J0.1046
G3 X3.4249 Y3.551 I0.0585 J0.1374
G3 X3.4822 Y3.5618 I0.0014 J0.1493
G3 X3.531 Y3.5937 I-0.0558 J0.1385
G3 X3.5638 Y3.6418 I-0.1046 J0.1066
G0 Z0.25
G0 X3.4603 Y3.6859
G1 Z-0.06 F20
G3 X3.4632 Y3.7001 I-0.0339 J0.0144 F20
G1 X3.4632 Y3.7003
G3 X3.4606 Y3.7141 I-0.0369 J0
G3 X3.4527 Y3.7261 I-0.0342 J-0.0138
G3 X3.4408 Y3.7342 I-0.0263 J-0.0258
G3 X3.4267 Y3.7372 I-0.0144 J-0.0339
G3 X3.4126 Y3.7345 I-0.0004 J-0.0369
G3 X3.4006 Y3.7266 I0.0138 J-0.0342
G3 X3.3925 Y3.7147 I0.0258 J-0.0263
G3 X3.3895 Y3.7005 I0.0339 J-0.0144
G1 X3.3895 Y3.7003
G3 X3.3922 Y3.6865 I0.0369 J0
G3 X3.4001 Y3.6745 I0.0342 J0.0138
G3 X3.412 Y3.6664 I0.0263 J0.0258
G3 X3.426 Y3.6634 I0.0144 J0.0339
G3 X3.4402 Y3.6661 I0.0004 J0.0369
G3 X3.4522 Y3.674 I-0.0138 J0.0342
G3 X3.4603 Y3.6859 I-0.0258 J0.0263
G1 X3.5638 Y3.6418 F20
G3 X3.5757 Y3.6989 I-0.1374 J0.0585 F20
G3 X3.5757 Y3.7003 I-0.1493 J0.0014
G3 X3.5649 Y3.7561 I-0.1494 J0
G3 X3.533 Y3.8049 I-0.1385 J-0.0558
G3 X3.4849 Y3.8377 I-0.1066 J-0.1046
G3 X3.4278 Y3.8497 I-0.0585 J-0.1374
G3 X3.3706 Y3.8388 I-0.0014 J-0.1493
G3 X3.3218 Y3.8069 I0.0558 J-0.1385
G3 X3.289 Y3.7588 I0.1046 J-0.1066
G3 X3.277 Y3.7017 I0.1374 J-0.0585
G3 X3.277 Y3.7003 I0.1493 J-0.0014
G3 X3.2879 Y3.6445 I0.1494 J0
G3 X3.3198 Y3.5957 I0.1385 J0.0558
G3 X3.3679 Y3.5629 I0.1066 J0.1046
G3 X3.4249 Y3.551 I0.0585 J0.1374
G3 X3.4822 Y3.5618 I0.0014 J0.1493
G3 X3.531 Y3.5937 I-0.0558 J0.1385
G3 X3.5638 Y3.6418 I-0.1046 J0.1066
G0 Z0.25
G0 X3.4603 Y3.6859
G1 Z-0.08 F20
G3 X3.4632 Y3.7001 I-0.0339 J0.0144 F20
G1 X3.4632 Y3.7003
G3 X3.4606 Y3.7141 I-0.0369 J0
G3 X3.4527 Y3.7261 I-0.0342 J-0.0138
G3 X3.4408 Y3.7342 I-0.0263 J-0.0258
G3 X3.4267 Y3.7372 I-0.0144 J-0.0339
G3 X3.4126 Y3.7345 I-0.0004 J-0.0369
G3 X3.4006 Y3.7266 I0.0138 J-0.0342
G3 X3.3925 Y3.7147 I0.0258 J-0.0263
G3 X3.3895 Y3.7005 I0.0339 J-0.0144
G1 X3.3895 Y3.7003
G3 X3.3922 Y3.6865 I0.0369 J0
G3 X3.4001 Y3.6745 I0.0342 J0.0138
G3 X3.412 Y3.6664 I0.0263 J0.0258
G3 X3.426 Y3.6634 I0.0144 J0.0339
G3 X3.4402 Y3.6661 I0.0004 J0.0369
G3 X3.4522 Y3.674 I-0.0138 J0.0342
G3 X3.4603 Y3.6859 I-0.0258 J0.0263
G1 X3.5638 Y3.6418 F20
G3 X3.5757 Y3.6989 I-0.1374 J0.0585 F20
G3 X3.5757 Y3.7003 I-0.1493 J0.0014
G3 X3.5649 Y3.7561 I-0.1494 J0
G3 X3.533 Y3.8049 I-0.1385 J-0.0558
G3 X3.4849 Y3.8377 I-0.1066 J-0.1046
G3 X3.4278 Y3.8497 I-0.0585 J-0.1374
G3 X3.3706 Y3.8388 I-0.0014 J-0.1493
G3 X3.3218 Y3.8069 I0.0558 J-0.1385
G3 X3.289 Y3.7588 I0.1046 J-0.1066
G3 X3.277 Y3.7017 I0.1374 J-0.0585
G3 X3.277 Y3.7003 I0.1493 J-0.0014
G3 X3.2879 Y3.6445 I0.1494 J0
G3 X3.3198 Y3.5957 I0.1385 J0.0558
G3 X3.3679 Y3.5629 I0.1066 J0.1046
G3 X3.4249 Y3.551 I0.0585 J0.1374
G3 X3.4822 Y3.5618 I0.0014 J0.1493
G3 X3.531 Y3.5937 I-0.0558 J0.1385
G3 X3.5638 Y3.6418 I-0.1046 J0.1066
G0 Z0.25
G0 X3.4603 Y3.6859
G1 Z-0.1 F20
G3 X3.4632 Y3.7001 I-0.0339 J0.0144 F20
G1 X3.4632 Y3.7003
G3 X3.4606 Y3.7141 I-0.0369 J0
G3 X3.4527 Y3.7261 I-0.0342 J-0.0138
G3 X3.4408 Y3.7342 I-0.0263 J-0.0258
G3 X3.4267 Y3.7372 I-0.0144 J-0.0339
G3 X3.4126 Y3.7345 I-0.0004 J-0.0369
G3 X3.4006 Y3.7266 I0.0138 J-0.0342
G3 X3.3925 Y3.7147 I0.0258 J-0.0263
G3 X3.3895 Y3.7005 I0.0339 J-0.0144
G1 X3.3895 Y3.7003
G3 X3.3922 Y3.6865 I0.0369 J0
G3 X3.4001 Y3.6745 I0.0342 J0.0138
G3 X3.412 Y3.6664 I0.0263 J0.0258
G3 X3.426 Y3.6634 I0.0144 J0.0339
G3 X3.4402 Y3.6661 I0.0004 J0.0369
G3 X3.4522 Y3.674 I-0.0138 J0.0342
G3 X3.4603 Y3.6859 I-0.0258 J0.0263
G1 X3.5638 Y3.6418 F20
G3 X3.5757 Y3.6989 I-0.1374 J0.0585 F20
G3 X3.5757 Y3.7003 I-0.1493 J0.0014
G3 X3.5649 Y3.7561 I-0.1494 J0
G3 X3.533 Y3.8049 I-0.1385 J-0.0558
G3 X3.4849 Y3.8377 I-0.1066 J-0.1046
G3 X3.4278 Y3.8497 I-0.0585 J-0.1374
G3 X3.3706 Y3.8388 I-0.0014 J-0.1493
G3 X3.3218 Y3.8069 I0.0558 J-0.1385
G3 X3.289 Y3.7588 I0.1046 J-0.1066
G3 X3.277 Y3.7017 I0.1374 J-0.0585
G3 X3.277 Y3.7003 I0.1493 J-0.0014
G3 X3.2879 Y3.6445 I0.1494 J0
G3 X3.3198 Y3.5957 I0.1385 J0.0558
G3 X3.3679 Y3.5629 I0.1066 J0.1046
G3 X3.4249 Y3.551 I0.0585 J0.1374
G3 X3.4822 Y3.5618 I0.0014 J0.1493
G3 X3.531 Y3.5937 I-0.0558 J0.1385
G3 X3.5638 Y3.6418 I-0.1046 J0.1066
G0 Z0.25
G0 X3.4603 Y3.6859
G1 Z-0.12 F20
G3 X3.4632 Y3.7001 I-0.0339 J0.0144 F20
G1 X3.4632 Y3.7003
G3 X3.4606 Y3.7141 I-0.0369 J0
G3 X3.4527 Y3.7261 I-0.0342 J-0.0138
G3 X3.4408 Y3.7342 I-0.0263 J-0.0258
G3 X3.4267 Y3.7372 I-0.0144 J-0.0339
G3 X3.4126 Y3.7345 I-0.0004 J-0.0369
G3 X3.4006 Y3.7266 I0.0138 J-0.0342
G3 X3.3925 Y3.7147 I0.0258 J-0.0263
G3 X3.3895 Y3.7005 I0.0339 J-0.0144
G1 X3.3895 Y3.7003
G3 X3.3922 Y3.6865 I0.0369 J0
G3 X3.4001 Y3.6745 I0.0342 J0.0138
G3 X3.412 Y3.6664 I0.0263 J0.0258
G3 X3.426 Y3.6634 I0.0144 J0.0339
G3 X3.4402 Y3.6661 I0.0004 J0.0369
G3 X3.4522 Y3.674 I-0.0138 J0.0342
G3 X3.4603 Y3.6859 I-0.0258 J0.0263
G1 X3.5638 Y3.6418 F20
G3 X3.5757 Y3.6989 I-0.1374 J0.0585 F20
G3 X3.5757 Y3.7003 I-0.1493 J0.0014
G3 X3.5649 Y3.7561 I-0.1494 J0
G3 X3.533 Y3.8049 I-0.1385 J-0.0558
G3 X3.4849 Y3.8377 I-0.1066 J-0.1046
G3 X3.4278 Y3.8497 I-0.0585 J-0.1374
G3 X3.3706 Y3.8388 I-0.0014 J-0.1493
G3 X3.3218 Y3.8069 I0.0558 J-0.1385
G3 X3.289 Y3.7588 I0.1046 J-0.1066
G3 X3.277 Y3.7017 I0.1374 J-0.0585
G3 X3.277 Y3.7003 I0.1493 J-0.0014
G3 X3.2879 Y3.6445 I0.1494 J0
G3 X3.3198 Y3.5957 I0.1385 J0.0558
G3 X3.3679 Y3.5629 I0.1066 J0.1046
G3 X3.4249 Y3.551 I0.0585 J0.1374
G3 X3.4822 Y3.5618 I0.0014 J0.1493
G3 X3.531 Y3.5937 I-0.0558 J0.1385
G3 X3.5638 Y3.6418 I-0.1046 J0.1066
G0 Z0.25
G0 X3.4603 Y3.6859
G1 Z-0.14 F20
G3 X3.4632 Y3.7001 I-0.0339 J0.0144 F20
G1 X3.4632 Y3.7003
G3 X3.4606 Y3.7141 I-0.0369 J0
G3 X3.4527 Y3.7261 I-0.0342 J-0.0138
G3 X3.4408 Y3.7342 I-0.0263 J-0.0258
G3 X3.4267 Y3.7372 I-0.0144 J-0.0339
G3 X3.4126 Y3.7345 I-0.0004 J-0.0369
G3 X3.4006 Y3.7266 I0.0138 J-0.0342
G3 X3.3925 Y3.7147 I0.0258 J-0.0263
G3 X3.3895 Y3.7005 I0.0339 J-0.0144
G1 X3.3895 Y3.7003
G3 X3.3922 Y3.6865 I0.0369 J0
G3 X3.4001 Y3.6745 I0.0342 J0.0138
G3 X3.412 Y3.6664 I0.0263 J0.0258
G3 X3.426 Y3.6634 I0.0144 J0.0339
G3 X3.4402 Y3.6661 I0.0004 J0.0369
G3 X3.4522 Y3.674 I-0.0138 J0.0342
G3 X3.4603 Y3.6859 I-0.0258 J0.0263
G1 X3.5638 Y3.6418 F20
G3 X3.5757 Y3.6989 I-0.1374 J0.0585 F20
G3 X3.5757 Y3.7003 I-0.1493 J0.0014
G3 X3.5649 Y3.7561 I-0.1494 J0
G3 X3.533 Y3.8049 I-0.1385 J-0.0558
G3 X3.4849 Y3.8377 I-0.1066 J-0.1046
G3 X3.4278 Y3.8497 I-0.0585 J-0.1374
G3 X3.3706 Y3.8388 I-0.0014 J-0.1493
G3 X3.3218 Y3.8069 I0.0558 J-0.1385
G3 X3.289 Y3.7588 I0.1046 J-0.1066
G3 X3.277 Y3.7017 I0.1374 J-0.0585
G3 X3.277 Y3.7003 I0.1493 J-0.0014
G3 X3.2879 Y3.6445 I0.1494 J0
G3 X3.3198 Y3.5957 I0.1385 J0.0558
G3 X3.3679 Y3.5629 I0.1066 J0.1046
G3 X3.4249 Y3.551 I0.0585 J0.1374
G3 X3.4822 Y3.5618 I0.0014 J0.1493
G3 X3.531 Y3.5937 I-0.0558 J0.1385
G3 X3.5638 Y3.6418 I-0.1046 J0.1066
G0 Z0.25
G0 X3.4603 Y3.6859
G1 Z-0.16 F20
G3 X3.4632 Y3.7001 I-0.0339 J0.0144 F20
G1 X3.4632 Y3.7003
G3 X3.4606 Y3.7141 I-0.0369 J0
G3 X3.4527 Y3.7261 I-0.0342 J-0.0138
G3 X3.4408 Y3.7342 I-0.0263 J-0.0258
G3 X3.4267 Y3.7372 I-0.0144 J-0.0339
G3 X3.4126 Y3.7345 I-0.0004 J-0.0369
G3 X3.4006 Y3.7266 I0.0138 J-0.0342
G3 X3.3925 Y3.7147 I0.0258 J-0.0263
G3 X3.3895 Y3.7005 I0.0339 J-0.0144
G1 X3.3895 Y3.7003
G3 X3.3922 Y3.6865 I0.0369 J0
G3 X3.4001 Y3.6745 I0.0342 J0.0138
G3 X3.412 Y3.6664 I0.0263 J0.0258
G3 X3.426 Y3.6634 I0.0144 J0.0339
G3 X3.4402 Y3.6661 I0.0004 J0.0369
G3 X3.4522 Y3.674 I-0.0138 J0.0342
G3 X3.4603 Y3.6859 I-0.0258 J0.0263
G1 X3.5638 Y3.6418 F20
G3 X3.5757 Y3.6989 I-0.1374 J0.0585 F20
G3 X3.5757 Y3.7003 I-0.1493 J0.0014
G3 X3.5649 Y3.7561 I-0.1494 J0
G3 X3.533 Y3.8049 I-0.1385 J-0.0558
G3 X3.4849 Y3.8377 I-0.1066 J-0.1046
G3 X3.4278 Y3.8497 I-0.0585 J-0.1374
G3 X3.3706 Y3.8388 I-0.0014 J-0.1493
G3 X3.3218 Y3.8069 I0.0558 J-0.1385
G3 X3.289 Y3.7588 I0.1046 J-0.1066
G3 X3.277 Y3.7017 I0.1374 J-0.0585
G3 X3.277 Y3.7003 I0.1493 J-0.0014
G3 X3.2879 Y3.6445 I0.1494 J0
G3 X3.3198 Y3.5957 I0.1385 J0.0558
G3 X3.3679 Y3.5629 I0.1066 J0.1046
G3 X3.4249 Y3.551 I0.0585 J0.1374
G3 X3.4822 Y3.5618 I0.0014 J0.1493
G3 X3.531 Y3.5937 I-0.0558 J0.1385
G3 X3.5638 Y3.6418 I-0.1046 J0.1066
G0 Z0.25
G0 X3.4603 Y3.6859
G1 Z-0.18 F20
G3 X3.4632 Y3.7001 I-0.0339 J0.0144 F20
G1 X3.4632 Y3.7003
G3 X3.4606 Y3.7141 I-0.0369 J0
G3 X3.4527 Y3.7261 I-0.0342 J-0.0138
G3 X3.4408 Y3.7342 I-0.0263 J-0.0258
G3 X3.4267 Y3.7372 I-0.0144 J-0.0339
G3 X3.4126 Y3.7345 I-0.0004 J-0.0369
G3 X3.4006 Y3.7266 I0.0138 J-0.0342
G3 X3.3925 Y3.7147 I0.0258 J-0.0263
G3 X3.3895 Y3.7005 I0.0339 J-0.0144
G1 X3.3895 Y3.7003
G3 X3.3922 Y3.6865 I0.0369 J0
G3 X3.4001 Y3.6745 I0.0342 J0.0138
G3 X3.412 Y3.6664 I0.0263 J0.0258
G3 X3.426 Y3.6634 I0.0144 J0.0339
G3 X3.4402 Y3.6661 I0.0004 J0.0369
G3 X3.4522 Y3.674 I-0.0138 J0.0342
G3 X3.4603 Y3.6859 I-0.0258 J0.0263
G1 X3.5638 Y3.6418 F20
G3 X3.5757 Y3.6989 I-0.1374 J0.0585 F20
G3 X3.5757 Y3.7003 I-0.1493 J0.0014
G3 X3.5649 Y3.7561 I-0.1494 J0
G3 X3.533 Y3.8049 I-0.1385 J-0.0558
G3 X3.4849 Y3.8377 I-0.1066 J-0.1046
G3 X3.4278 Y3.8497 I-0.0585 J-0.1374
G3 X3.3706 Y3.8388 I-0.0014 J-0.1493
G3 X3.3218 Y3.8069 I0.0558 J-0.1385
G3 X3.289 Y3.7588 I0.1046 J-0.1066
G3 X3.277 Y3.7017 I0.1374 J-0.0585
G3 X3.277 Y3.7003 I0.1493 J-0.0014
G3 X3.2879 Y3.6445 I0.1494 J0
G3 X3.3198 Y3.5957 I0.1385 J0.0558
G3 X3.3679 Y3.5629 I0.1066 J0.1046
G3 X3.4249 Y3.551 I0.0585 J0.1374
G3 X3.4822 Y3.5618 I0.0014 J0.1493
G3 X3.531 Y3.5937 I-0.0558 J0.1385
G3 X3.5638 Y3.6418 I-0.1046 J0.1066
G0 Z0.25
G0 X3.4603 Y3.6859
G1 Z-0.2 F20
G3 X3.4632 Y3.7001 I-0.0339 J0.0144 F20
G1 X3.4632 Y3.7003
G3 X3.4606 Y3.7141 I-0.0369 J0
G3 X3.4527 Y3.7261 I-0.0342 J-0.0138
G3 X3.4408 Y3.7342 I-0.0263 J-0.0258
G3 X3.4267 Y3.7372 I-0.0144 J-0.0339
G3 X3.4126 Y3.7345 I-0.0004 J-0.0369
G3 X3.4006 Y3.7266 I0.0138 J-0.0342
G3 X3.3925 Y3.7147 I0.0258 J-0.0263
G3 X3.3895 Y3.7005 I0.0339 J-0.0144
G1 X3.3895 Y3.7003
G3 X3.3922 Y3.6865 I0.0369 J0
G3 X3.4001 Y3.6745 I0.0342 J0.0138
G3 X3.412 Y3.6664 I0.0263 J0.0258
G3 X3.426 Y3.6634 I0.0144 J0.0339
G3 X3.4402 Y3.6661 I0.0004 J0.0369
G3 X3.4522 Y3.674 I-0.0138 J0.0342
G3 X3.4603 Y3.6859 I-0.0258 J0.0263
G1 X3.5638 Y3.6418 F20
G3 X3.5757 Y3.6989 I-0.1374 J0.0585 F20
G3 X3.5757 Y3.7003 I-0.1493 J0.0014
G3 X3.5649 Y3.7561 I-0.1494 J0
G3 X3.533 Y3.8049 I-0.1385 J-0.0558
G3 X3.4849 Y3.8377 I-0.1066 J-0.1046
G3 X3.4278 Y3.8497 I-0.0585 J-0.1374
G3 X3.3706 Y3.8388 I-0.0014 J-0.1493
G3 X3.3218 Y3.8069 I0.0558 J-0.1385
G3 X3.289 Y3.7588 I0.1046 J-0.1066
G3 X3.277 Y3.7017 I0.1374 J-0.0585
G3 X3.277 Y3.7003 I0.1493 J-0.0014
G3 X3.2879 Y3.6445 I0.1494 J0
G3 X3.3198 Y3.5957 I0.1385 J0.0558
G3 X3.3679 Y3.5629 I0.1066 J0.1046
G3 X3.4249 Y3.551 I0.0585 J0.1374
G3 X3.4822 Y3.5618 I0.0014 J0.1493
G3 X3.531 Y3.5937 I-0.0558 J0.1385
G3 X3.5638 Y3.6418 I-0.1046 J0.1066
G0 Z0.25
G0 X3.4603 Y3.6859
G1 Z-0.22 F20
G3 X3.4632 Y3.7001 I-0.0339 J0.0144 F20
G1 X3.4632 Y3.7003
G3 X3.4606 Y3.7141 I-0.0369 J0
G3 X3.4527 Y3.7261 I-0.0342 J-0.0138
G3 X3.4408 Y3.7342 I-0.0263 J-0.0258
G3 X3.4267 Y3.7372 I-0.0144 J-0.0339
G3 X3.4126 Y3.7345 I-0.0004 J-0.0369
G3 X3.4006 Y3.7266 I0.0138 J-0.0342
G3 X3.3925 Y3.7147 I0.0258 J-0.0263
G3 X3.3895 Y3.7005 I0.0339 J-0.0144
G1 X3.3895 Y3.7003
G3 X3.3922 Y3.6865 I0.0369 J0
G3 X3.4001 Y3.6745 I0.0342 J0.0138
G3 X3.412 Y3.6664 I0.0263 J0.0258
G3 X3.426 Y3.6634 I0.0144 J0.0339
G3 X3.4402 Y3.6661 I0.0004 J0.0369
G3 X3.4522 Y3.674 I-0.0138 J0.0342
G3 X3.4603 Y3.6859 I-0.0258 J0.0263
G1 X3.5638 Y3.6418 F20
G3 X3.5757 Y3.6989 I-0.1374 J0.0585 F20
G3 X3.5757 Y3.7003 I-0.1493 J0.0014
G3 X3.5649 Y3.7561 I-0.1494 J0
G3 X3.533 Y3.8049 I-0.1385 J-0.0558
G3 X3.4849 Y3.8377 I-0.1066 J-0.1046
G3 X3.4278 Y3.8497 I-0.0585 J-0.1374
G3 X3.3706 Y3.8388 I-0.0014 J-0.1493
G3 X3.3218 Y3.8069 I0.0558 J-0.1385
G3 X3.289 Y3.7588 I0.1046 J-0.1066
G3 X3.277 Y3.7017 I0.1374 J-0.0585
G3 X3.277 Y3.7003 I0.1493 J-0.0014
G3 X3.2879 Y3.6445 I0.1494 J0
G3 X3.3198 Y3.5957 I0.1385 J0.0558
G3 X3.3679 Y3.5629 I0.1066 J0.1046
G3 X3.4249 Y3.551 I0.0585 J0.1374
G3 X3.4822 Y3.5618 I0.0014 J0.1493
G3 X3.531 Y3.5937 I-0.0558 J0.1385
G3 X3.5638 Y3.6418 I-0.1046 J0.1066
G0 Z0.25
G0 X3.4603 Y3.6859
G1 Z-0.24 F20
G3 X3.4632 Y3.7001 I-0.0339 J0.0144 F20
G1 X3.4632 Y3.7003
G3 X3.4606 Y3.7141 I-0.0369 J0
G3 X3.4527 Y3.7261 I-0.0342 J-0.0138
G3 X3.4408 Y3.7342 I-0.0263 J-0.0258
G3 X3.4267 Y3.7372 I-0.0144 J-0.0339
G3 X3.4126 Y3.7345 I-0.0004 J-0.0369
G3 X3.4006 Y3.7266 I0.0138 J-0.0342
G3 X3.3925 Y3.7147 I0.0258 J-0.0263
G3 X3.3895 Y3.7005 I0.0339 J-0.0144
G1 X3.3895 Y3.7003
G3 X3.3922 Y3.6865 I0.0369 J0
G3 X3.4001 Y3.6745 I0.0342 J0.0138
G3 X3.412 Y3.6664 I0.0263 J0.0258
G3 X3.426 Y3.6634 I0.0144 J0.0339
G3 X3.4402 Y3.6661 I0.0004 J0.0369
G3 X3.4522 Y3.674 I-0.0138 J0.0342
G3 X3.4603 Y3.6859 I-0.0258 J0.0263
G1 X3.5638 Y3.6418 F20
G3 X3.5757 Y3.6989 I-0.1374 J0.0585 F20
G3 X3.5757 Y3.7003 I-0.1493 J0.0014
G3 X3.5649 Y3.7561 I-0.1494 J0
G3 X3.533 Y3.8049 I-0.1385 J-0.0558
G3 X3.4849 Y3.8377 I-0.1066 J-0.1046
G3 X3.4278 Y3.8497 I-0.0585 J-0.1374
G3 X3.3706 Y3.8388 I-0.0014 J-0.1493
G3 X3.3218 Y3.8069 I0.0558 J-0.1385
G3 X3.289 Y3.7588 I0.1046 J-0.1066
G3 X3.277 Y3.7017 I0.1374 J-0.0585
G3 X3.277 Y3.7003 I0.1493 J-0.0014
G3 X3.2879 Y3.6445 I0.1494 J0
G3 X3.3198 Y3.5957 I0.1385 J0.0558
G3 X3.3679 Y3.5629 I0.1066 J0.1046
G3 X3.4249 Y3.551 I0.0585 J0.1374
G3 X3.4822 Y3.5618 I0.0014 J0.1493
G3 X3.531 Y3.5937 I-0.0558 J0.1385
G3 X3.5638 Y3.6418 I-0.1046 J0.1066
G0 Z0.25
G0 X3.4603 Y3.6859
G1 Z-0.26 F20
G3 X3.4632 Y3.7001 I-0.0339 J0.0144 F20
G1 X3.4632 Y3.7003
G3 X3.4606 Y3.7141 I-0.0369 J0
G3 X3.4527 Y3.7261 I-0.0342 J-0.0138
G3 X3.4408 Y3.7342 I-0.0263 J-0.0258
G3 X3.4267 Y3.7372 I-0.0144 J-0.0339
G3 X3.4126 Y3.7345 I-0.0004 J-0.0369
G3 X3.4006 Y3.7266 I0.0138 J-0.0342
G3 X3.3925 Y3.7147 I0.0258 J-0.0263
G3 X3.3895 Y3.7005 I0.0339 J-0.0144
G1 X3.3895 Y3.7003
G3 X3.3922 Y3.6865 I0.0369 J0
G3 X3.4001 Y3.6745 I0.0342 J0.0138
G3 X3.412 Y3.6664 I0.0263 J0.0258
G3 X3.426 Y3.6634 I0.0144 J0.0339
G3 X3.4402 Y3.6661 I0.0004 J0.0369
G3 X3.4522 Y3.674 I-0.0138 J0.0342
G3 X3.4603 Y3.6859 I-0.0258 J0.0263
G1 X3.5638 Y3.6418 F20
G3 X3.5757 Y3.6989 I-0.1374 J0.0585 F20
G3 X3.5757 Y3.7003 I-0.1493 J0.0014
G3 X3.5649 Y3.7561 I-0.1494 J0
G3 X3.533 Y3.8049 I-0.1385 J-0.0558
G3 X3.4849 Y3.8377 I-0.1066 J-0.1046
G3 X3.4278 Y3.8497 I-0.0585 J-0.1374
G3 X3.3706 Y3.8388 I-0.0014 J-0.1493
G3 X3.3218 Y3.8069 I0.0558 J-0.1385
G3 X3.289 Y3.7588 I0.1046 J-0.1066
G3 X3.277 Y3.7017 I0.1374 J-0.0585
G3 X3.277 Y3.7003 I0.1493 J-0.0014
G3 X3.2879 Y3.6445 I0.1494 J0
G3 X3.3198 Y3.5957 I0.1385 J0.0558
G3 X3.3679 Y3.5629 I0.1066 J0.1046
G3 X3.4249 Y3.551 I0.0585 J0.1374
G3 X3.4822 Y3.5618 I0.0014 J0.1493
G3 X3.531 Y3.5937 I-0.0558 J0.1385
G3 X3.5638 Y3.6418 I-0.1046 J0.1066
G0 Z0.25
G0 X3.4603 Y3.6859
G1 Z-0.28 F20
G3 X3.4632 Y3.7001 I-0.0339 J0.0144 F20
G1 X3.4632 Y3.7003
G3 X3.4606 Y3.7141 I-0.0369 J0
G3 X3.4527 Y3.7261 I-0.0342 J-0.0138
G3 X3.4408 Y3.7342 I-0.0263 J-0.0258
G3 X3.4267 Y3.7372 I-0.0144 J-0.0339
G3 X3.4126 Y3.7345 I-0.0004 J-0.0369
G3 X3.4006 Y3.7266 I0.0138 J-0.0342
G3 X3.3925 Y3.7147 I0.0258 J-0.0263
G3 X3.3895 Y3.7005 I0.0339 J-0.0144
G1 X3.3895 Y3.7003
G3 X3.3922 Y3.6865 I0.0369 J0
G3 X3.4001 Y3.6745 I0.0342 J0.0138
G3 X3.412 Y3.6664 I0.0263 J0.0258
G3 X3.426 Y3.6634 I0.0144 J0.0339
G3 X3.4402 Y3.6661 I0.0004 J0.0369
G3 X3.4522 Y3.674 I-0.0138 J0.0342
G3 X3.4603 Y3.6859 I-0.0258 J0.0263
G1 X3.5638 Y3.6418 F20
G3 X3.5757 Y3.6989 I-0.1374 J0.0585 F20
G3 X3.5757 Y3.7003 I-0.1493 J0.0014
G3 X3.5649 Y3.7561 I-0.1494 J0
G3 X3.533 Y3.8049 I-0.1385 J-0.0558
G3 X3.4849 Y3.8377 I-0.1066 J-0.1046
G3 X3.4278 Y3.8497 I-0.0585 J-0.1374
G3 X3.3706 Y3.8388 I-0.0014 J-0.1493
G3 X3.3218 Y3.8069 I0.0558 J-0.1385
G3 X3.289 Y3.7588 I0.1046 J-0.1066
G3 X3.277 Y3.7017 I0.1374 J-0.0585
G3 X3.277 Y3.7003 I0.1493 J-0.0014
G3 X3.2879 Y3.6445 I0.1494 J0
G3 X3.3198 Y3.5957 I0.1385 J0.0558
G3 X3.3679 Y3.5629 I0.1066 J0.1046
G3 X3.4249 Y3.551 I0.0585 J0.1374
G3 X3.4822 Y3.5618 I0.0014 J0.1493
G3 X3.531 Y3.5937 I-0.0558 J0.1385
G3 X3.5638 Y3.6418 I-0.1046 J0.1066
G0 Z0.25
G0 X3.4603 Y3.6859
G1 Z-0.3 F20
G3 X3.4632 Y3.7001 I-0.0339 J0.0144 F20
G1 X3.4632 Y3.7003
G3 X3.4606 Y3.7141 I-0.0369 J0
G3 X3.4527 Y3.7261 I-0.0342 J-0.0138
G3 X3.4408 Y3.7342 I-0.0263 J-0.0258
G3 X3.4267 Y3.7372 I-0.0144 J-0.0339
G3 X3.4126 Y3.7345 I-0.0004 J-0.0369
G3 X3.4006 Y3.7266 I0.0138 J-0.0342
G3 X3.3925 Y3.7147 I0.0258 J-0.0263
G3 X3.3895 Y3.7005 I0.0339 J-0.0144
G1 X3.3895 Y3.7003
G3 X3.3922 Y3.6865 I0.0369 J0
G3 X3.4001 Y3.6745 I0.0342 J0.0138
G3 X3.412 Y3.6664 I0.0263 J0.0258
G3 X3.426 Y3.6634 I0.0144 J0.0339
G3 X3.4402 Y3.6661 I0.0004 J0.0369
G3 X3.4522 Y3.674 I-0.0138 J0.0342
G3 X3.4603 Y3.6859 I-0.0258 J0.0263
G1 X3.5638 Y3.6418 F20
G3 X3.5757 Y3.6989 I-0.1374 J0.0585 F20
G3 X3.5757 Y3.7003 I-0.1493 J0.0014
G3 X3.5649 Y3.7561 I-0.1494 J0
G3 X3.533 Y3.8049 I-0.1385 J-0.0558
G3 X3.4849 Y3.8377 I-0.1066 J-0.1046
G3 X3.4278 Y3.8497 I-0.0585 J-0.1374
G3 X3.3706 Y3.8388 I-0.0014 J-0.1493
G3 X3.3218 Y3.8069 I0.0558 J-0.1385
G3 X3.289 Y3.7588 I0.1046 J-0.1066
G3 X3.277 Y3.7017 I0.1374 J-0.0585
G3 X3.277 Y3.7003 I0.1493 J-0.0014
G3 X3.2879 Y3.6445 I0.1494 J0
G3 X3.3198 Y3.5957 I0.1385 J0.0558
G3 X3.3679 Y3.5629 I0.1066 J0.1046
G3 X3.4249 Y3.551 I0.0585 J0.1374
G3 X3.4822 Y3.5618 I0.0014 J0.1493
G3 X3.531 Y3.5937 I-0.0558 J0.1385
G3 X3.5638 Y3.6418 I-0.1046 J0.1066

(profile 9-0)
G0 Z0.25
G0 X2.9799 Y4.9135
G1 Z-0.02 F20
G2 X3.0327 Y4.9426 I0.0528 J-0.0334 F20
G1 X3.7292 Y4.9426
G2 X3.7917 Y4.8801 I0 J-0.0625
G1 X3.7917 Y2.6243
G1 X3.7917 Y2.3605
G1 X3.7917 Y0.5007
G2 X3.7292 Y0.4382 I-0.0625 J0
G1 X3.4229 Y0.4382
G1 X3.1393 Y0.4382
G1 X1.2902 Y0.4382
G1 X1.0402 Y0.4382
G1 X0.5007 Y0.4382
G2 X0.4382 Y0.5007 I0 J0.0625
G1 X0.4382 Y0.8757
G2 X0.4479 Y0.9091 I0.0625 J0
G1 X0.6251 Y1.1894
G1 X0.7587 Y1.4007
G1 X2.6843 Y4.446
G1 X2.8179 Y4.6573
G1 X2.9799 Y4.9135
G1 Z-0.04 F20
G2 X3.0327 Y4.9426 I0.0528 J-0.0334 F20
G1 X3.7292 Y4.9426
G2 X3.7917 Y4.8801 I0 J-0.0625
G1 X3.7917 Y2.6243
G1 X3.7917 Y2.3605
G1 X3.7917 Y0.5007
G2 X3.7292 Y0.4382 I-0.0625 J0
G1 X3.4229 Y0.4382
G1 X3.1393 Y0.4382
G1 X1.2902 Y0.4382
G1 X1.0402 Y0.4382
G1 X0.5007 Y0.4382
G2 X0.4382 Y0.5007 I0 J0.0625
G1 X0.4382 Y0.8757
G2 X0.4479 Y0.9091 I0.0625 J0
G1 X0.6251 Y1.1894
G1 X0.7587 Y1.4007
G1 X2.6843 Y4.446
G1 X2.8179 Y4.6573
G1 X2.9799 Y4.9135
G1 Z-0.06 F20
G2 X3.0327 Y4.9426 I0.0528 J-0.0334 F20
G1 X3.7292 Y4.9426
G2 X3.7917 Y4.8801 I0 J-0.0625
G1 X3.7917 Y2.6243
G1 X3.7917 Y2.3605
G1 X3.7917 Y0.5007
G2 X3.7292 Y0.4382 I-0.0625 J0
G1 X3.4229 Y0.4382
G1 X3.1393 Y0.4382
G1 X1.2902 Y0.4382
G1 X1.0402 Y0.4382
G1 X0.5007 Y0.4382
G2 X0.4382 Y0.5007 I0 J0.0625
G1 X0.4382 Y0.8757
G2 X0.4479 Y0.9091 I0.0625 J0
G1 X0.6251 Y1.1894
G1 X0.7587 Y1.4007
G1 X2.6843 Y4.446
G1 X2.8179 Y4.6573
G1 X2.9799 Y4.9135
G1 Z-0.08 F20
G2 X3.0327 Y4.9426 I0.0528 J-0.0334 F20
G1 X3.7292 Y4.9426
G2 X3.7917 Y4.8801 I0 J-0.0625
G1 X3.7917 Y2.6243
G1 X3.7917 Y2.3605
G1 X3.7917 Y0.5007
G2 X3.7292 Y0.4382 I-0.0625 J0
G1 X3.4229 Y0.4382
G1 X3.1393 Y0.4382
G1 X1.2902 Y0.4382
G1 X1.0402 Y0.4382
G1 X0.5007 Y0.4382
G2 X0.4382 Y0.5007 I0 J0.0625
G1 X0.4382 Y0.8757
G2 X0.4479 Y0.9091 I0.0625 J0
G1 X0.6251 Y1.1894
G1 X0.7587 Y1.4007
G1 X2.6843 Y4.446
G1 X2.8179 Y4.6573
G1 X2.9799 Y4.9135
G1 Z-0.1 F20
G2 X3.0327 Y4.9426 I0.0528 J-0.0334 F20
G1 X3.7292 Y4.9426
G2 X3.7917 Y4.8801 I0 J-0.0625
G1 X3.7917 Y2.6243
G1 X3.7917 Y2.3605
G1 X3.7917 Y0.5007
G2 X3.7292 Y0.4382 I-0.0625 J0
G1 X3.4229 Y0.4382
G1 X3.1393 Y0.4382
G1 X1.2902 Y0.4382
G1 X1.0402 Y0.4382
G1 X0.5007 Y0.4382
G2 X0.4382 Y0.5007 I0 J0.0625
G1 X0.4382 Y0.8757
G2 X0.4479 Y0.9091 I0.0625 J0
G1 X0.6251 Y1.1894
G1 X0.7587 Y1.4007
G1 X2.6843 Y4.446
G1 X2.8179 Y4.6573
G1 X2.9799 Y4.9135
G1 Z-0.12 F20
G2 X3.0327 Y4.9426 I0.0528 J-0.0334 F20
G1 X3.7292 Y4.9426
G2 X3.7917 Y4.8801 I0 J-0.0625
G1 X3.7917 Y2.6243
G1 X3.7917 Y2.3605
G1 X3.7917 Y0.5007
G2 X3.7292 Y0.4382 I-0.0625 J0
G1 X3.4229 Y0.4382
G1 X3.1393 Y0.4382
G1 X1.2902 Y0.4382
G1 X1.0402 Y0.4382
G1 X0.5007 Y0.4382
G2 X0.4382 Y0.5007 I0 J0.0625
G1 X0.4382 Y0.8757
G2 X0.4479 Y0.9091 I0.0625 J0
G1 X0.6251 Y1.1894
G1 X0.7587 Y1.4007
G1 X2.6843 Y4.446
G1 X2.8179 Y4.6573
G1 X2.9799 Y4.9135
G1 Z-0.14 F20
G2 X3.0327 Y4.9426 I0.0528 J-0.0334 F20
G1 X3.7292 Y4.9426
G2 X3.7917 Y4.8801 I0 J-0.0625
G1 X3.7917 Y2.6243
G1 X3.7917 Y2.3605
G1 X3.7917 Y0.5007
G2 X3.7292 Y0.4382 I-0.0625 J0
G1 X3.4229 Y0.4382
G1 X3.1393 Y0.4382
G1 X1.2902 Y0.4382
G1 X1.0402 Y0.4382
G1 X0.5007 Y0.4382
G2 X0.4382 Y0.5007 I0 J0.0625
G1 X0.4382 Y0.8757
G2 X0.4479 Y0.9091 I0.0625 J0
G1 X0.6251 Y1.1894
G1 X0.7587 Y1.4007
G1 X2.6843 Y4.446
G1 X2.8179 Y4.6573
G1 X2.9799 Y4.9135
G1 Z-0.16 F20
G2 X3.0327 Y4.9426 I0.0528 J-0.0334 F20
G1 X3.7292 Y4.9426
G2 X3.7917 Y4.8801 I0 J-0.0625
G1 X3.7917 Y2.6243
G1 X3.7917 Y2.3605
G1 X3.7917 Y0.5007
G2 X3.7292 Y0.4382 I-0.0625 J0
G1 X3.4229 Y0.4382
G1 X3.1393 Y0.4382
G1 X1.2902 Y0.4382
G1 X1.0402 Y0.4382
G1 X0.5007 Y0.4382
G2 X0.4382 Y0.5007 I0 J0.0625
G1 X0.4382 Y0.8757
G2 X0.4479 Y0.9091 I0.0625 J0
G1 X0.6251 Y1.1894
G1 X0.7587 Y1.4007
G1 X2.6843 Y4.446
G1 X2.8179 Y4.6573
G1 X2.9799 Y4.9135
G1 Z-0.18 F20
G2 X3.0327 Y4.9426 I0.0528 J-0.0334 F20
G1 X3.7292 Y4.9426
G2 X3.7917 Y4.8801 I0 J-0.0625
G1 X3.7917 Y2.6243
G1 X3.7917 Y2.3605
G1 X3.7917 Y0.5007
G2 X3.7292 Y0.4382 I-0.0625 J0
G1 X3.4229 Y0.4382
G1 X3.1393 Y0.4382
G1 X1.2902 Y0.4382
G1 X1.0402 Y0.4382
G1 X0.5007 Y0.4382
G2 X0.4382 Y0.5007 I0 J0.0625
G1 X0.4382 Y0.8757
G2 X0.4479 Y0.9091 I0.0625 J0
G1 X0.6251 Y1.1894
G1 X0.7587 Y1.4007
G1 X2.6843 Y4.446
G1 X2.8179 Y4.6573
G1 X2.9799 Y4.9135
G1 Z-0.2 F20
G2 X3.0327 Y4.9426 I0.0528 J-0.0334 F20
G1 X3.7292 Y4.9426
G2 X3.7917 Y4.8801 I0 J-0.0625
G1 X3.7917 Y2.6243
G1 X3.7917 Y2.3605
G1 X3.7917 Y0.5007
G2 X3.7292 Y0.4382 I-0.0625 J0
G1 X3.4229 Y0.4382
G1 X3.1393 Y0.4382
G1 X1.2902 Y0.4382
G1 X1.0402 Y0.4382
G1 X0.5007 Y0.4382
G2 X0.4382 Y0.5007 I0 J0.0625
G1 X0.4382 Y0.8757
G2 X0.4479 Y0.9091 I0.0625 J0
G1 X0.6251 Y1.1894
G1 X0.7587 Y1.4007
G1 X2.6843 Y4.446
G1 X2.8179 Y4.6573
G1 X2.9799 Y4.9135
G1 Z-0.22 F20
G2 X3.0327 Y4.9426 I0.0528 J-0.0334 F20
G1 X3.7292 Y4.9426
G2 X3.7917 Y4.8801 I0 J-0.0625
G1 X3.7917 Y2.6243
G1 X3.7917 Y2.3605
G1 X3.7917 Y0.5007
G2 X3.7292 Y0.4382 I-0.0625 J0
G1 X3.4229 Y0.4382
G1 X3.1393 Y0.4382
G1 X1.2902 Y0.4382
G1 X1.0402 Y0.4382
G1 X0.5007 Y0.4382
G2 X0.4382 Y0.5007 I0 J0.0625
G1 X0.4382 Y0.8757
G2 X0.4479 Y0.9091 I0.0625 J0
G1 X0.6251 Y1.1894
G1 X0.7587 Y1.4007
G1 X2.6843 Y4.446
G1 X2.8179 Y4.6573
G1 X2.9799 Y4.9135
G1 Z-0.24 F20
G2 X3.0327 Y4.9426 I0.0528 J-0.0334 F20
G1 X3.7292 Y4.9426
G2 X3.7917 Y4.8801 I0 J-0.0625
G1 X3.7917 Y2.6243
G1 X3.7917 Y2.3605
G1 X3.7917 Y0.5007
G2 X3.7292 Y0.4382 I-0.0625 J0
G1 X3.4229 Y0.4382
G1 X3.1393 Y0.4382
G1 X1.2902 Y0.4382
G1 X1.0402 Y0.4382
G1 X0.5007 Y0.4382
G2 X0.4382 Y0.5007 I0 J0.0625
G1 X0.4382 Y0.8757
G2 X0.4479 Y0.9091 I0.0625 J0
G1 X0.6251 Y1.1894
G1 X0.7587 Y1.4007
G1 X2.6843 Y4.446
G1 X2.8179 Y4.6573
G1 X2.9799 Y4.9135
G1 Z-0.26 F20
G2 X3.0327 Y4.9426 I0.0528 J-0.0334 F20
G1 X3.7292 Y4.9426
G2 X3.7917 Y4.8801 I0 J-0.0625
G1 X3.7917 Y2.6243
G1 X3.7917 Y2.3605
G1 X3.7917 Y0.5007
G2 X3.7292 Y0.4382 I-0.0625 J0
G1 X3.4229 Y0.4382
G1 X3.1393 Y0.4382
G1 X1.2902 Y0.4382
G1 X1.0402 Y0.4382
G1 X0.5007 Y0.4382
G2 X0.4382 Y0.5007 I0 J0.0625
G1 X0.4382 Y0.8757
G2 X0.4479 Y0.9091 I0.0625 J0
G1 X0.6251 Y1.1894
G1 X0.7587 Y1.4007
G1 X2.6843 Y4.446
G1 X2.8179 Y4.6573
G1 X2.9799 Y4.9135
G1 Z-0.28 F20
G2 X3.0327 Y4.9426 I0.0528 J-0.0334 F20
G1 X3.7292 Y4.9426
G2 X3.7917 Y4.8801 I0 J-0.0625
G1 X3.7917 Y2.6243
G1 X3.7917 Y2.3605
G1 X3.7917 Y0.5007
G2 X3.7292 Y0.4382 I-0.0625 J0
G1 X3.4229 Y0.4382
G1 X3.1393 Y0.4382
G1 X1.2902 Y0.4382
G1 X1.0402 Y0.4382
G1 X0.5007 Y0.4382
G2 X0.4382 Y0.5007 I0 J0.0625
G1 X0.4382 Y0.8757
G2 X0.4479 Y0.9091 I0.0625 J0
G1 X0.6251 Y1.1894
G1 X0.7587 Y1.4007
G1 X2.6843 Y4.446
G1 X2.8179 Y4.6573
G1 X2.9799 Y4.9135
G1 Z-0.3 F20
G2 X3.0327 Y4.9426 I0.0528 J-0.0334 F20
G1 X3.7292 Y4.9426
G2 X3.7917 Y4.8801 I0 J-0.0625
G1 X3.7917 Y2.6243
G1 X3.7917 Y2.3605
G1 X3.7917 Y0.5007
G2 X3.7292 Y0.4382 I-0.0625 J0
G1 X3.4229 Y0.4382
G1 X3.1393 Y0.4382
G1 X1.2902 Y0.4382
G1 X1.0402 Y0.4382
G1 X0.5007 Y0.4382
G2 X0.4382 Y0.5007 I0 J0.0625
G1 X0.4382 Y0.8757
G2 X0.4479 Y0.9091 I0.0625 J0
G1 X0.6251 Y1.1894
G1 X0.7587 Y1.4007
G1 X2.6843 Y4.446
G1 X2.8179 Y4.6573
G1 X2.9799 Y4.9135
G1 Z-0.32 F20
G2 X3.0327 Y4.9426 I0.0528 J-0.0334 F20
G1 X3.7292 Y4.9426
G2 X3.7917 Y4.8801 I0 J-0.0625
G1 X3.7917 Y2.6243
G1 X3.7917 Y2.3605
G1 X3.7917 Y0.5007
G2 X3.7292 Y0.4382 I-0.0625 J0
G1 X3.4229 Y0.4382
G1 X3.1393 Y0.4382
G1 X1.2902 Y0.4382
G1 X1.0402 Y0.4382
G1 X0.5007 Y0.4382
G2 X0.4382 Y0.5007 I0 J0.0625
G1 X0.4382 Y0.8757
G2 X0.4479 Y0.9091 I0.0625 J0
G1 X0.6251 Y1.1894
G1 X0.7587 Y1.4007
G1 X2.6843 Y4.446
G1 X2.8179 Y4.6573
G1 X2.9799 Y4.9135
G1 Z-0.34 F20
G2 X3.0327 Y4.9426 I0.0528 J-0.0334 F20
G1 X3.7292 Y4.9426
G2 X3.7917 Y4.8801 I0 J-0.0625
G1 X3.7917 Y2.6243
G1 X3.7917 Y2.3605
G1 X3.7917 Y0.5007
G2 X3.7292 Y0.4382 I-0.0625 J0
G1 X3.4229 Y0.4382
G1 X3.1393 Y0.4382
G1 X1.2902 Y0.4382
G1 X1.0402 Y0.4382
G1 X0.5007 Y0.4382
G2 X0.4382 Y0.5007 I0 J0.0625
G1 X0.4382 Y0.8757
G2 X0.4479 Y0.9091 I0.0625 J0
G1 X0.6251 Y1.1894
G1 X0.7587 Y1.4007
G1 X2.6843 Y4.446
G1 X2.8179 Y4.6573
G1 X2.9799 Y4.9135
G1 Z-0.36 F20
G2 X3.0327 Y4.9426 I0.0528 J-0.0334 F20
G1 X3.7292 Y4.9426
G2 X3.7917 Y4.8801 I0 J-0.0625
G1 X3.7917 Y2.6243
G1 X3.7917 Y2.3605
G1 X3.7917 Y0.5007
G2 X3.7292 Y0.4382 I-0.0625 J0
G1 X3.4229 Y0.4382
G1 X3.1393 Y0.4382
G1 X1.2902 Y0.4382
G1 X1.0402 Y0.4382
G1 X0.5007 Y0.4382
G2 X0.4382 Y0.5007 I0 J0.0625
G1 X0.4382 Y0.8757
G2 X0.4479 Y0.9091 I0.0625 J0
G1 X0.6251 Y1.1894
G1 X0.7587 Y1.4007
G1 X2.6843 Y4.446
G1 X2.8179 Y4.6573
G1 X2.9799 Y4.9135
G1 Z-0.38 F20
G2 X3.0327 Y4.9426 I0.0528 J-0.0334 F20
G1 X3.7292 Y4.9426
G2 X3.7917 Y4.8801 I0 J-0.0625
G1 X3.7917 Y2.6243
G1 X3.7917 Y2.3605
G1 X3.7917 Y0.5007
G2 X3.7292 Y0.4382 I-0.0625 J0
G1 X3.4229 Y0.4382
G1 X3.1393 Y0.4382
G1 X1.2902 Y0.4382
G1 X1.0402 Y0.4382
G1 X0.5007 Y0.4382
G2 X0.4382 Y0.5007 I0 J0.0625
G1 X0.4382 Y0.8757
G2 X0.4479 Y0.9091 I0.0625 J0
G1 X0.6251 Y1.1894
G1 X0.7587 Y1.4007
G1 X2.6843 Y4.446
G1 X2.8179 Y4.6573
G1 X2.9799 Y4.9135
G1 Z-0.4 F20
G2 X3.0327 Y4.9426 I0.0528 J-0.0334 F20
G1 X3.7292 Y4.9426
G2 X3.7917 Y4.8801 I0 J-0.0625
G1 X3.7917 Y2.6243
G1 X3.7917 Y2.3605
G1 X3.7917 Y0.5007
G2 X3.7292 Y0.4382 I-0.0625 J0
G1 X3.4229 Y0.4382
G1 X3.1393 Y0.4382
G1 X1.2902 Y0.4382
G1 X1.0402 Y0.4382
G1 X0.5007 Y0.4382
G2 X0.4382 Y0.5007 I0 J0.0625
G1 X0.4382 Y0.8757
G2 X0.4479 Y0.9091 I0.0625 J0
G1 X0.6251 Y1.1894
G1 X0.7587 Y1.4007
G1 X2.6843 Y4.446
G1 X2.8179 Y4.6573
G1 X2.9799 Y4.9135
G1 Z-0.42 F20
G2 X3.0327 Y4.9426 I0.0528 J-0.0334 F20
G1 X3.7292 Y4.9426
G2 X3.7917 Y4.8801 I0 J-0.0625
G1 X3.7917 Y2.6243
G1 X3.7917 Y2.3605
G1 X3.7917 Y0.5007
G2 X3.7292 Y0.4382 I-0.0625 J0
G1 X3.4229 Y0.4382
G1 X3.1393 Y0.4382
G1 X1.2902 Y0.4382
G1 X1.0402 Y0.4382
G1 X0.5007 Y0.4382
G2 X0.4382 Y0.5007 I0 J0.0625
G1 X0.4382 Y0.8757
G2 X0.4479 Y0.9091 I0.0625 J0
G1 X0.6251 Y1.1894
G1 X0.7587 Y1.4007
G1 X2.6843 Y4.446
G1 X2.8179 Y4.6573
G1 X2.9799 Y4.9135
G1 Z-0.44 F20
G2 X3.0327 Y4.9426 I0.0528 J-0.0334 F20
G1 X3.7292 Y4.9426
G2 X3.7917 Y4.8801 I0 J-0.0625
G1 X3.7917 Y2.6243
G1 X3.7917 Y2.3605
G1 X3.7917 Y0.5007
G2 X3.7292 Y0.4382 I-0.0625 J0
G1 X3.4229 Y0.4382
G1 X3.1393 Y0.4382
G1 X1.2902 Y0.4382
G1 X1.0402 Y0.4382
G1 X0.5007 Y0.4382
G2 X0.4382 Y0.5007 I0 J0.0625
G1 X0.4382 Y0.8757
G2 X0.4479 Y0.9091 I0.0625 J0
G1 X0.6251 Y1.1894
G1 X0.7587 Y1.4007
G1 X2.6843 Y4.446
G1 X2.8179 Y4.6573
G1 X2.9799 Y4.9135
G1 Z-0.46 F20
G2 X3.0327 Y4.9426 I0.0528 J-0.0334 F20
G1 X3.7292 Y4.9426
G2 X3.7917 Y4.8801 I0 J-0.0625
G1 X3.7917 Y2.6243
G1 X3.7917 Y2.3605
G1 X3.7917 Y0.5007
G2 X3.7292 Y0.4382 I-0.0625 J0
G1 X3.4229 Y0.4382
G1 X3.1393 Y0.4382
G1 X1.2902 Y0.4382
G1 X1.0402 Y0.4382
G1 X0.5007 Y0.4382
G2 X0.4382 Y0.5007 I0 J0.0625
G1 X0.4382 Y0.8757
G2 X0.4479 Y0.9091 I0.0625 J0
G1 X0.6251 Y1.1894
G1 X0.7587 Y1.4007
G1 X2.6843 Y4.446
G1 X2.8179 Y4.6573
G1 X2.9799 Y4.9135
G1 Z-0.48 F20
G2 X3.0327 Y4.9426 I0.0528 J-0.0334 F20
G1 X3.7292 Y4.9426
G2 X3.7917 Y4.8801 I0 J-0.0625
G1 X3.7917 Y2.6243
G1 X3.7917 Y2.3605
G1 X3.7917 Y0.5007
G2 X3.7292 Y0.4382 I-0.0625 J0
G1 X3.4229 Y0.4382
G1 X3.1393 Y0.4382
G1 X1.2902 Y0.4382
G1 X1.0402 Y0.4382
G1 X0.5007 Y0.4382
G2 X0.4382 Y0.5007 I0 J0.0625
G1 X0.4382 Y0.8757
G2 X0.4479 Y0.9091 I0.0625 J0
G1 X0.6251 Y1.1894
G1 X0.7587 Y1.4007
G1 X2.6843 Y4.446
G1 X2.8179 Y4.6573
G1 X2.9799 Y4.9135
G1 Z-0.5 F20
G2 X3.0327 Y4.9426 I0.0528 J-0.0334 F20
G1 X3.7292 Y4.9426
G2 X3.7917 Y4.8801 I0 J-0.0625
G1 X3.7917 Y2.6243
G1 X3.7917 Y2.3605
G1 X3.7917 Y0.5007
G2 X3.7292 Y0.4382 I-0.0625 J0
G1 X3.4229 Y0.4382
G1 X3.1393 Y0.4382
G1 X1.2902 Y0.4382
G1 X1.0402 Y0.4382
G1 X0.5007 Y0.4382
G2 X0.4382 Y0.5007 I0 J0.0625
G1 X0.4382 Y0.8757
G2 X0.4479 Y0.9091 I0.0625 J0
G1 X0.6251 Y1.1894
G1 X0.7587 Y1.4007
G1 X2.6843 Y4.446
G1 X2.8179 Y4.6573
G1 X2.9799 Y4.9135
G1 Z-0.52 F20
G2 X3.0327 Y4.9426 I0.0528 J-0.0334 F20
G1 X3.7292 Y4.9426
G2 X3.7917 Y4.8801 I0 J-0.0625
G1 X3.7917 Y2.6243
G1 X3.7917 Y2.3605
G1 X3.7917 Y0.5007
G2 X3.7292 Y0.4382 I-0.0625 J0
G1 X3.4229 Y0.4382
G1 X3.1393 Y0.4382
G1 X1.2902 Y0.4382
G1 X1.0402 Y0.4382
G1 X0.5007 Y0.4382
G2 X0.4382 Y0.5007 I0 J0.0625
G1 X0.4382 Y0.8757
G2 X0.4479 Y0.9091 I0.0625 J0
G1 X0.6251 Y1.1894
G1 X0.7587 Y1.4007
G1 X2.6843 Y4.446
G1 X2.8179 Y4.6573
G1 X2.9799 Y4.9135
G1 Z-0.54 F20
G2 X3.0327 Y4.9426 I0.0528 J-0.0334 F20
G1 X3.7292 Y4.9426
G2 X3.7917 Y4.8801 I0 J-0.0625
G1 X3.7917 Y2.6243
G1 X3.7917 Y2.3605
G1 X3.7917 Y0.5007
G2 X3.7292 Y0.4382 I-0.0625 J0
G1 X3.4229 Y0.4382
G1 X3.1393 Y0.4382
G1 X1.2902 Y0.4382
G1 X1.0402 Y0.4382
G1 X0.5007 Y0.4382
G2 X0.4382 Y0.5007 I0 J0.0625
G1 X0.4382 Y0.8757
G2 X0.4479 Y0.9091 I0.0625 J0
G1 X0.6251 Y1.1894
G1 X0.7587 Y1.4007
G1 X2.6843 Y4.446
G1 X2.8179 Y4.6573
G1 X2.9799 Y4.9135
G1 Z-0.56 F20
G2 X3.0327 Y4.9426 I0.0528 J-0.0334 F20
G1 X3.7292 Y4.9426
G2 X3.7917 Y4.8801 I0 J-0.0625
G1 X3.7917 Y2.6243
G1 X3.7917 Y2.3605
G1 X3.7917 Y0.5007
G2 X3.7292 Y0.4382 I-0.0625 J0
G1 X3.4229 Y0.4382
G1 X3.1393 Y0.4382
G1 X1.2902 Y0.4382
G1 X1.0402 Y0.4382
G1 X0.5007 Y0.4382
G2 X0.4382 Y0.5007 I0 J0.0625
G1 X0.4382 Y0.8757
G2 X0.4479 Y0.9091 I0.0625 J0
G1 X0.6251 Y1.1894
G1 X0.7587 Y1.4007
G1 X2.6843 Y4.446
G1 X2.8179 Y4.6573
G1 X2.9799 Y4.9135
G1 Z-0.58 F20
G2 X3.0327 Y4.9426 I0.0528 J-0.0334 F20
G1 X3.7292 Y4.9426
G2 X3.7917 Y4.8801 I0 J-0.0625
G1 X3.7917 Y2.6243
G1 X3.7917 Y2.3605
G1 X3.7917 Y0.5007
G2 X3.7292 Y0.4382 I-0.0625 J0
G1 X3.4229 Y0.4382
G1 X3.1393 Y0.4382
G1 X1.2902 Y0.4382
G1 X1.0402 Y0.4382
G1 X0.5007 Y0.4382
G2 X0.4382 Y0.5007 I0 J0.0625
G1 X0.4382 Y0.8757
G2 X0.4479 Y0.9091 I0.0625 J0
G1 X0.6251 Y1.1894
G1 X0.7587 Y1.4007
G1 X2.6843 Y4.446
G1 X2.8179 Y4.6573
G1 X2.9799 Y4.9135
G1 Z-0.6 F20
G2 X3.0327 Y4.9426 I0.0528 J-0.0334 F20
G1 X3.7292 Y4.9426
G2 X3.7917 Y4.8801 I0 J-0.0625
G1 X3.7917 Y2.6243
G1 X3.7917 Y2.3605
G1 X3.7917 Y0.5007
G2 X3.7292 Y0.4382 I-0.0625 J0
G1 X3.4229 Y0.4382
G1 X3.1393 Y0.4382
G1 X1.2902 Y0.4382
G1 X1.0402 Y0.4382
G1 X0.5007 Y0.4382
G2 X0.4382 Y0.5007 I0 J0.0625
G1 X0.4382 Y0.8757
G2 X0.4479 Y0.9091 I0.0625 J0
G1 X0.6251 Y1.1894
G1 X0.7587 Y1.4007
G1 X2.6843 Y4.446
G1 X2.8179 Y4.6573
G1 X2.9799 Y4.9135
G1 Z-0.62 F20
G2 X3.0327 Y4.9426 I0.0528 J-0.0334 F20
G1 X3.7292 Y4.9426
G2 X3.7917 Y4.8801 I0 J-0.0625
G1 X3.7917 Y2.6243
G1 X3.7917 Y2.3605
G1 X3.7917 Y0.5007
G2 X3.7292 Y0.4382 I-0.0625 J0
G1 X3.4229 Y0.4382
G1 X3.1393 Y0.4382
G1 X1.2902 Y0.4382
G1 X1.0402 Y0.4382
G1 X0.5007 Y0.4382
G2 X0.4382 Y0.5007 I0 J0.0625
G1 X0.4382 Y0.8757
G2 X0.4479 Y0.9091 I0.0625 J0
G1 X0.6251 Y1.1894
G1 X0.7587 Y1.4007
G1 X2.6843 Y4.446
G1 X2.8179 Y4.6573
G1 X2.9799 Y4.9135
G1 Z-0.64 F20
G2 X3.0327 Y4.9426 I0.0528 J-0.0334 F20
G1 X3.7292 Y4.9426
G2 X3.7917 Y4.8801 I0 J-0.0625
G1 X3.7917 Y2.6243
G1 X3.7917 Y2.3605
G1 X3.7917 Y0.5007
G2 X3.7292 Y0.4382 I-0.0625 J0
G1 X3.4229 Y0.4382
G1 X3.1393 Y0.4382
G1 X1.2902 Y0.4382
G1 X1.0402 Y0.4382
G1 X0.5007 Y0.4382
G2 X0.4382 Y0.5007 I0 J0.0625
G1 X0.4382 Y0.8757
G2 X0.4479 Y0.9091 I0.0625 J0
G1 X0.6251 Y1.1894
G1 X0.7587 Y1.4007
G1 X2.6843 Y4.446
G1 X2.8179 Y4.6573
G1 X2.9799 Y4.9135
G1 Z-0.66 F20
G2 X3.0327 Y4.9426 I0.0528 J-0.0334 F20
G1 X3.7292 Y4.9426
G2 X3.7917 Y4.8801 I0 J-0.0625
G1 X3.7917 Y2.6243
G1 X3.7917 Y2.3605
G1 X3.7917 Y0.5007
G2 X3.7292 Y0.4382 I-0.0625 J0
G1 X3.4229 Y0.4382
G1 X3.1393 Y0.4382
G1 X1.2902 Y0.4382
G1 X1.0402 Y0.4382
G1 X0.5007 Y0.4382
G2 X0.4382 Y0.5007 I0 J0.0625
G1 X0.4382 Y0.8757
G2 X0.4479 Y0.9091 I0.0625 J0
G1 X0.6251 Y1.1894
G1 X0.7587 Y1.4007
G1 X2.6843 Y4.446
G1 X2.8179 Y4.6573
G1 X2.9799 Y4.9135
G1 Z-0.68 F20
G2 X3.0327 Y4.9426 I0.0528 J-0.0334 F20
G1 X3.7292 Y4.9426
G2 X3.7917 Y4.8801 I0 J-0.0625
G1 X3.7917 Y2.6243
G1 X3.7917 Y2.3605
G1 X3.7917 Y0.5007
G2 X3.7292 Y0.4382 I-0.0625 J0
G1 X3.4229 Y0.4382
G1 X3.1393 Y0.4382
G1 X1.2902 Y0.4382
G1 X1.0402 Y0.4382
G1 X0.5007 Y0.4382
G2 X0.4382 Y0.5007 I0 J0.0625
G1 X0.4382 Y0.8757
G2 X0.4479 Y0.9091 I0.0625 J0
G1 X0.6251 Y1.1894
G1 X0.7587 Y1.4007
G1 X2.6843 Y4.446
G1 X2.8179 Y4.6573
G1 X2.9799 Y4.9135
G1 Z-0.7 F20
G2 X3.0327 Y4.9426 I0.0528 J-0.0334 F20
G1 X3.7292 Y4.9426
G2 X3.7917 Y4.8801 I0 J-0.0625
G1 X3.7917 Y2.6243
G1 Z-0.68 F20
G1 X3.7917 Y2.3605 F20
G1 Z-0.7 F20
G1 X3.7917 Y0.5007 F20
G2 X3.7292 Y0.4382 I-0.0625 J0
G1 X3.4229 Y0.4382
G1 Z-0.68 F20
G1 X3.1393 Y0.4382 F20
G1 Z-0.7 F20
G1 X1.2902 Y0.4382 F20
G1 Z-0.68 F20
G1 X1.0402 Y0.4382 F20
G1 Z-0.7 F20
G1 X0.5007 Y0.4382 F20
G2 X0.4382 Y0.5007 I0 J0.0625
G1 X0.4382 Y0.8757
G2 X0.4479 Y0.9091 I0.0625 J0
G1 X0.6251 Y1.1894
G1 Z-0.68 F20
G1 X0.7587 Y1.4007 F20
G1 Z-0.7 F20
G1 X2.6843 Y4.446 F20
G1 Z-0.68 F20
G1 X2.8179 Y4.6573 F20
G1 Z-0.7 F20
G1 X2.9799 Y4.9135 F20
G1 Z-0.72 F20
G2 X3.0327 Y4.9426 I0.0528 J-0.0334 F20
G1 X3.7292 Y4.9426
G2 X3.7917 Y4.8801 I0 J-0.0625
G1 X3.7917 Y2.6243
G1 Z-0.68 F20
G1 X3.7917 Y2.3605 F20
G1 Z-0.72 F20
G1 X3.7917 Y0.5007 F20
G2 X3.7292 Y0.4382 I-0.0625 J0
G1 X3.4229 Y0.4382
G1 Z-0.68 F20
G1 X3.1393 Y0.4382 F20
G1 Z-0.72 F20
G1 X1.2902 Y0.4382 F20
G1 Z-0.68 F20
G1 X1.0402 Y0.4382 F20
G1 Z-0.72 F20
G1 X0.5007 Y0.4382 F20
G2 X0.4382 Y0.5007 I0 J0.0625
G1 X0.4382 Y0.8757
G2 X0.4479 Y0.9091 I0.0625 J0
G1 X0.6251 Y1.1894
G1 Z-0.68 F20
G1 X0.7587 Y1.4007 F20
G1 Z-0.72 F20
G1 X2.6843 Y4.446 F20
G1 Z-0.68 F20
G1 X2.8179 Y4.6573 F20
G1 Z-0.72 F20
G1 X2.9799 Y4.9135 F20
G1 Z-0.74 F20
G2 X3.0327 Y4.9426 I0.0528 J-0.0334 F20
G1 X3.7292 Y4.9426
G2 X3.7917 Y4.8801 I0 J-0.0625
G1 X3.7917 Y2.6243
G1 Z-0.68 F20
G1 X3.7917 Y2.3605 F20
G1 Z-0.74 F20
G1 X3.7917 Y0.5007 F20
G2 X3.7292 Y0.4382 I-0.0625 J0
G1 X3.4229 Y0.4382
G1 Z-0.68 F20
G1 X3.1393 Y0.4382 F20
G1 Z-0.74 F20
G1 X1.2902 Y0.4382 F20
G1 Z-0.68 F20
G1 X1.0402 Y0.4382 F20
G1 Z-0.74 F20
G1 X0.5007 Y0.4382 F20
G2 X0.4382 Y0.5007 I0 J0.0625
G1 X0.4382 Y0.8757
G2 X0.4479 Y0.9091 I0.0625 J0
G1 X0.6251 Y1.1894
G1 Z-0.68 F20
G1 X0.7587 Y1.4007 F20
