(Generated by PartKam Version 0.05)

G20 G90 G40

(drill 1-2)
G0 Z0.25
T0 M6
G17
M3
G0 X0.9316 Y0.7497
G1 Z-0.05 F20
G1 Z0 F20
G1 Z-0.1 F20
G1 Z0 F20
G1 Z-0.15 F20
G1 Z0 F20
G1 Z-0.2 F20
G1 Z0 F20
G1 Z-0.25 F20
G1 Z0 F20
G1 Z-0.3 F20
G1 Z0 F20
G1 Z-0.35 F20
G1 Z0 F20
G1 Z-0.4 F20
G1 Z0 F20
G1 Z-0.45 F20
G1 Z0 F20
G1 Z-0.5 F20
G1 Z0 F20
G1 Z-0.55 F20
G1 Z0 F20

(drill 1-4)
G0 Z0.25
G0 X2.2459 Y0.75
G1 Z-0.05 F20
G1 Z0 F20
G1 Z-0.1 F20
G1 Z0 F20
G1 Z-0.15 F20
G1 Z0 F20
G1 Z-0.2 F20
G1 Z0 F20
G1 Z-0.25 F20
G1 Z0 F20
G1 Z-0.3 F20
G1 Z0 F20
G1 Z-0.35 F20
G1 Z0 F20
G1 Z-0.4 F20
G1 Z0 F20
G1 Z-0.45 F20
G1 Z0 F20
G1 Z-0.5 F20
G1 Z0 F20
G1 Z-0.55 F20
G1 Z0 F20

(drill 1-3)
G0 Z0.25
G0 X3.5445 Y0.7497
G1 Z-0.05 F20
G1 Z0 F20
G1 Z-0.1 F20
G1 Z0 F20
G1 Z-0.15 F20
G1 Z0 F20
G1 Z-0.2 F20
G1 Z0 F20
G1 Z-0.25 F20
G1 Z0 F20
G1 Z-0.3 F20
G1 Z0 F20
G1 Z-0.35 F20
G1 Z0 F20
G1 Z-0.4 F20
G1 Z0 F20
G1 Z-0.45 F20
G1 Z0 F20
G1 Z-0.5 F20
G1 Z0 F20
G1 Z-0.55 F20
G1 Z0 F20

(drill 1-1)
G0 Z0.25
G0 X1.4049 Y3.6636
G1 Z-0.05 F20
G1 Z0 F20
G1 Z-0.1 F20
G1 Z0 F20
G1 Z-0.15 F20
G1 Z0 F20
G1 Z-0.2 F20
G1 Z0 F20
G1 Z-0.25 F20
G1 Z0 F20
G1 Z-0.3 F20
G1 Z0 F20
G1 Z-0.35 F20
G1 Z0 F20
G1 Z-0.4 F20
G1 Z0 F20
G1 Z-0.45 F20
G1 Z0 F20
G1 Z-0.5 F20
G1 Z0 F20
G1 Z-0.55 F20
G1 Z0 F20

(drill 1-0)
G0 Z0.25
G0 X3.0313 Y1.8886
G1 Z-0.05 F20
G1 Z0 F20
G1 Z-0.1 F20
G1 Z0 F20
G1 Z-0.15 F20
G1 Z0 F20
G1 Z-0.2 F20
G1 Z0 F20
G1 Z-0.25 F20
G1 Z0 F20
G1 Z-0.3 F20
G1 Z0 F20
G1 Z-0.35 F20
G1 Z0 F20
G1 Z-0.4 F20
G1 Z0 F20
G1 Z-0.45 F20
G1 Z0 F20
G1 Z-0.5 F20
G1 Z0 F20
G1 Z-0.55 F20
G1 Z0 F20

(pocket 6-0)
G0 Z0.25
G0 X3.8243 Y0.8293
G1 Z-0.02 F25
G1 X0.6757 Y0.8293 F25
G1 X0.6757 Y0.6757
G1 X3.8243 Y0.6757
G1 X3.8243 Y0.8293
G1 X3.9368 Y0.9418 F25
G1 X0.5632 Y0.9418 F25
G1 X0.5632 Y0.5632
G1 X3.9368 Y0.5632
G1 X3.9368 Y0.9418
G0 Z0.25
G0 X3.8243 Y0.8293
G1 Z-0.04 F25
G1 X0.6757 Y0.8293 F25
G1 X0.6757 Y0.6757
G1 X3.8243 Y0.6757
G1 X3.8243 Y0.8293
G1 X3.9368 Y0.9418 F25
G1 X0.5632 Y0.9418 F25
G1 X0.5632 Y0.5632
G1 X3.9368 Y0.5632
G1 X3.9368 Y0.9418
G0 Z0.25
G0 X3.8243 Y0.8293
G1 Z-0.06 F25
G1 X0.6757 Y0.8293 F25
G1 X0.6757 Y0.6757
G1 X3.8243 Y0.6757
G1 X3.8243 Y0.8293
G1 X3.9368 Y0.9418 F25
G1 X0.5632 Y0.9418 F25
G1 X0.5632 Y0.5632
G1 X3.9368 Y0.5632
G1 X3.9368 Y0.9418
G0 Z0.25
G0 X3.8243 Y0.8293
G1 Z-0.08 F25
G1 X0.6757 Y0.8293 F25
G1 X0.6757 Y0.6757
G1 X3.8243 Y0.6757
G1 X3.8243 Y0.8293
G1 X3.9368 Y0.9418 F25
G1 X0.5632 Y0.9418 F25
G1 X0.5632 Y0.5632
G1 X3.9368 Y0.5632
G1 X3.9368 Y0.9418
G0 Z0.25
G0 X3.8243 Y0.8293
G1 Z-0.1 F25
G1 X0.6757 Y0.8293 F25
G1 X0.6757 Y0.6757
G1 X3.8243 Y0.6757
G1 X3.8243 Y0.8293
G1 X3.9368 Y0.9418 F25
G1 X0.5632 Y0.9418 F25
G1 X0.5632 Y0.5632
G1 X3.9368 Y0.5632
G1 X3.9368 Y0.9418
G0 Z0.25
G0 X3.8243 Y0.8293
G1 Z-0.12 F25
G1 X0.6757 Y0.8293 F25
G1 X0.6757 Y0.6757
G1 X3.8243 Y0.6757
G1 X3.8243 Y0.8293
G1 X3.9368 Y0.9418 F25
G1 X0.5632 Y0.9418 F25
G1 X0.5632 Y0.5632
G1 X3.9368 Y0.5632
G1 X3.9368 Y0.9418
G0 Z0.25
G0 X3.8243 Y0.8293
G1 Z-0.14 F25
G1 X0.6757 Y0.8293 F25
G1 X0.6757 Y0.6757
G1 X3.8243 Y0.6757
G1 X3.8243 Y0.8293
G1 X3.9368 Y0.9418 F25
G1 X0.5632 Y0.9418 F25
G1 X0.5632 Y0.5632
G1 X3.9368 Y0.5632
G1 X3.9368 Y0.9418
G0 Z0.25
G0 X3.8243 Y0.8293
G1 Z-0.16 F25
G1 X0.6757 Y0.8293 F25
G1 X0.6757 Y0.6757
G1 X3.8243 Y0.6757
G1 X3.8243 Y0.8293
G1 X3.9368 Y0.9418 F25
G1 X0.5632 Y0.9418 F25
G1 X0.5632 Y0.5632
G1 X3.9368 Y0.5632
G1 X3.9368 Y0.9418
G0 Z0.25
G0 X3.8243 Y0.8293
G1 Z-0.18 F25
G1 X0.6757 Y0.8293 F25
G1 X0.6757 Y0.6757
G1 X3.8243 Y0.6757
G1 X3.8243 Y0.8293
G1 X3.9368 Y0.9418 F25
G1 X0.5632 Y0.9418 F25
G1 X0.5632 Y0.5632
G1 X3.9368 Y0.5632
G1 X3.9368 Y0.9418
G0 Z0.25
G0 X3.8243 Y0.8293
G1 Z-0.2 F25
G1 X0.6757 Y0.8293 F25
G1 X0.6757 Y0.6757
G1 X3.8243 Y0.6757
G1 X3.8243 Y0.8293
G1 X3.9368 Y0.9418 F25
G1 X0.5632 Y0.9418 F25
G1 X0.5632 Y0.5632
G1 X3.9368 Y0.5632
G1 X3.9368 Y0.9418
G0 Z0.25
G0 X3.8243 Y0.8293
G1 Z-0.22 F25
G1 X0.6757 Y0.8293 F25
G1 X0.6757 Y0.6757
G1 X3.8243 Y0.6757
G1 X3.8243 Y0.8293
G1 X3.9368 Y0.9418 F25
G1 X0.5632 Y0.9418 F25
G1 X0.5632 Y0.5632
G1 X3.9368 Y0.5632
G1 X3.9368 Y0.9418
G0 Z0.25
G0 X3.8243 Y0.8293
G1 Z-0.24 F25
G1 X0.6757 Y0.8293 F25
G1 X0.6757 Y0.6757
G1 X3.8243 Y0.6757
G1 X3.8243 Y0.8293
G1 X3.9368 Y0.9418 F25
G1 X0.5632 Y0.9418 F25
G1 X0.5632 Y0.5632
G1 X3.9368 Y0.5632
G1 X3.9368 Y0.9418
G0 Z0.25
G0 X3.8243 Y0.8293
G1 Z-0.25 F25
G1 X0.6757 Y0.8293 F25
G1 X0.6757 Y0.6757
G1 X3.8243 Y0.6757
G1 X3.8243 Y0.8293
G1 X3.9368 Y0.9418 F25
G1 X0.5632 Y0.9418 F25
G1 X0.5632 Y0.5632
G1 X3.9368 Y0.5632
G1 X3.9368 Y0.9418

(profile 7-0)
G0 Z0.25
G0 X0.5691 Y4.7811
G1 Z-0.02 F25
G2 X0.6316 Y4.8436 I0.0625 J0 F25
G1 X1.9495 Y4.8436
G1 X2.1995 Y4.8436
G1 X3.8601 Y4.8436
G2 X3.9226 Y4.7811 I0 J-0.0625
G1 X3.9226 Y4.2059
G1 X3.9226 Y3.9559
G1 X3.9226 Y1.612
G1 X3.9226 Y1.362
G1 X3.9226 Y0.5007
G2 X3.8601 Y0.4382 I-0.0625 J0
G1 X2.3882 Y0.4382
G1 X2.1382 Y0.4382
G1 X0.6316 Y0.4382
G2 X0.5691 Y0.5007 I0 J0.0625
G1 X0.5691 Y1.3706
G1 X0.5691 Y1.6206
G1 X0.5691 Y3.9626
G1 X0.5691 Y4.2126
G1 X0.5691 Y4.7811
G1 Z-0.04 F25
G2 X0.6316 Y4.8436 I0.0625 J0 F25
G1 X1.9495 Y4.8436
G1 X2.1995 Y4.8436
G1 X3.8601 Y4.8436
G2 X3.9226 Y4.7811 I0 J-0.0625
G1 X3.9226 Y4.2059
G1 X3.9226 Y3.9559
G1 X3.9226 Y1.612
G1 X3.9226 Y1.362
G1 X3.9226 Y0.5007
G2 X3.8601 Y0.4382 I-0.0625 J0
G1 X2.3882 Y0.4382
G1 X2.1382 Y0.4382
G1 X0.6316 Y0.4382
G2 X0.5691 Y0.5007 I0 J0.0625
G1 X0.5691 Y1.3706
G1 X0.5691 Y1.6206
G1 X0.5691 Y3.9626
G1 X0.5691 Y4.2126
G1 X0.5691 Y4.7811
G1 Z-0.06 F25
G2 X0.6316 Y4.8436 I0.0625 J0 F25
G1 X1.9495 Y4.8436
G1 X2.1995 Y4.8436
G1 X3.8601 Y4.8436
G2 X3.9226 Y4.7811 I0 J-0.0625
G1 X3.9226 Y4.2059
G1 X3.9226 Y3.9559
G1 X3.9226 Y1.612
G1 X3.9226 Y1.362
G1 X3.9226 Y0.5007
G2 X3.8601 Y0.4382 I-0.0625 J0
G1 X2.3882 Y0.4382
G1 X2.1382 Y0.4382
G1 X0.6316 Y0.4382
G2 X0.5691 Y0.5007 I0 J0.0625
G1 X0.5691 Y1.3706
G1 X0.5691 Y1.6206
G1 X0.5691 Y3.9626
G1 X0.5691 Y4.2126
G1 X0.5691 Y4.7811
G1 Z-0.08 F25
G2 X0.6316 Y4.8436 I0.0625 J0 F25
G1 X1.9495 Y4.8436
G1 X2.1995 Y4.8436
G1 X3.8601 Y4.8436
G2 X3.9226 Y4.7811 I0 J-0.0625
G1 X3.9226 Y4.2059
G1 X3.9226 Y3.9559
G1 X3.9226 Y1.612
G1 X3.9226 Y1.362
G1 X3.9226 Y0.5007
G2 X3.8601 Y0.4382 I-0.0625 J0
G1 X2.3882 Y0.4382
G1 X2.1382 Y0.4382
G1 X0.6316 Y0.4382
G2 X0.5691 Y0.5007 I0 J0.0625
G1 X0.5691 Y1.3706
G1 X0.5691 Y1.6206
G1 X0.5691 Y3.9626
G1 X0.5691 Y4.2126
G1 X0.5691 Y4.7811
G1 Z-0.1 F25
G2 X0.6316 Y4.8436 I0.0625 J0 F25
G1 X1.9495 Y4.8436
G1 X2.1995 Y4.8436
G1 X3.8601 Y4.8436
G2 X3.9226 Y4.7811 I0 J-0.0625
G1 X3.9226 Y4.2059
G1 X3.9226 Y3.9559
G1 X3.9226 Y1.612
G1 X3.9226 Y1.362
G1 X3.9226 Y0.5007
G2 X3.8601 Y0.4382 I-0.0625 J0
G1 X2.3882 Y0.4382
G1 X2.1382 Y0.4382
G1 X0.6316 Y0.4382
G2 X0.5691 Y0.5007 I0 J0.0625
G1 X0.5691 Y1.3706
G1 X0.5691 Y1.6206
G1 X0.5691 Y3.9626
G1 X0.5691 Y4.2126
G1 X0.5691 Y4.7811
G1 Z-0.12 F25
G2 X0.6316 Y4.8436 I0.0625 J0 F25
G1 X1.9495 Y4.8436
G1 X2.1995 Y4.8436
G1 X3.8601 Y4.8436
G2 X3.9226 Y4.7811 I0 J-0.0625
G1 X3.9226 Y4.2059
G1 X3.9226 Y3.9559
G1 X3.9226 Y1.612
G1 X3.9226 Y1.362
G1 X3.9226 Y0.5007
G2 X3.8601 Y0.4382 I-0.0625 J0
G1 X2.3882 Y0.4382
G1 X2.1382 Y0.4382
G1 X0.6316 Y0.4382
G2 X0.5691 Y0.5007 I0 J0.0625
G1 X0.5691 Y1.3706
G1 X0.5691 Y1.6206
G1 X0.5691 Y3.9626
G1 X0.5691 Y4.2126
G1 X0.5691 Y4.7811
G1 Z-0.14 F25
G2 X0.6316 Y4.8436 I0.0625 J0 F25
G1 X1.9495 Y4.8436
G1 X2.1995 Y4.8436
G1 X3.8601 Y4.8436
G2 X3.9226 Y4.7811 I0 J-0.0625
G1 X3.9226 Y4.2059
G1 X3.9226 Y3.9559
G1 X3.9226 Y1.612
G1 X3.9226 Y1.362
G1 X3.9226 Y0.5007
G2 X3.8601 Y0.4382 I-0.0625 J0
G1 X2.3882 Y0.4382
G1 X2.1382 Y0.4382
G1 X0.6316 Y0.4382
G2 X0.5691 Y0.5007 I0 J0.0625
G1 X0.5691 Y1.3706
G1 X0.5691 Y1.6206
G1 X0.5691 Y3.9626
G1 X0.5691 Y4.2126
G1 X0.5691 Y4.7811
G1 Z-0.16 F25
G2 X0.6316 Y4.8436 I0.0625 J0 F25
G1 X1.9495 Y4.8436
G1 X2.1995 Y4.8436
G1 X3.8601 Y4.8436
G2 X3.9226 Y4.7811 I0 J-0.0625
G1 X3.9226 Y4.2059
G1 X3.9226 Y3.9559
G1 X3.9226 Y1.612
G1 X3.9226 Y1.362
G1 X3.9226 Y0.5007
G2 X3.8601 Y0.4382 I-0.0625 J0
G1 X2.3882 Y0.4382
G1 X2.1382 Y0.4382
G1 X0.6316 Y0.4382
G2 X0.5691 Y0.5007 I0 J0.0625
G1 X0.5691 Y1.3706
G1 X0.5691 Y1.6206
G1 X0.5691 Y3.9626
G1 X0.5691 Y4.2126
G1 X0.5691 Y4.7811
G1 Z-0.18 F25
G2 X0.6316 Y4.8436 I0.0625 J0 F25
G1 X1.9495 Y4.8436
G1 X2.1995 Y4.8436
G1 X3.8601 Y4.8436
G2 X3.9226 Y4.7811 I0 J-0.0625
G1 X3.9226 Y4.2059
G1 X3.9226 Y3.9559
G1 X3.9226 Y1.612
G1 X3.9226 Y1.362
G1 X3.9226 Y0.5007
G2 X3.8601 Y0.4382 I-0.0625 J0
G1 X2.3882 Y0.4382
G1 X2.1382 Y0.4382
G1 X0.6316 Y0.4382
G2 X0.5691 Y0.5007 I0 J0.0625
G1 X0.5691 Y1.3706
G1 X0.5691 Y1.6206
G1 X0.5691 Y3.9626
G1 X0.5691 Y4.2126
G1 X0.5691 Y4.7811
G1 Z-0.2 F25
G2 X0.6316 Y4.8436 I0.0625 J0 F25
G1 X1.9495 Y4.8436
G1 X2.1995 Y4.8436
G1 X3.8601 Y4.8436
G2 X3.9226 Y4.7811 I0 J-0.0625
G1 X3.9226 Y4.2059
G1 X3.9226 Y3.9559
G1 X3.9226 Y1.612
G1 X3.9226 Y1.362
G1 X3.9226 Y0.5007
G2 X3.8601 Y0.4382 I-0.0625 J0
G1 X2.3882 Y0.4382
G1 X2.1382 Y0.4382
G1 X0.6316 Y0.4382
G2 X0.5691 Y0.5007 I0 J0.0625
G1 X0.5691 Y1.3706
G1 X0.5691 Y1.6206
G1 X0.5691 Y3.9626
G1 X0.5691 Y4.2126
G1 X0.5691 Y4.7811
G1 Z-0.22 F25
G2 X0.6316 Y4.8436 I0.0625 J0 F25
G1 X1.9495 Y4.8436
G1 X2.1995 Y4.8436
G1 X3.8601 Y4.8436
G2 X3.9226 Y4.7811 I0 J-0.0625
G1 X3.9226 Y4.2059
G1 X3.9226 Y3.9559
G1 X3.9226 Y1.612
G1 X3.9226 Y1.362
G1 X3.9226 Y0.5007
G2 X3.8601 Y0.4382 I-0.0625 J0
G1 X2.3882 Y0.4382
G1 X2.1382 Y0.4382
G1 X0.6316 Y0.4382
G2 X0.5691 Y0.5007 I0 J0.0625
G1 X0.5691 Y1.3706
G1 X0.5691 Y1.6206
G1 X0.5691 Y3.9626
G1 X0.5691 Y4.2126
G1 X0.5691 Y4.7811
G1 Z-0.24 F25
G2 X0.6316 Y4.8436 I0.0625 J0 F25
G1 X1.9495 Y4.8436
G1 X2.1995 Y4.8436
G1 X3.8601 Y4.8436
G2 X3.9226 Y4.7811 I0 J-0.0625
G1 X3.9226 Y4.2059
G1 X3.9226 Y3.9559
G1 X3.9226 Y1.612
G1 X3.9226 Y1.362
G1 X3.9226 Y0.5007
G2 X3.8601 Y0.4382 I-0.0625 J0
G1 X2.3882 Y0.4382
G1 X2.1382 Y0.4382
G1 X0.6316 Y0.4382
G2 X0.5691 Y0.5007 I0 J0.0625
G1 X0.5691 Y1.3706
G1 X0.5691 Y1.6206
G1 X0.5691 Y3.9626
G1 X0.5691 Y4.2126
G1 X0.5691 Y4.7811
G1 Z-0.26 F25
G2 X0.6316 Y4.8436 I0.0625 J0 F25
G1 X1.9495 Y4.8436
G1 X2.1995 Y4.8436
G1 X3.8601 Y4.8436
G2 X3.9226 Y4.7811 I0 J-0.0625
G1 X3.9226 Y4.2059
G1 X3.9226 Y3.9559
G1 X3.9226 Y1.612
G1 X3.9226 Y1.362
G1 X3.9226 Y0.5007
G2 X3.8601 Y0.4382 I-0.0625 J0
G1 X2.3882 Y0.4382
G1 X2.1382 Y0.4382
G1 X0.6316 Y0.4382
G2 X0.5691 Y0.5007 I0 J0.0625
G1 X0.5691 Y1.3706
G1 X0.5691 Y1.6206
G1 X0.5691 Y3.9626
G1 X0.5691 Y4.2126
G1 X0.5691 Y4.7811
G1 Z-0.28 F25
G2 X0.6316 Y4.8436 I0.0625 J0 F25
G1 X1.9495 Y4.8436
G1 X2.1995 Y4.8436
G1 X3.8601 Y4.8436
G2 X3.9226 Y4.7811 I0 J-0.0625
G1 X3.9226 Y4.2059
G1 X3.9226 Y3.9559
G1 X3.9226 Y1.612
G1 X3.9226 Y1.362
G1 X3.9226 Y0.5007
G2 X3.8601 Y0.4382 I-0.0625 J0
G1 X2.3882 Y0.4382
G1 X2.1382 Y0.4382
G1 X0.6316 Y0.4382
G2 X0.5691 Y0.5007 I0 J0.0625
G1 X0.5691 Y1.3706
G1 X0.5691 Y1.6206
G1 X0.5691 Y3.9626
G1 X0.5691 Y4.2126
G1 X0.5691 Y4.7811
G1 Z-0.3 F25
G2 X0.6316 Y4.8436 I0.0625 J0 F25
G1 X1.9495 Y4.8436
G1 X2.1995 Y4.8436
G1 X3.8601 Y4.8436
G2 X3.9226 Y4.7811 I0 J-0.0625
G1 X3.9226 Y4.2059
G1 X3.9226 Y3.9559
G1 X3.9226 Y1.612
G1 X3.9226 Y1.362
G1 X3.9226 Y0.5007
G2 X3.8601 Y0.4382 I-0.0625 J0
G1 X2.3882 Y0.4382
G1 X2.1382 Y0.4382
G1 X0.6316 Y0.4382
G2 X0.5691 Y0.5007 I0 J0.0625
G1 X0.5691 Y1.3706
G1 X0.5691 Y1.6206
G1 X0.5691 Y3.9626
G1 X0.5691 Y4.2126
G1 X0.5691 Y4.7811
G1 Z-0.32 F25
G2 X0.6316 Y4.8436 I0.0625 J0 F25
G1 X1.9495 Y4.8436
G1 X2.1995 Y4.8436
G1 X3.8601 Y4.8436
G2 X3.9226 Y4.7811 I0 J-0.0625
G1 X3.9226 Y4.2059
G1 X3.9226 Y3.9559
G1 X3.9226 Y1.612
G1 X3.9226 Y1.362
G1 X3.9226 Y0.5007
G2 X3.8601 Y0.4382 I-0.0625 J0
G1 X2.3882 Y0.4382
G1 X2.1382 Y0.4382
G1 X0.6316 Y0.4382
G2 X0.5691 Y0.5007 I0 J0.0625
G1 X0.5691 Y1.3706
G1 X0.5691 Y1.6206
G1 X0.5691 Y3.9626
G1 X0.5691 Y4.2126
G1 X0.5691 Y4.7811
G1 Z-0.34 F25
G2 X0.6316 Y4.8436 I0.0625 J0 F25
G1 X1.9495 Y4.8436
G1 X2.1995 Y4.8436
G1 X3.8601 Y4.8436
G2 X3.9226 Y4.7811 I0 J-0.0625
G1 X3.9226 Y4.2059
G1 X3.9226 Y3.9559
G1 X3.9226 Y1.612
G1 X3.9226 Y1.362
G1 X3.9226 Y0.5007
G2 X3.8601 Y0.4382 I-0.0625 J0
G1 X2.3882 Y0.4382
G1 X2.1382 Y0.4382
G1 X0.6316 Y0.4382
G2 X0.5691 Y0.5007 I0 J0.0625
G1 X0.5691 Y1.3706
G1 X0.5691 Y1.6206
G1 X0.5691 Y3.9626
G1 X0.5691 Y4.2126
G1 X0.5691 Y4.7811
G1 Z-0.36 F25
G2 X0.6316 Y4.8436 I0.0625 J0 F25
G1 X1.9495 Y4.8436
G1 X2.1995 Y4.8436
G1 X3.8601 Y4.8436
G2 X3.9226 Y4.7811 I0 J-0.0625
G1 X3.9226 Y4.2059
G1 X3.9226 Y3.9559
G1 X3.9226 Y1.612
G1 X3.9226 Y1.362
G1 X3.9226 Y0.5007
G2 X3.8601 Y0.4382 I-0.0625 J0
G1 X2.3882 Y0.4382
G1 X2.1382 Y0.4382
G1 X0.6316 Y0.4382
G2 X0.5691 Y0.5007 I0 J0.0625
G1 X0.5691 Y1.3706
G1 X0.5691 Y1.6206
G1 X0.5691 Y3.9626
G1 X0.5691 Y4.2126
G1 X0.5691 Y4.7811
G1 Z-0.38 F25
G2 X0.6316 Y4.8436 I0.0625 J0 F25
G1 X1.9495 Y4.8436
G1 X2.1995 Y4.8436
G1 X3.8601 Y4.8436
G2 X3.9226 Y4.7811 I0 J-0.0625
G1 X3.9226 Y4.2059
G1 X3.9226 Y3.9559
G1 X3.9226 Y1.612
G1 X3.9226 Y1.362
G1 X3.9226 Y0.5007
G2 X3.8601 Y0.4382 I-0.0625 J0
G1 X2.3882 Y0.4382
G1 X2.1382 Y0.4382
G1 X0.6316 Y0.4382
G2 X0.5691 Y0.5007 I0 J0.0625
G1 X0.5691 Y1.3706
G1 X0.5691 Y1.6206
G1 X0.5691 Y3.9626
G1 X0.5691 Y4.2126
G1 X0.5691 Y4.7811
G1 Z-0.4 F25
G2 X0.6316 Y4.8436 I0.0625 J0 F25
G1 X1.9495 Y4.8436
G1 X2.1995 Y4.8436
G1 X3.8601 Y4.8436
G2 X3.9226 Y4.7811 I0 J-0.0625
G1 X3.9226 Y4.2059
G1 X3.9226 Y3.9559
G1 X3.9226 Y1.612
G1 X3.9226 Y1.362
G1 X3.9226 Y0.5007
G2 X3.8601 Y0.4382 I-0.0625 J0
G1 X2.3882 Y0.4382
G1 X2.1382 Y0.4382
G1 X0.6316 Y0.4382
G2 X0.5691 Y0.5007 I0 J0.0625
G1 X0.5691 Y1.3706
G1 X0.5691 Y1.6206
G1 X0.5691 Y3.9626
G1 X0.5691 Y4.2126
G1 X0.5691 Y4.7811
G1 Z-0.42 F25
G2 X0.6316 Y4.8436 I0.0625 J0 F25
G1 X1.9495 Y4.8436
G1 X2.1995 Y4.8436
G1 X3.8601 Y4.8436
G2 X3.9226 Y4.7811 I0 J-0.0625
G1 X3.9226 Y4.2059
G1 X3.9226 Y3.9559
G1 X3.9226 Y1.612
G1 X3.9226 Y1.362
G1 X3.9226 Y0.5007
G2 X3.8601 Y0.4382 I-0.0625 J0
G1 X2.3882 Y0.4382
G1 X2.1382 Y0.4382
G1 X0.6316 Y0.4382
G2 X0.5691 Y0.5007 I0 J0.0625
G1 X0.5691 Y1.3706
G1 X0.5691 Y1.6206
G1 X0.5691 Y3.9626
G1 X0.5691 Y4.2126
G1 X0.5691 Y4.7811
G1 Z-0.44 F25
G2 X0.6316 Y4.8436 I0.0625 J0 F25
G1 X1.9495 Y4.8436
G1 X2.1995 Y4.8436
G1 X3.8601 Y4.8436
G2 X3.9226 Y4.7811 I0 J-0.0625
G1 X3.9226 Y4.2059
G1 X3.9226 Y3.9559
G1 X3.9226 Y1.612
G1 X3.9226 Y1.362
G1 X3.9226 Y0.5007
G2 X3.8601 Y0.4382 I-0.0625 J0
G1 X2.3882 Y0.4382
G1 X2.1382 Y0.4382
G1 X0.6316 Y0.4382
G2 X0.5691 Y0.5007 I0 J0.0625
G1 X0.5691 Y1.3706
G1 X0.5691 Y1.6206
G1 X0.5691 Y3.9626
G1 X0.5691 Y4.2126
G1 X0.5691 Y4.7811
G1 Z-0.46 F25
G2 X0.6316 Y4.8436 I0.0625 J0 F25
G1 X1.9495 Y4.8436
G1 Z-0.45 F25
G1 X2.1995 Y4.8436 F25
G1 Z-0.46 F25
G1 X3.8601 Y4.8436 F25
G2 X3.9226 Y4.7811 I0 J-0.0625
G1 X3.9226 Y4.2059
G1 Z-0.45 F25
G1 X3.9226 Y3.9559 F25
G1 Z-0.46 F25
G1 X3.9226 Y1.612 F25
G1 Z-0.45 F25
G1 X3.9226 Y1.362 F25
G1 Z-0.46 F25
G1 X3.9226 Y0.5007 F25
G2 X3.8601 Y0.4382 I-0.0625 J0
G1 X2.3882 Y0.4382
G1 Z-0.45 F25
G1 X2.1382 Y0.4382 F25
G1 Z-0.46 F25
G1 X0.6316 Y0.4382 F25
G2 X0.5691 Y0.5007 I0 J0.0625
G1 X0.5691 Y1.3706
G1 Z-0.45 F25
G1 X0.5691 Y1.6206 F25
G1 Z-0.46 F25
G1 X0.5691 Y3.9626 F25
G1 Z-0.45 F25
G1 X0.5691 Y4.2126 F25
G1 Z-0.46 F25
G1 X0.5691 Y4.7811 F25
G1 Z-0.48 F25
G2 X0.6316 Y4.8436 I0.0625 J0 F25
G1 X1.9495 Y4.8436
G1 Z-0.45 F25
G1 X2.1995 Y4.8436 F25
G1 Z-0.48 F25
G1 X3.8601 Y4.8436 F25
G2 X3.9226 Y4.7811 I0 J-0.0625
G1 X3.9226 Y4.2059
G1 Z-0.45 F25
G1 X3.9226 Y3.9559 F25
G1 Z-0.48 F25
G1 X3.9226 Y1.612 F25
G1 Z-0.45 F25
G1 X3.9226 Y1.362 F25
G1 Z-0.48 F25
G1 X3.9226 Y0.5007 F25
G2 X3.8601 Y0.4382 I-0.0625 J0
G1 X2.3882 Y0.4382
G1 Z-0.45 F25
G1 X2.1382 Y0.4382 F25
G1 Z-0.48 F25
G1 X0.6316 Y0.4382 F25
G2 X0.5691 Y0.5007 I0 J0.0625
G1 X0.5691 Y1.3706
G1 Z-0.45 F25
G1 X0.5691 Y1.6206 F25
G1 Z-0.48 F25
G1 X0.5691 Y3.9626 F25
G1 Z-0.45 F25
G1 X0.5691 Y4.2126 F25
G1 Z-0.48 F25
G1 X0.5691 Y4.7811 F25
G1 Z-0.5 F25
G2 X0.6316 Y4.8436 I0.0625 J0 F25
G1 X1.9495 Y4.8436
G1 Z-0.45 F25
G1 X2.1995 Y4.8436 F25
G1 Z-0.5 F25
G1 X3.8601 Y4.8436 F25
G2 X3.9226 Y4.7811 I0 J-0.0625
G1 X3.9226 Y4.2059
G1 Z-0.45 F25
G1 X3.9226 Y3.9559 F25
G1 Z-0.5 F25
G1 X3.9226 Y1.612 F25
G1 Z-0.45 F25
G1 X3.9226 Y1.362 F25
G1 Z-0.5 F25
G1 X3.9226 Y0.5007 F25
G2 X3.8601 Y0.4382 I-0.0625 J0
G1 X2.3882 Y0.4382
G1 Z-0.45 F25
G1 X2.1382 Y0.4382 F25
G1 Z-0.5 F25
G1 X0.6316 Y0.4382 F25
G2 X0.5691 Y0.5007 I0 J0.0625
G1 X0.5691 Y1.3706
G1 Z-0.45 F25
G1 X0.5691 Y1.6206 F25
G1 Z-0.5 F25
G1 X0.5691 Y3.9626 F25
G1 Z-0.45 F25
G1 X0.5691 Y4.2126 F25
G1 Z-0.5 F25
G1 X0.5691 Y4.7811 F25
G1 Z-0.52 F25
G2 X0.6316 Y4.8436 I0.0625 J0 F25
G1 X1.9495 Y4.8436
G1 Z-0.45 F25
G1 X2.1995 Y4.8436 F25
G1 Z-0.52 F25
G1 X3.8601 Y4.8436 F25
G2 X3.9226 Y4.7811 I0 J-0.0625
G1 X3.9226 Y4.2059
G1 Z-0.45 F25
G1 X3.9226 Y3.9559 F25
G1 Z-0.52 F25
G1 X3.9226 Y1.612 F25
G1 Z-0.45 F25
G1 X3.9226 Y1.362 F25
G1 Z-0.52 F25
G1 X3.9226 Y0.5007 F25
G2 X3.8601 Y0.4382 I-0.0625 J0
G1 X2.3882 Y0.4382
G1 Z-0.45 F25
G1 X2.1382 Y0.4382 F25
G1 Z-0.52 F25
G1 X0.6316 Y0.4382 F25
G2 X0.5691 Y0.5007 I0 J0.0625
G1 X0.5691 Y1.3706
G1 Z-0.45 F25
G1 X0.5691 Y1.6206 F25
G1 Z-0.52 F25
G1 X0.5691 Y3.9626 F25
G1 Z-0.45 F25
G1 X0.5691 Y4.2126 F25
G1 Z-0.52 F25
G1 X0.5691 Y4.7811 F25
G1 Z-0.54 F25
G2 X0.6316 Y4.8436 I0.0625 J0 F25
G1 X1.9495 Y4.8436
G1 Z-0.45 F25
G1 X2.1995 Y4.8436 F25
G1 Z-0.54 F25
G1 X3.8601 Y4.8436 F25
G2 X3.9226 Y4.7811 I0 J-0.0625
G1 X3.9226 Y4.2059
G1 Z-0.45 F25
G1 X3.9226 Y3.9559 F25
G1 Z-0.54 F25
G1 X3.9226 Y1.612 F25
G1 Z-0.45 F25
G1 X3.9226 Y1.362 F25
G1 Z-0.54 F25
G1 X3.9226 Y0.5007 F25
G2 X3.8601 Y0.4382 I-0.0625 J0
G1 X2.3882 Y0.4382
G1 Z-0.45 F25
G1 X2.1382 Y0.4382 F25
G1 Z-0.54 F25
G1 X0.6316 Y0.4382 F25
G2 X0.5691 Y0.5007 I0 J0.0625
G1 X0.5691 Y1.3706
G1 Z-0.45 F25
G1 X0.5691 Y1.6206 F25
G1 Z-0.54 F25
G1 X0.5691 Y3.9626 F25
G1 Z-0.45 F25
G1 X0.5691 Y4.2126 F25
G1 Z-0.54 F25
G1 X0.5691 Y4.7811 F25
G1 Z-0.55 F25
G2 X0.6316 Y4.8436 I0.0625 J0 F25
G1 X1.9495 Y4.8436
G1 Z-0.45 F25
G1 X2.1995 Y4.8436 F25
G1 Z-0.55 F25
G1 X3.8601 Y4.8436 F25
G2 X3.9226 Y4.7811 I0 J-0.0625
G1 X3.9226 Y4.2059
G1 Z-0.45 F25
G1 X3.9226 Y3.9559 F25
G1 Z-0.55 F25
G1 X3.9226 Y1.612 F25
G1 Z-0.45 F25
G1 X3.9226 Y1.362 F25
G1 Z-0.55 F25
G1 X3.9226 Y0.5007 F25
G2 X3.8601 Y0.4382 I-0.0625 J0
G1 X2.3882 Y0.4382
G1 Z-0.45 F25
G1 X2.1382 Y0.4382 F25
G1 Z-0.55 F25
G1 X0.6316 Y0.4382 F25
G2 X0.5691 Y0.5007 I0 J0.0625
G1 X0.5691 Y1.3706
G1 Z-0.45 F25
G1 X0.5691 Y1.6206 F25
G1 Z-0.55 F25
G1 X0.5691 Y3.9626 F25
G1 Z-0.45 F25
G1 X0.5691 Y4.2126 F25
G1 Z-0.55 F25
G1 X0.5691 Y4.7811 F25
G0 Z0.25
M5
M30
