(Generated by PartKam Version 0.05)

G20 G90 G40

(drill 1-0)
G0 Z0.25
T0 M6
G17
M3
G0 X0.75 Y0.8
G1 Z-0.02 F20
G1 Z0 F20
G1 Z-0.04 F20
G1 Z0 F20
G1 Z-0.06 F20
G1 Z0 F20
G1 Z-0.08 F20
G1 Z0 F20
G1 Z-0.1 F20
G1 Z0 F20
G1 Z-0.12 F20
G1 Z0 F20
G1 Z-0.14 F20
G1 Z0 F20
G1 Z-0.16 F20
G1 Z0 F20
G1 Z-0.18 F20
G1 Z0 F20
G1 Z-0.2 F20
G1 Z0 F20
G1 Z-0.22 F20
G1 Z0 F20
G1 Z-0.24 F20
G1 Z0 F20
G1 Z-0.25 F20
G1 Z0 F20

(drill 1-1)
G0 Z0.25
G0 X0.75 Y2.7667
G1 Z-0.02 F20
G1 Z0 F20
G1 Z-0.04 F20
G1 Z0 F20
G1 Z-0.06 F20
G1 Z0 F20
G1 Z-0.08 F20
G1 Z0 F20
G1 Z-0.1 F20
G1 Z0 F20
G1 Z-0.12 F20
G1 Z0 F20
G1 Z-0.14 F20
G1 Z0 F20
G1 Z-0.16 F20
G1 Z0 F20
G1 Z-0.18 F20
G1 Z0 F20
G1 Z-0.2 F20
G1 Z0 F20
G1 Z-0.22 F20
G1 Z0 F20
G1 Z-0.24 F20
G1 Z0 F20
G1 Z-0.25 F20
G1 Z0 F20

(drill 1-2)
G0 Z0.25
G0 X3.0902 Y2.8852
G1 Z-0.02 F20
G1 Z0 F20
G1 Z-0.04 F20
G1 Z0 F20
G1 Z-0.06 F20
G1 Z0 F20
G1 Z-0.08 F20
G1 Z0 F20
G1 Z-0.1 F20
G1 Z0 F20
G1 Z-0.12 F20
G1 Z0 F20
G1 Z-0.14 F20
G1 Z0 F20
G1 Z-0.16 F20
G1 Z0 F20
G1 Z-0.18 F20
G1 Z0 F20
G1 Z-0.2 F20
G1 Z0 F20
G1 Z-0.22 F20
G1 Z0 F20
G1 Z-0.24 F20
G1 Z0 F20
G1 Z-0.25 F20
G1 Z0 F20

(drill 1-3)
G0 Z0.25
G0 X1.8698 Y2.8852
G1 Z-0.02 F20
G1 Z0 F20
G1 Z-0.04 F20
G1 Z0 F20
G1 Z-0.06 F20
G1 Z0 F20
G1 Z-0.08 F20
G1 Z0 F20
G1 Z-0.1 F20
G1 Z0 F20
G1 Z-0.12 F20
G1 Z0 F20
G1 Z-0.14 F20
G1 Z0 F20
G1 Z-0.16 F20
G1 Z0 F20
G1 Z-0.18 F20
G1 Z0 F20
G1 Z-0.2 F20
G1 Z0 F20
G1 Z-0.22 F20
G1 Z0 F20
G1 Z-0.24 F20
G1 Z0 F20
G1 Z-0.25 F20
G1 Z0 F20

(drill 1-4)
G0 Z0.25
G0 X1.8698 Y1.6648
G1 Z-0.02 F20
G1 Z0 F20
G1 Z-0.04 F20
G1 Z0 F20
G1 Z-0.06 F20
G1 Z0 F20
G1 Z-0.08 F20
G1 Z0 F20
G1 Z-0.1 F20
G1 Z0 F20
G1 Z-0.12 F20
G1 Z0 F20
G1 Z-0.14 F20
G1 Z0 F20
G1 Z-0.16 F20
G1 Z0 F20
G1 Z-0.18 F20
G1 Z0 F20
G1 Z-0.2 F20
G1 Z0 F20
G1 Z-0.22 F20
G1 Z0 F20
G1 Z-0.24 F20
G1 Z0 F20
G1 Z-0.25 F20
G1 Z0 F20

(drill 1-5)
G0 Z0.25
G0 X3.0902 Y1.6648
G1 Z-0.02 F20
G1 Z0 F20
G1 Z-0.04 F20
G1 Z0 F20
G1 Z-0.06 F20
G1 Z0 F20
G1 Z-0.08 F20
G1 Z0 F20
G1 Z-0.1 F20
G1 Z0 F20
G1 Z-0.12 F20
G1 Z0 F20
G1 Z-0.14 F20
G1 Z0 F20
G1 Z-0.16 F20
G1 Z0 F20
G1 Z-0.18 F20
G1 Z0 F20
G1 Z-0.2 F20
G1 Z0 F20
G1 Z-0.22 F20
G1 Z0 F20
G1 Z-0.24 F20
G1 Z0 F20
G1 Z-0.25 F20
G1 Z0 F20

(drill 1-6)
G0 Z0.25
G0 X4.0267 Y3.46
G1 Z-0.02 F20
G1 Z0 F20
G1 Z-0.04 F20
G1 Z0 F20
G1 Z-0.06 F20
G1 Z0 F20
G1 Z-0.08 F20
G1 Z0 F20
G1 Z-0.1 F20
G1 Z0 F20
G1 Z-0.12 F20
G1 Z0 F20
G1 Z-0.14 F20
G1 Z0 F20
G1 Z-0.16 F20
G1 Z0 F20
G1 Z-0.18 F20
G1 Z0 F20
G1 Z-0.2 F20
G1 Z0 F20
G1 Z-0.22 F20
G1 Z0 F20
G1 Z-0.24 F20
G1 Z0 F20
G1 Z-0.25 F20
G1 Z0 F20

(drill 1-7)
G0 Z0.25
G0 X4.4483 Y4.53
G1 Z-0.02 F20
G1 Z0 F20
G1 Z-0.04 F20
G1 Z0 F20
G1 Z-0.06 F20
G1 Z0 F20
G1 Z-0.08 F20
G1 Z0 F20
G1 Z-0.1 F20
G1 Z0 F20
G1 Z-0.12 F20
G1 Z0 F20
G1 Z-0.14 F20
G1 Z0 F20
G1 Z-0.16 F20
G1 Z0 F20
G1 Z-0.18 F20
G1 Z0 F20
G1 Z-0.2 F20
G1 Z0 F20
G1 Z-0.22 F20
G1 Z0 F20
G1 Z-0.24 F20
G1 Z0 F20
G1 Z-0.25 F20
G1 Z0 F20

(drill 1-8)
G0 Z0.25
G0 X2.8017 Y4.53
G1 Z-0.02 F20
G1 Z0 F20
G1 Z-0.04 F20
G1 Z0 F20
G1 Z-0.06 F20
G1 Z0 F20
G1 Z-0.08 F20
G1 Z0 F20
G1 Z-0.1 F20
G1 Z0 F20
G1 Z-0.12 F20
G1 Z0 F20
G1 Z-0.14 F20
G1 Z0 F20
G1 Z-0.16 F20
G1 Z0 F20
G1 Z-0.18 F20
G1 Z0 F20
G1 Z-0.2 F20
G1 Z0 F20
G1 Z-0.22 F20
G1 Z0 F20
G1 Z-0.24 F20
G1 Z0 F20
G1 Z-0.25 F20
G1 Z0 F20

(drill 1-9)
G0 Z0.25
G0 X1.155 Y4.53
G1 Z-0.02 F20
G1 Z0 F20
G1 Z-0.04 F20
G1 Z0 F20
G1 Z-0.06 F20
G1 Z0 F20
G1 Z-0.08 F20
G1 Z0 F20
G1 Z-0.1 F20
G1 Z0 F20
G1 Z-0.12 F20
G1 Z0 F20
G1 Z-0.14 F20
G1 Z0 F20
G1 Z-0.16 F20
G1 Z0 F20
G1 Z-0.18 F20
G1 Z0 F20
G1 Z-0.2 F20
G1 Z0 F20
G1 Z-0.22 F20
G1 Z0 F20
G1 Z-0.24 F20
G1 Z0 F20
G1 Z-0.25 F20
G1 Z0 F20

(profile 11-0)
G0 Z0.5
G0 X2.6949 Y2.7937
G1 Z-0.02 F20
G1 X2.5533 Y2.8317 F20
G1 X2.4067 Y2.8317
G1 X2.2651 Y2.7937
G1 X2.1382 Y2.7205
G1 X2.0345 Y2.6168
G1 X1.9612 Y2.4899
G1 X1.9301 Y2.3734
G1 X1.9233 Y2.3483
G1 X1.9233 Y2.2017
G1 X1.9433 Y2.127
G1 X1.9612 Y2.0601
G1 X2.0345 Y1.9332
G1 X2.1382 Y1.8295
G1 X2.2651 Y1.7562
G1 X2.3517 Y1.7331
G1 X2.4067 Y1.7183
G1 X2.5533 Y1.7183
G1 X2.5981 Y1.7303
G1 X2.6949 Y1.7562
G1 X2.8218 Y1.8295
G1 X2.9255 Y1.9332
G1 X2.9988 Y2.0601
G1 X3.0301 Y2.1772
G1 X3.0367 Y2.2017
G1 X3.0367 Y2.3483
G1 X3.0165 Y2.4237
G1 X2.9988 Y2.4899
G1 X2.9255 Y2.6168
G1 X2.8218 Y2.7205
G1 X2.6949 Y2.7937
G1 Z-0.04 F20
G1 X2.5533 Y2.8317 F20
G1 X2.4067 Y2.8317
G1 X2.2651 Y2.7937
G1 X2.1382 Y2.7205
G1 X2.0345 Y2.6168
G1 X1.9612 Y2.4899
G1 X1.9301 Y2.3734
G1 X1.9233 Y2.3483
G1 X1.9233 Y2.2017
G1 X1.9433 Y2.127
G1 X1.9612 Y2.0601
G1 X2.0345 Y1.9332
G1 X2.1382 Y1.8295
G1 X2.2651 Y1.7562
G1 X2.3517 Y1.7331
G1 X2.4067 Y1.7183
G1 X2.5533 Y1.7183
G1 X2.5981 Y1.7303
G1 X2.6949 Y1.7562
G1 X2.8218 Y1.8295
G1 X2.9255 Y1.9332
G1 X2.9988 Y2.0601
G1 X3.0301 Y2.1772
G1 X3.0367 Y2.2017
G1 X3.0367 Y2.3483
G1 X3.0165 Y2.4237
G1 X2.9988 Y2.4899
G1 X2.9255 Y2.6168
G1 X2.8218 Y2.7205
G1 X2.6949 Y2.7937
G1 Z-0.06 F20
G1 X2.5533 Y2.8317 F20
G1 X2.4067 Y2.8317
G1 X2.2651 Y2.7937
G1 X2.1382 Y2.7205
G1 X2.0345 Y2.6168
G1 X1.9612 Y2.4899
G1 X1.9301 Y2.3734
G1 X1.9233 Y2.3483
G1 X1.9233 Y2.2017
G1 X1.9433 Y2.127
G1 X1.9612 Y2.0601
G1 X2.0345 Y1.9332
G1 X2.1382 Y1.8295
G1 X2.2651 Y1.7562
G1 X2.3517 Y1.7331
G1 X2.4067 Y1.7183
G1 X2.5533 Y1.7183
G1 X2.5981 Y1.7303
G1 X2.6949 Y1.7562
G1 X2.8218 Y1.8295
G1 X2.9255 Y1.9332
G1 X2.9988 Y2.0601
G1 X3.0301 Y2.1772
G1 X3.0367 Y2.2017
G1 X3.0367 Y2.3483
G1 X3.0165 Y2.4237
G1 X2.9988 Y2.4899
G1 X2.9255 Y2.6168
G1 X2.8218 Y2.7205
G1 X2.6949 Y2.7937
G1 Z-0.08 F20
G1 X2.5533 Y2.8317 F20
G1 X2.4067 Y2.8317
G1 X2.2651 Y2.7937
G1 X2.1382 Y2.7205
G1 X2.0345 Y2.6168
G1 X1.9612 Y2.4899
G1 X1.9301 Y2.3734
G1 X1.9233 Y2.3483
G1 X1.9233 Y2.2017
G1 X1.9433 Y2.127
G1 X1.9612 Y2.0601
G1 X2.0345 Y1.9332
G1 X2.1382 Y1.8295
G1 X2.2651 Y1.7562
G1 X2.3517 Y1.7331
G1 X2.4067 Y1.7183
G1 X2.5533 Y1.7183
G1 X2.5981 Y1.7303
G1 X2.6949 Y1.7562
G1 X2.8218 Y1.8295
G1 X2.9255 Y1.9332
G1 X2.9988 Y2.0601
G1 X3.0301 Y2.1772
G1 X3.0367 Y2.2017
G1 X3.0367 Y2.3483
G1 X3.0165 Y2.4237
G1 X2.9988 Y2.4899
G1 X2.9255 Y2.6168
G1 X2.8218 Y2.7205
G1 X2.6949 Y2.7937
G1 Z-0.1 F20
G1 X2.5533 Y2.8317 F20
G1 X2.4067 Y2.8317
G1 X2.2651 Y2.7937
G1 X2.1382 Y2.7205
G1 X2.0345 Y2.6168
G1 X1.9612 Y2.4899
G1 X1.9301 Y2.3734
G1 X1.9233 Y2.3483
G1 X1.9233 Y2.2017
G1 X1.9433 Y2.127
G1 X1.9612 Y2.0601
G1 X2.0345 Y1.9332
G1 X2.1382 Y1.8295
G1 X2.2651 Y1.7562
G1 X2.3517 Y1.7331
G1 X2.4067 Y1.7183
G1 X2.5533 Y1.7183
G1 X2.5981 Y1.7303
G1 X2.6949 Y1.7562
G1 X2.8218 Y1.8295
G1 X2.9255 Y1.9332
G1 X2.9988 Y2.0601
G1 X3.0301 Y2.1772
G1 X3.0367 Y2.2017
G1 X3.0367 Y2.3483
G1 X3.0165 Y2.4237
G1 X2.9988 Y2.4899
G1 X2.9255 Y2.6168
G1 X2.8218 Y2.7205
G1 X2.6949 Y2.7937
G1 Z-0.12 F20
G1 X2.5533 Y2.8317 F20
G1 X2.4067 Y2.8317
G1 X2.2651 Y2.7937
G1 X2.1382 Y2.7205
G1 X2.0345 Y2.6168
G1 X1.9612 Y2.4899
G1 X1.9301 Y2.3734
G1 X1.9233 Y2.3483
G1 X1.9233 Y2.2017
G1 X1.9433 Y2.127
G1 X1.9612 Y2.0601
G1 X2.0345 Y1.9332
G1 X2.1382 Y1.8295
G1 X2.2651 Y1.7562
G1 X2.3517 Y1.7331
G1 X2.4067 Y1.7183
G1 X2.5533 Y1.7183
G1 X2.5981 Y1.7303
G1 X2.6949 Y1.7562
G1 X2.8218 Y1.8295
G1 X2.9255 Y1.9332
G1 X2.9988 Y2.0601
G1 X3.0301 Y2.1772
G1 X3.0367 Y2.2017
G1 X3.0367 Y2.3483
G1 X3.0165 Y2.4237
G1 X2.9988 Y2.4899
G1 X2.9255 Y2.6168
G1 X2.8218 Y2.7205
G1 X2.6949 Y2.7937
G1 Z-0.14 F20
G1 X2.5533 Y2.8317 F20
G1 X2.4067 Y2.8317
G1 X2.2651 Y2.7937
G1 X2.1382 Y2.7205
G1 X2.0345 Y2.6168
G1 X1.9612 Y2.4899
G1 X1.9301 Y2.3734
G1 X1.9233 Y2.3483
G1 X1.9233 Y2.2017
G1 X1.9433 Y2.127
G1 X1.9612 Y2.0601
G1 X2.0345 Y1.9332
G1 X2.1382 Y1.8295
G1 X2.2651 Y1.7562
G1 X2.3517 Y1.7331
G1 X2.4067 Y1.7183
G1 X2.5533 Y1.7183
G1 X2.5981 Y1.7303
G1 X2.6949 Y1.7562
G1 X2.8218 Y1.8295
G1 X2.9255 Y1.9332
G1 X2.9988 Y2.0601
G1 X3.0301 Y2.1772
G1 X3.0367 Y2.2017
G1 X3.0367 Y2.3483
G1 X3.0165 Y2.4237
G1 X2.9988 Y2.4899
G1 X2.9255 Y2.6168
G1 X2.8218 Y2.7205
G1 X2.6949 Y2.7937
G1 Z-0.16 F20
G1 X2.5533 Y2.8317 F20
G1 X2.4067 Y2.8317
G1 X2.2651 Y2.7937
G1 X2.1382 Y2.7205
G1 X2.0345 Y2.6168
G1 X1.9612 Y2.4899
G1 X1.9301 Y2.3734
G1 Z-0.15 F20
G1 X1.9233 Y2.3483 F20
G1 X1.9233 Y2.2017
G1 X1.9433 Y2.127
G1 Z-0.16 F20
G1 X1.9612 Y2.0601 F20
G1 X2.0345 Y1.9332
G1 X2.1382 Y1.8295
G1 X2.2651 Y1.7562
G1 X2.3517 Y1.7331
G1 Z-0.15 F20
G1 X2.4067 Y1.7183 F20
G1 X2.5533 Y1.7183
G1 X2.5981 Y1.7303
G1 Z-0.16 F20
G1 X2.6949 Y1.7562 F20
G1 X2.8218 Y1.8295
G1 X2.9255 Y1.9332
G1 X2.9988 Y2.0601
G1 X3.0301 Y2.1772
G1 Z-0.15 F20
G1 X3.0367 Y2.2017 F20
G1 X3.0367 Y2.3483
G1 X3.0165 Y2.4237
G1 Z-0.16 F20
G1 X2.9988 Y2.4899 F20
G1 X2.9255 Y2.6168
G1 X2.8218 Y2.7205
G1 X2.6949 Y2.7937
G1 Z-0.18 F20
G1 X2.5533 Y2.8317 F20
G1 X2.4067 Y2.8317
G1 X2.2651 Y2.7937
G1 X2.1382 Y2.7205
G1 X2.0345 Y2.6168
G1 X1.9612 Y2.4899
G1 X1.9301 Y2.3734
G1 Z-0.15 F20
G1 X1.9233 Y2.3483 F20
G1 X1.9233 Y2.2017
G1 X1.9433 Y2.127
G1 Z-0.18 F20
G1 X1.9612 Y2.0601 F20
G1 X2.0345 Y1.9332
G1 X2.1382 Y1.8295
G1 X2.2651 Y1.7562
G1 X2.3517 Y1.7331
G1 Z-0.15 F20
G1 X2.4067 Y1.7183 F20
G1 X2.5533 Y1.7183
G1 X2.5981 Y1.7303
G1 Z-0.18 F20
G1 X2.6949 Y1.7562 F20
G1 X2.8218 Y1.8295
G1 X2.9255 Y1.9332
G1 X2.9988 Y2.0601
G1 X3.0301 Y2.1772
G1 Z-0.15 F20
G1 X3.0367 Y2.2017 F20
G1 X3.0367 Y2.3483
G1 X3.0165 Y2.4237
G1 Z-0.18 F20
G1 X2.9988 Y2.4899 F20
G1 X2.9255 Y2.6168
G1 X2.8218 Y2.7205
G1 X2.6949 Y2.7937
G1 Z-0.2 F20
G1 X2.5533 Y2.8317 F20
G1 X2.4067 Y2.8317
G1 X2.2651 Y2.7937
G1 X2.1382 Y2.7205
G1 X2.0345 Y2.6168
G1 X1.9612 Y2.4899
G1 X1.9301 Y2.3734
G1 Z-0.15 F20
G1 X1.9233 Y2.3483 F20
G1 X1.9233 Y2.2017
G1 X1.9433 Y2.127
G1 Z-0.2 F20
G1 X1.9612 Y2.0601 F20
G1 X2.0345 Y1.9332
G1 X2.1382 Y1.8295
G1 X2.2651 Y1.7562
G1 X2.3517 Y1.7331
G1 Z-0.15 F20
G1 X2.4067 Y1.7183 F20
G1 X2.5533 Y1.7183
G1 X2.5981 Y1.7303
G1 Z-0.2 F20
G1 X2.6949 Y1.7562 F20
G1 X2.8218 Y1.8295
G1 X2.9255 Y1.9332
G1 X2.9988 Y2.0601
G1 X3.0301 Y2.1772
G1 Z-0.15 F20
G1 X3.0367 Y2.2017 F20
G1 X3.0367 Y2.3483
G1 X3.0165 Y2.4237
G1 Z-0.2 F20
G1 X2.9988 Y2.4899 F20
G1 X2.9255 Y2.6168
G1 X2.8218 Y2.7205
G1 X2.6949 Y2.7937
G1 Z-0.22 F20
G1 X2.5533 Y2.8317 F20
G1 X2.4067 Y2.8317
G1 X2.2651 Y2.7937
G1 X2.1382 Y2.7205
G1 X2.0345 Y2.6168
G1 X1.9612 Y2.4899
G1 X1.9301 Y2.3734
G1 Z-0.15 F20
G1 X1.9233 Y2.3483 F20
G1 X1.9233 Y2.2017
G1 X1.9433 Y2.127
G1 Z-0.22 F20
G1 X1.9612 Y2.0601 F20
G1 X2.0345 Y1.9332
G1 X2.1382 Y1.8295
G1 X2.2651 Y1.7562
G1 X2.3517 Y1.7331
G1 Z-0.15 F20
G1 X2.4067 Y1.7183 F20
G1 X2.5533 Y1.7183
G1 X2.5981 Y1.7303
G1 Z-0.22 F20
G1 X2.6949 Y1.7562 F20
G1 X2.8218 Y1.8295
G1 X2.9255 Y1.9332
G1 X2.9988 Y2.0601
G1 X3.0301 Y2.1772
G1 Z-0.15 F20
G1 X3.0367 Y2.2017 F20
G1 X3.0367 Y2.3483
G1 X3.0165 Y2.4237
G1 Z-0.22 F20
G1 X2.9988 Y2.4899 F20
G1 X2.9255 Y2.6168
G1 X2.8218 Y2.7205
G1 X2.6949 Y2.7937
G1 Z-0.24 F20
G1 X2.5533 Y2.8317 F20
G1 X2.4067 Y2.8317
G1 X2.2651 Y2.7937
G1 X2.1382 Y2.7205
G1 X2.0345 Y2.6168
G1 X1.9612 Y2.4899
G1 X1.9301 Y2.3734
G1 Z-0.15 F20
G1 X1.9233 Y2.3483 F20
G1 X1.9233 Y2.2017
G1 X1.9433 Y2.127
G1 Z-0.24 F20
G1 X1.9612 Y2.0601 F20
G1 X2.0345 Y1.9332
G1 X2.1382 Y1.8295
G1 X2.2651 Y1.7562
G1 X2.3517 Y1.7331
G1 Z-0.15 F20
G1 X2.4067 Y1.7183 F20
G1 X2.5533 Y1.7183
G1 X2.5981 Y1.7303
G1 Z-0.24 F20
G1 X2.6949 Y1.7562 F20
G1 X2.8218 Y1.8295
G1 X2.9255 Y1.9332
G1 X2.9988 Y2.0601
G1 X3.0301 Y2.1772
G1 Z-0.15 F20
G1 X3.0367 Y2.2017 F20
G1 X3.0367 Y2.3483
G1 X3.0165 Y2.4237
G1 Z-0.24 F20
G1 X2.9988 Y2.4899 F20
G1 X2.9255 Y2.6168
G1 X2.8218 Y2.7205
G1 X2.6949 Y2.7937
G1 Z-0.25 F20
G1 X2.5533 Y2.8317 F20
G1 X2.4067 Y2.8317
G1 X2.2651 Y2.7937
G1 X2.1382 Y2.7205
G1 X2.0345 Y2.6168
G1 X1.9612 Y2.4899
G1 X1.9301 Y2.3734
G1 Z-0.15 F20
G1 X1.9233 Y2.3483 F20
G1 X1.9233 Y2.2017
G1 X1.9433 Y2.127
G1 Z-0.25 F20
G1 X1.9612 Y2.0601 F20
G1 X2.0345 Y1.9332
G1 X2.1382 Y1.8295
G1 X2.2651 Y1.7562
G1 X2.3517 Y1.7331
G1 Z-0.15 F20
G1 X2.4067 Y1.7183 F20
G1 X2.5533 Y1.7183
G1 X2.5981 Y1.7303
G1 Z-0.25 F20
G1 X2.6949 Y1.7562 F20
G1 X2.8218 Y1.8295
G1 X2.9255 Y1.9332
G1 X2.9988 Y2.0601
G1 X3.0301 Y2.1772
G1 Z-0.15 F20
G1 X3.0367 Y2.2017 F20
G1 X3.0367 Y2.3483
G1 X3.0165 Y2.4237
G1 Z-0.25 F20
G1 X2.9988 Y2.4899 F20
G1 X2.9255 Y2.6168
G1 X2.8218 Y2.7205
G1 X2.6949 Y2.7937

(profile 12-0)
G0 Z0.25
G0 X0.5 Y0.4375
G1 Z-0.02 F20
G2 X0.4375 Y0.5 I0 J0.0625 F20
G1 X0.4375 Y1.497
G1 X0.4375 Y1.747
G1 X0.4375 Y3.5312
G1 X0.4375 Y3.8649
G1 X0.4375 Y4.78
G2 X0.5 Y4.8425 I0.0625 J0
G1 X1.8781 Y4.8425
G1 X2.3344 Y4.8425
G1 X3.8206 Y4.8425
G1 X4.0888 Y4.8425
G1 X5.1294 Y4.8425
G2 X5.1919 Y4.78 I0 J-0.0625
G1 X5.1919 Y4.1837
G1 X5.1919 Y3.7339
G1 X5.1919 Y1.3791
G1 X5.1919 Y0.9834
G1 X5.1919 Y0.5
G2 X5.1294 Y0.4375 I-0.0625 J0
G1 X4.2673 Y0.4375
G1 X4.0173 Y0.4375
G1 X1.8998 Y0.4375
G1 X1.4614 Y0.4375
G1 X0.5 Y0.4375
G1 Z-0.04 F20
G2 X0.4375 Y0.5 I0 J0.0625 F20
G1 X0.4375 Y1.497
G1 X0.4375 Y1.747
G1 X0.4375 Y3.5312
G1 X0.4375 Y3.8649
G1 X0.4375 Y4.78
G2 X0.5 Y4.8425 I0.0625 J0
G1 X1.8781 Y4.8425
G1 X2.3344 Y4.8425
G1 X3.8206 Y4.8425
G1 X4.0888 Y4.8425
G1 X5.1294 Y4.8425
G2 X5.1919 Y4.78 I0 J-0.0625
G1 X5.1919 Y4.1837
G1 X5.1919 Y3.7339
G1 X5.1919 Y1.3791
G1 X5.1919 Y0.9834
G1 X5.1919 Y0.5
G2 X5.1294 Y0.4375 I-0.0625 J0
G1 X4.2673 Y0.4375
G1 X4.0173 Y0.4375
G1 X1.8998 Y0.4375
G1 X1.4614 Y0.4375
G1 X0.5 Y0.4375
G1 Z-0.06 F20
G2 X0.4375 Y0.5 I0 J0.0625 F20
G1 X0.4375 Y1.497
G1 X0.4375 Y1.747
G1 X0.4375 Y3.5312
G1 X0.4375 Y3.8649
G1 X0.4375 Y4.78
G2 X0.5 Y4.8425 I0.0625 J0
G1 X1.8781 Y4.8425
G1 X2.3344 Y4.8425
G1 X3.8206 Y4.8425
G1 X4.0888 Y4.8425
G1 X5.1294 Y4.8425
G2 X5.1919 Y4.78 I0 J-0.0625
G1 X5.1919 Y4.1837
G1 X5.1919 Y3.7339
G1 X5.1919 Y1.3791
G1 X5.1919 Y0.9834
G1 X5.1919 Y0.5
G2 X5.1294 Y0.4375 I-0.0625 J0
G1 X4.2673 Y0.4375
G1 X4.0173 Y0.4375
G1 X1.8998 Y0.4375
G1 X1.4614 Y0.4375
G1 X0.5 Y0.4375
G1 Z-0.08 F20
G2 X0.4375 Y0.5 I0 J0.0625 F20
G1 X0.4375 Y1.497
G1 X0.4375 Y1.747
G1 X0.4375 Y3.5312
G1 X0.4375 Y3.8649
G1 X0.4375 Y4.78
G2 X0.5 Y4.8425 I0.0625 J0
G1 X1.8781 Y4.8425
G1 X2.3344 Y4.8425
G1 X3.8206 Y4.8425
G1 X4.0888 Y4.8425
G1 X5.1294 Y4.8425
G2 X5.1919 Y4.78 I0 J-0.0625
G1 X5.1919 Y4.1837
G1 X5.1919 Y3.7339
G1 X5.1919 Y1.3791
G1 X5.1919 Y0.9834
G1 X5.1919 Y0.5
G2 X5.1294 Y0.4375 I-0.0625 J0
G1 X4.2673 Y0.4375
G1 X4.0173 Y0.4375
G1 X1.8998 Y0.4375
G1 X1.4614 Y0.4375
G1 X0.5 Y0.4375
G1 Z-0.1 F20
G2 X0.4375 Y0.5 I0 J0.0625 F20
G1 X0.4375 Y1.497
G1 X0.4375 Y1.747
G1 X0.4375 Y3.5312
G1 X0.4375 Y3.8649
G1 X0.4375 Y4.78
G2 X0.5 Y4.8425 I0.0625 J0
G1 X1.8781 Y4.8425
G1 X2.3344 Y4.8425
G1 X3.8206 Y4.8425
G1 X4.0888 Y4.8425
G1 X5.1294 Y4.8425
G2 X5.1919 Y4.78 I0 J-0.0625
G1 X5.1919 Y4.1837
G1 X5.1919 Y3.7339
G1 X5.1919 Y1.3791
G1 X5.1919 Y0.9834
G1 X5.1919 Y0.5
G2 X5.1294 Y0.4375 I-0.0625 J0
G1 X4.2673 Y0.4375
G1 X4.0173 Y0.4375
G1 X1.8998 Y0.4375
G1 X1.4614 Y0.4375
G1 X0.5 Y0.4375
G1 Z-0.12 F20
G2 X0.4375 Y0.5 I0 J0.0625 F20
G1 X0.4375 Y1.497
G1 X0.4375 Y1.747
G1 X0.4375 Y3.5312
G1 X0.4375 Y3.8649
G1 X0.4375 Y4.78
G2 X0.5 Y4.8425 I0.0625 J0
G1 X1.8781 Y4.8425
G1 X2.3344 Y4.8425
G1 X3.8206 Y4.8425
G1 X4.0888 Y4.8425
G1 X5.1294 Y4.8425
G2 X5.1919 Y4.78 I0 J-0.0625
G1 X5.1919 Y4.1837
G1 X5.1919 Y3.7339
G1 X5.1919 Y1.3791
G1 X5.1919 Y0.9834
G1 X5.1919 Y0.5
G2 X5.1294 Y0.4375 I-0.0625 J0
G1 X4.2673 Y0.4375
G1 X4.0173 Y0.4375
G1 X1.8998 Y0.4375
G1 X1.4614 Y0.4375
G1 X0.5 Y0.4375
G1 Z-0.14 F20
G2 X0.4375 Y0.5 I0 J0.0625 F20
G1 X0.4375 Y1.497
G1 X0.4375 Y1.747
G1 X0.4375 Y3.5312
G1 X0.4375 Y3.8649
G1 X0.4375 Y4.78
G2 X0.5 Y4.8425 I0.0625 J0
G1 X1.8781 Y4.8425
G1 X2.3344 Y4.8425
G1 X3.8206 Y4.8425
G1 X4.0888 Y4.8425
G1 X5.1294 Y4.8425
G2 X5.1919 Y4.78 I0 J-0.0625
G1 X5.1919 Y4.1837
G1 X5.1919 Y3.7339
G1 X5.1919 Y1.3791
G1 X5.1919 Y0.9834
G1 X5.1919 Y0.5
G2 X5.1294 Y0.4375 I-0.0625 J0
G1 X4.2673 Y0.4375
G1 X4.0173 Y0.4375
G1 X1.8998 Y0.4375
G1 X1.4614 Y0.4375
G1 X0.5 Y0.4375
G1 Z-0.16 F20
G2 X0.4375 Y0.5 I0 J0.0625 F20
G1 X0.4375 Y1.497
G1 Z-0.15 F20
G1 X0.4375 Y1.747 F20
G1 Z-0.16 F20
G1 X0.4375 Y3.5312 F20
G1 Z-0.15 F20
G1 X0.4375 Y3.8649 F20
G1 Z-0.16 F20
G1 X0.4375 Y4.78 F20
G2 X0.5 Y4.8425 I0.0625 J0
G1 X1.8781 Y4.8425
G1 Z-0.15 F20
G1 X2.3344 Y4.8425 F20
G1 Z-0.16 F20
G1 X3.8206 Y4.8425 F20
G1 Z-0.15 F20
G1 X4.0888 Y4.8425 F20
G1 Z-0.16 F20
G1 X5.1294 Y4.8425 F20
G2 X5.1919 Y4.78 I0 J-0.0625
G1 X5.1919 Y4.1837
G1 Z-0.15 F20
G1 X5.1919 Y3.7339 F20
G1 Z-0.16 F20
G1 X5.1919 Y1.3791 F20
G1 Z-0.15 F20
G1 X5.1919 Y0.9834 F20
G1 Z-0.16 F20
G1 X5.1919 Y0.5 F20
G2 X5.1294 Y0.4375 I-0.0625 J0
G1 X4.2673 Y0.4375
G1 Z-0.15 F20
G1 X4.0173 Y0.4375 F20
G1 Z-0.16 F20
G1 X1.8998 Y0.4375 F20
G1 Z-0.15 F20
G1 X1.4614 Y0.4375 F20
G1 Z-0.16 F20
G1 X0.5 Y0.4375 F20
G1 Z-0.18 F20
G2 X0.4375 Y0.5 I0 J0.0625 F20
G1 X0.4375 Y1.497
G1 Z-0.15 F20
G1 X0.4375 Y1.747 F20
G1 Z-0.18 F20
G1 X0.4375 Y3.5312 F20
G1 Z-0.15 F20
G1 X0.4375 Y3.8649 F20
G1 Z-0.18 F20
G1 X0.4375 Y4.78 F20
G2 X0.5 Y4.8425 I0.0625 J0
G1 X1.8781 Y4.8425
G1 Z-0.15 F20
G1 X2.3344 Y4.8425 F20
G1 Z-0.18 F20
G1 X3.8206 Y4.8425 F20
G1 Z-0.15 F20
G1 X4.0888 Y4.8425 F20
G1 Z-0.18 F20
G1 X5.1294 Y4.8425 F20
G2 X5.1919 Y4.78 I0 J-0.0625
G1 X5.1919 Y4.1837
G1 Z-0.15 F20
G1 X5.1919 Y3.7339 F20
G1 Z-0.18 F20
G1 X5.1919 Y1.3791 F20
G1 Z-0.15 F20
G1 X5.1919 Y0.9834 F20
G1 Z-0.18 F20
G1 X5.1919 Y0.5 F20
G2 X5.1294 Y0.4375 I-0.0625 J0
G1 X4.2673 Y0.4375
G1 Z-0.15 F20
G1 X4.0173 Y0.4375 F20
G1 Z-0.18 F20
G1 X1.8998 Y0.4375 F20
G1 Z-0.15 F20
G1 X1.4614 Y0.4375 F20
G1 Z-0.18 F20
G1 X0.5 Y0.4375 F20
G1 Z-0.2 F20
G2 X0.4375 Y0.5 I0 J0.0625 F20
G1 X0.4375 Y1.497
G1 Z-0.15 F20
G1 X0.4375 Y1.747 F20
G1 Z-0.2 F20
G1 X0.4375 Y3.5312 F20
G1 Z-0.15 F20
G1 X0.4375 Y3.8649 F20
G1 Z-0.2 F20
G1 X0.4375 Y4.78 F20
G2 X0.5 Y4.8425 I0.0625 J0
G1 X1.8781 Y4.8425
G1 Z-0.15 F20
G1 X2.3344 Y4.8425 F20
G1 Z-0.2 F20
G1 X3.8206 Y4.8425 F20
G1 Z-0.15 F20
G1 X4.0888 Y4.8425 F20
G1 Z-0.2 F20
G1 X5.1294 Y4.8425 F20
G2 X5.1919 Y4.78 I0 J-0.0625
G1 X5.1919 Y4.1837
G1 Z-0.15 F20
G1 X5.1919 Y3.7339 F20
G1 Z-0.2 F20
G1 X5.1919 Y1.3791 F20
G1 Z-0.15 F20
G1 X5.1919 Y0.9834 F20
G1 Z-0.2 F20
G1 X5.1919 Y0.5 F20
G2 X5.1294 Y0.4375 I-0.0625 J0
G1 X4.2673 Y0.4375
G1 Z-0.15 F20
G1 X4.0173 Y0.4375 F20
G1 Z-0.2 F20
G1 X1.8998 Y0.4375 F20
G1 Z-0.15 F20
G1 X1.4614 Y0.4375 F20
G1 Z-0.2 F20
G1 X0.5 Y0.4375 F20
G1 Z-0.22 F20
G2 X0.4375 Y0.5 I0 J0.0625 F20
G1 X0.4375 Y1.497
G1 Z-0.15 F20
G1 X0.4375 Y1.747 F20
G1 Z-0.22 F20
G1 X0.4375 Y3.5312 F20
G1 Z-0.15 F20
G1 X0.4375 Y3.8649 F20
G1 Z-0.22 F20
G1 X0.4375 Y4.78 F20
G2 X0.5 Y4.8425 I0.0625 J0
G1 X1.8781 Y4.8425
G1 Z-0.15 F20
G1 X2.3344 Y4.8425 F20
G1 Z-0.22 F20
G1 X3.8206 Y4.8425 F20
G1 Z-0.15 F20
G1 X4.0888 Y4.8425 F20
G1 Z-0.22 F20
G1 X5.1294 Y4.8425 F20
G2 X5.1919 Y4.78 I0 J-0.0625
G1 X5.1919 Y4.1837
G1 Z-0.15 F20
G1 X5.1919 Y3.7339 F20
G1 Z-0.22 F20
G1 X5.1919 Y1.3791 F20
G1 Z-0.15 F20
G1 X5.1919 Y0.9834 F20
G1 Z-0.22 F20
G1 X5.1919 Y0.5 F20
G2 X5.1294 Y0.4375 I-0.0625 J0
G1 X4.2673 Y0.4375
G1 Z-0.15 F20
G1 X4.0173 Y0.4375 F20
G1 Z-0.22 F20
G1 X1.8998 Y0.4375 F20
G1 Z-0.15 F20
G1 X1.4614 Y0.4375 F20
G1 Z-0.22 F20
G1 X0.5 Y0.4375 F20
G1 Z-0.24 F20
G2 X0.4375 Y0.5 I0 J0.0625 F20
G1 X0.4375 Y1.497
G1 Z-0.15 F20
G1 X0.4375 Y1.747 F20
G1 Z-0.24 F20
G1 X0.4375 Y3.5312 F20
G1 Z-0.15 F20
G1 X0.4375 Y3.8649 F20
G1 Z-0.24 F20
G1 X0.4375 Y4.78 F20
G2 X0.5 Y4.8425 I0.0625 J0
G1 X1.8781 Y4.8425
G1 Z-0.15 F20
G1 X2.3344 Y4.8425 F20
G1 Z-0.24 F20
G1 X3.8206 Y4.8425 F20
G1 Z-0.15 F20
G1 X4.0888 Y4.8425 F20
G1 Z-0.24 F20
G1 X5.1294 Y4.8425 F20
G2 X5.1919 Y4.78 I0 J-0.0625
G1 X5.1919 Y4.1837
G1 Z-0.15 F20
G1 X5.1919 Y3.7339 F20
G1 Z-0.24 F20
G1 X5.1919 Y1.3791 F20
G1 Z-0.15 F20
G1 X5.1919 Y0.9834 F20
G1 Z-0.24 F20
G1 X5.1919 Y0.5 F20
G2 X5.1294 Y0.4375 I-0.0625 J0
G1 X4.2673 Y0.4375
G1 Z-0.15 F20
G1 X4.0173 Y0.4375 F20
G1 Z-0.24 F20
G1 X1.8998 Y0.4375 F20
G1 Z-0.15 F20
G1 X1.4614 Y0.4375 F20
G1 Z-0.24 F20
G1 X0.5 Y0.4375 F20
G1 Z-0.25 F20
G2 X0.4375 Y0.5 I0 J0.0625 F20
G1 X0.4375 Y1.497
G1 Z-0.15 F20
G1 X0.4375 Y1.747 F20
G1 Z-0.25 F20
G1 X0.4375 Y3.5312 F20
G1 Z-0.15 F20
G1 X0.4375 Y3.8649 F20
G1 Z-0.25 F20
G1 X0.4375 Y4.78 F20
G2 X0.5 Y4.8425 I0.0625 J0
G1 X1.8781 Y4.8425
G1 Z-0.15 F20
G1 X2.3344 Y4.8425 F20
G1 Z-0.25 F20
G1 X3.8206 Y4.8425 F20
G1 Z-0.15 F20
G1 X4.0888 Y4.8425 F20
G1 Z-0.25 F20
G1 X5.1294 Y4.8425 F20
G2 X5.1919 Y4.78 I0 J-0.0625
G1 X5.1919 Y4.1837
G1 Z-0.15 F20
G1 X5.1919 Y3.7339 F20
G1 Z-0.25 F20
G1 X5.1919 Y1.3791 F20
G1 Z-0.15 F20
G1 X5.1919 Y0.9834 F20
G1 Z-0.25 F20
G1 X5.1919 Y0.5 F20
G2 X5.1294 Y0.4375 I-0.0625 J0
G1 X4.2673 Y0.4375
G1 Z-0.15 F20
G1 X4.0173 Y0.4375 F20
G1 Z-0.25 F20
G1 X1.8998 Y0.4375 F20
G1 Z-0.15 F20
G1 X1.4614 Y0.4375 F20
G1 Z-0.25 F20
G1 X0.5 Y0.4375 F20
G0 Z0.25
M5
M30
