(Generated by PartKam Version 0.05)

G20 G90 G40

(drill 1-0)
G0 Z0.25
T0 M6
G17
M3
G0 X2.8079 Y2.1184
G1 Z-0.125 F20
G1 Z0 F20
G1 Z-0.25 F20
G1 Z0 F20
G1 Z-0.375 F20
G1 Z0 F20
G1 Z-0.5 F20
G1 Z0 F20
G1 Z-0.625 F20
G1 Z0 F20
G1 Z-0.75 F20
G1 Z0 F20
G1 Z-0.78 F20
G1 Z0 F20

(drill 1-1)
G0 Z0.25
G0 X0.7069 Y0.8632
G1 Z-0.125 F20
G1 Z0 F20
G1 Z-0.25 F20
G1 Z0 F20
G1 Z-0.375 F20
G1 Z0 F20
G1 Z-0.5 F20
G1 Z0 F20
G1 Z-0.625 F20
G1 Z0 F20
G1 Z-0.75 F20
G1 Z0 F20
G1 Z-0.78 F20
G1 Z0 F20

(drill 1-2)
G0 Z0.25
G0 X1.5779 Y0.8632
G1 Z-0.125 F20
G1 Z0 F20
G1 Z-0.25 F20
G1 Z0 F20
G1 Z-0.375 F20
G1 Z0 F20
G1 Z-0.5 F20
G1 Z0 F20
G1 Z-0.625 F20
G1 Z0 F20
G1 Z-0.75 F20
G1 Z0 F20
G1 Z-0.78 F20
G1 Z0 F20

(drill 1-3)
G0 Z0.25
G0 X2.4489 Y0.8632
G1 Z-0.125 F20
G1 Z0 F20
G1 Z-0.25 F20
G1 Z0 F20
G1 Z-0.375 F20
G1 Z0 F20
G1 Z-0.5 F20
G1 Z0 F20
G1 Z-0.625 F20
G1 Z0 F20
G1 Z-0.75 F20
G1 Z0 F20
G1 Z-0.78 F20
G1 Z0 F20

(drill 1-4)
G0 Z0.25
G0 X3.3198 Y0.8632
G1 Z-0.125 F20
G1 Z0 F20
G1 Z-0.25 F20
G1 Z0 F20
G1 Z-0.375 F20
G1 Z0 F20
G1 Z-0.5 F20
G1 Z0 F20
G1 Z-0.625 F20
G1 Z0 F20
G1 Z-0.75 F20
G1 Z0 F20
G1 Z-0.78 F20
G1 Z0 F20

(drill 1-5)
G0 Z0.25
G0 X1.1816 Y3.8934
G1 Z-0.125 F20
G1 Z0 F20
G1 Z-0.25 F20
G1 Z0 F20
G1 Z-0.375 F20
G1 Z0 F20
G1 Z-0.5 F20
G1 Z0 F20
G1 Z-0.625 F20
G1 Z0 F20
G1 Z-0.75 F20
G1 Z0 F20
G1 Z-0.78 F20
G1 Z0 F20

(drill 1-6)
G0 Z0.25
G0 X6.2497 Y3.1619
G1 Z-0.125 F20
G1 Z0 F20
G1 Z-0.25 F20
G1 Z0 F20
G1 Z-0.375 F20
G1 Z0 F20
G1 Z-0.5 F20
G1 Z0 F20
G1 Z-0.625 F20
G1 Z0 F20
G1 Z-0.75 F20
G1 Z0 F20
G1 Z-0.78 F20
G1 Z0 F20

(drill 1-7)
G0 Z0.25
G0 X4.1487 Y4.4171
G1 Z-0.125 F20
G1 Z0 F20
G1 Z-0.25 F20
G1 Z0 F20
G1 Z-0.375 F20
G1 Z0 F20
G1 Z-0.5 F20
G1 Z0 F20
G1 Z-0.625 F20
G1 Z0 F20
G1 Z-0.75 F20
G1 Z0 F20
G1 Z-0.78 F20
G1 Z0 F20

(drill 1-8)
G0 Z0.25
G0 X5.0196 Y4.4171
G1 Z-0.125 F20
G1 Z0 F20
G1 Z-0.25 F20
G1 Z0 F20
G1 Z-0.375 F20
G1 Z0 F20
G1 Z-0.5 F20
G1 Z0 F20
G1 Z-0.625 F20
G1 Z0 F20
G1 Z-0.75 F20
G1 Z0 F20
G1 Z-0.78 F20
G1 Z0 F20

(drill 1-9)
G0 Z0.25
G0 X5.8906 Y4.4171
G1 Z-0.125 F20
G1 Z0 F20
G1 Z-0.25 F20
G1 Z0 F20
G1 Z-0.375 F20
G1 Z0 F20
G1 Z-0.5 F20
G1 Z0 F20
G1 Z-0.625 F20
G1 Z0 F20
G1 Z-0.75 F20
G1 Z0 F20
G1 Z-0.78 F20
G1 Z0 F20

(drill 1-10)
G0 Z0.25
G0 X6.7615 Y4.4171
G1 Z-0.125 F20
G1 Z0 F20
G1 Z-0.25 F20
G1 Z0 F20
G1 Z-0.375 F20
G1 Z0 F20
G1 Z-0.5 F20
G1 Z0 F20
G1 Z-0.625 F20
G1 Z0 F20
G1 Z-0.75 F20
G1 Z0 F20
G1 Z-0.78 F20
G1 Z0 F20

(drill 1-11)
G0 Z0.25
G0 X4.6234 Y1.3868
G1 Z-0.125 F20
G1 Z0 F20
G1 Z-0.25 F20
G1 Z0 F20
G1 Z-0.375 F20
G1 Z0 F20
G1 Z-0.5 F20
G1 Z0 F20
G1 Z-0.625 F20
G1 Z0 F20
G1 Z-0.75 F20
G1 Z0 F20
G1 Z-0.78 F20
G1 Z0 F20

(pocket 13-0)
G0 Z0.5
G0 X3.5042 Y0.9414
G1 Z-0.02 F20
G1 X0.5382 Y0.9414 F20
G1 X0.5382 Y0.7889
G1 X3.5042 Y0.7889
G1 X3.5042 Y0.9414
G1 X3.6167 Y1.0539 F20
G1 X0.4257 Y1.0539 F20
G1 X0.4257 Y0.6764
G1 X3.6167 Y0.6764
G1 X3.6167 Y1.0539
G1 X3.7292 Y1.1664 F20
G1 X0.3132 Y1.1664 F20
G1 X0.3132 Y0.5639
G1 X3.7292 Y0.5639
G1 X3.7292 Y1.1664
G0 Z0.5
G0 X3.5042 Y0.9414
G1 Z-0.04 F20
G1 X0.5382 Y0.9414 F20
G1 X0.5382 Y0.7889
G1 X3.5042 Y0.7889
G1 X3.5042 Y0.9414
G1 X3.6167 Y1.0539 F20
G1 X0.4257 Y1.0539 F20
G1 X0.4257 Y0.6764
G1 X3.6167 Y0.6764
G1 X3.6167 Y1.0539
G1 X3.7292 Y1.1664 F20
G1 X0.3132 Y1.1664 F20
G1 X0.3132 Y0.5639
G1 X3.7292 Y0.5639
G1 X3.7292 Y1.1664
G0 Z0.5
G0 X3.5042 Y0.9414
G1 Z-0.06 F20
G1 X0.5382 Y0.9414 F20
G1 X0.5382 Y0.7889
G1 X3.5042 Y0.7889
G1 X3.5042 Y0.9414
G1 X3.6167 Y1.0539 F20
G1 X0.4257 Y1.0539 F20
G1 X0.4257 Y0.6764
G1 X3.6167 Y0.6764
G1 X3.6167 Y1.0539
G1 X3.7292 Y1.1664 F20
G1 X0.3132 Y1.1664 F20
G1 X0.3132 Y0.5639
G1 X3.7292 Y0.5639
G1 X3.7292 Y1.1664
G0 Z0.5
G0 X3.5042 Y0.9414
G1 Z-0.08 F20
G1 X0.5382 Y0.9414 F20
G1 X0.5382 Y0.7889
G1 X3.5042 Y0.7889
G1 X3.5042 Y0.9414
G1 X3.6167 Y1.0539 F20
G1 X0.4257 Y1.0539 F20
G1 X0.4257 Y0.6764
G1 X3.6167 Y0.6764
G1 X3.6167 Y1.0539
G1 X3.7292 Y1.1664 F20
G1 X0.3132 Y1.1664 F20
G1 X0.3132 Y0.5639
G1 X3.7292 Y0.5639
G1 X3.7292 Y1.1664
G0 Z0.5
G0 X3.5042 Y0.9414
G1 Z-0.1 F20
G1 X0.5382 Y0.9414 F20
G1 X0.5382 Y0.7889
G1 X3.5042 Y0.7889
G1 X3.5042 Y0.9414
G1 X3.6167 Y1.0539 F20
G1 X0.4257 Y1.0539 F20
G1 X0.4257 Y0.6764
G1 X3.6167 Y0.6764
G1 X3.6167 Y1.0539
G1 X3.7292 Y1.1664 F20
G1 X0.3132 Y1.1664 F20
G1 X0.3132 Y0.5639
G1 X3.7292 Y0.5639
G1 X3.7292 Y1.1664
G0 Z0.5
G0 X3.5042 Y0.9414
G1 Z-0.12 F20
G1 X0.5382 Y0.9414 F20
G1 X0.5382 Y0.7889
G1 X3.5042 Y0.7889
G1 X3.5042 Y0.9414
G1 X3.6167 Y1.0539 F20
G1 X0.4257 Y1.0539 F20
G1 X0.4257 Y0.6764
G1 X3.6167 Y0.6764
G1 X3.6167 Y1.0539
G1 X3.7292 Y1.1664 F20
G1 X0.3132 Y1.1664 F20
G1 X0.3132 Y0.5639
G1 X3.7292 Y0.5639
G1 X3.7292 Y1.1664
G0 Z0.5
G0 X3.5042 Y0.9414
G1 Z-0.14 F20
G1 X0.5382 Y0.9414 F20
G1 X0.5382 Y0.7889
G1 X3.5042 Y0.7889
G1 X3.5042 Y0.9414
G1 X3.6167 Y1.0539 F20
G1 X0.4257 Y1.0539 F20
G1 X0.4257 Y0.6764
G1 X3.6167 Y0.6764
G1 X3.6167 Y1.0539
G1 X3.7292 Y1.1664 F20
G1 X0.3132 Y1.1664 F20
G1 X0.3132 Y0.5639
G1 X3.7292 Y0.5639
G1 X3.7292 Y1.1664
G0 Z0.5
G0 X3.5042 Y0.9414
G1 Z-0.16 F20
G1 X0.5382 Y0.9414 F20
G1 X0.5382 Y0.7889
G1 X3.5042 Y0.7889
G1 X3.5042 Y0.9414
G1 X3.6167 Y1.0539 F20
G1 X0.4257 Y1.0539 F20
G1 X0.4257 Y0.6764
G1 X3.6167 Y0.6764
G1 X3.6167 Y1.0539
G1 X3.7292 Y1.1664 F20
G1 X0.3132 Y1.1664 F20
G1 X0.3132 Y0.5639
G1 X3.7292 Y0.5639
G1 X3.7292 Y1.1664
G0 Z0.5
G0 X3.5042 Y0.9414
G1 Z-0.18 F20
G1 X0.5382 Y0.9414 F20
G1 X0.5382 Y0.7889
G1 X3.5042 Y0.7889
G1 X3.5042 Y0.9414
G1 X3.6167 Y1.0539 F20
G1 X0.4257 Y1.0539 F20
G1 X0.4257 Y0.6764
G1 X3.6167 Y0.6764
G1 X3.6167 Y1.0539
G1 X3.7292 Y1.1664 F20
G1 X0.3132 Y1.1664 F20
G1 X0.3132 Y0.5639
G1 X3.7292 Y0.5639
G1 X3.7292 Y1.1664
G0 Z0.5
G0 X3.5042 Y0.9414
G1 Z-0.2 F20
G1 X0.5382 Y0.9414 F20
G1 X0.5382 Y0.7889
G1 X3.5042 Y0.7889
G1 X3.5042 Y0.9414
G1 X3.6167 Y1.0539 F20
G1 X0.4257 Y1.0539 F20
G1 X0.4257 Y0.6764
G1 X3.6167 Y0.6764
G1 X3.6167 Y1.0539
G1 X3.7292 Y1.1664 F20
G1 X0.3132 Y1.1664 F20
G1 X0.3132 Y0.5639
G1 X3.7292 Y0.5639
G1 X3.7292 Y1.1664
G0 Z0.5
G0 X3.5042 Y0.9414
G1 Z-0.22 F20
G1 X0.5382 Y0.9414 F20
G1 X0.5382 Y0.7889
G1 X3.5042 Y0.7889
G1 X3.5042 Y0.9414
G1 X3.6167 Y1.0539 F20
G1 X0.4257 Y1.0539 F20
G1 X0.4257 Y0.6764
G1 X3.6167 Y0.6764
G1 X3.6167 Y1.0539
G1 X3.7292 Y1.1664 F20
G1 X0.3132 Y1.1664 F20
G1 X0.3132 Y0.5639
G1 X3.7292 Y0.5639
G1 X3.7292 Y1.1664
G0 Z0.5
G0 X3.5042 Y0.9414
G1 Z-0.24 F20
G1 X0.5382 Y0.9414 F20
G1 X0.5382 Y0.7889
G1 X3.5042 Y0.7889
G1 X3.5042 Y0.9414
G1 X3.6167 Y1.0539 F20
G1 X0.4257 Y1.0539 F20
G1 X0.4257 Y0.6764
G1 X3.6167 Y0.6764
G1 X3.6167 Y1.0539
G1 X3.7292 Y1.1664 F20
G1 X0.3132 Y1.1664 F20
G1 X0.3132 Y0.5639
G1 X3.7292 Y0.5639
G1 X3.7292 Y1.1664
G0 Z0.5
G0 X3.5042 Y0.9414
G1 Z-0.26 F20
G1 X0.5382 Y0.9414 F20
G1 X0.5382 Y0.7889
G1 X3.5042 Y0.7889
G1 X3.5042 Y0.9414
G1 X3.6167 Y1.0539 F20
G1 X0.4257 Y1.0539 F20
G1 X0.4257 Y0.6764
G1 X3.6167 Y0.6764
G1 X3.6167 Y1.0539
G1 X3.7292 Y1.1664 F20
G1 X0.3132 Y1.1664 F20
G1 X0.3132 Y0.5639
G1 X3.7292 Y0.5639
G1 X3.7292 Y1.1664
G0 Z0.5
G0 X3.5042 Y0.9414
G1 Z-0.28 F20
G1 X0.5382 Y0.9414 F20
G1 X0.5382 Y0.7889
G1 X3.5042 Y0.7889
G1 X3.5042 Y0.9414
G1 X3.6167 Y1.0539 F20
G1 X0.4257 Y1.0539 F20
G1 X0.4257 Y0.6764
G1 X3.6167 Y0.6764
G1 X3.6167 Y1.0539
G1 X3.7292 Y1.1664 F20
G1 X0.3132 Y1.1664 F20
G1 X0.3132 Y0.5639
G1 X3.7292 Y0.5639
G1 X3.7292 Y1.1664
G0 Z0.5
G0 X3.5042 Y0.9414
G1 Z-0.3 F20
G1 X0.5382 Y0.9414 F20
G1 X0.5382 Y0.7889
G1 X3.5042 Y0.7889
G1 X3.5042 Y0.9414
G1 X3.6167 Y1.0539 F20
G1 X0.4257 Y1.0539 F20
G1 X0.4257 Y0.6764
G1 X3.6167 Y0.6764
G1 X3.6167 Y1.0539
G1 X3.7292 Y1.1664 F20
G1 X0.3132 Y1.1664 F20
G1 X0.3132 Y0.5639
G1 X3.7292 Y0.5639
G1 X3.7292 Y1.1664
G0 Z0.5
G0 X3.5042 Y0.9414
G1 Z-0.32 F20
G1 X0.5382 Y0.9414 F20
G1 X0.5382 Y0.7889
G1 X3.5042 Y0.7889
G1 X3.5042 Y0.9414
G1 X3.6167 Y1.0539 F20
G1 X0.4257 Y1.0539 F20
G1 X0.4257 Y0.6764
G1 X3.6167 Y0.6764
G1 X3.6167 Y1.0539
G1 X3.7292 Y1.1664 F20
G1 X0.3132 Y1.1664 F20
G1 X0.3132 Y0.5639
G1 X3.7292 Y0.5639
G1 X3.7292 Y1.1664
G0 Z0.5
G0 X3.5042 Y0.9414
G1 Z-0.34 F20
G1 X0.5382 Y0.9414 F20
G1 X0.5382 Y0.7889
G1 X3.5042 Y0.7889
G1 X3.5042 Y0.9414
G1 X3.6167 Y1.0539 F20
G1 X0.4257 Y1.0539 F20
G1 X0.4257 Y0.6764
G1 X3.6167 Y0.6764
G1 X3.6167 Y1.0539
G1 X3.7292 Y1.1664 F20
G1 X0.3132 Y1.1664 F20
G1 X0.3132 Y0.5639
G1 X3.7292 Y0.5639
G1 X3.7292 Y1.1664
G0 Z0.5
G0 X3.5042 Y0.9414
G1 Z-0.36 F20
G1 X0.5382 Y0.9414 F20
G1 X0.5382 Y0.7889
G1 X3.5042 Y0.7889
G1 X3.5042 Y0.9414
G1 X3.6167 Y1.0539 F20
G1 X0.4257 Y1.0539 F20
G1 X0.4257 Y0.6764
G1 X3.6167 Y0.6764
G1 X3.6167 Y1.0539
G1 X3.7292 Y1.1664 F20
G1 X0.3132 Y1.1664 F20
G1 X0.3132 Y0.5639
G1 X3.7292 Y0.5639
G1 X3.7292 Y1.1664
G0 Z0.5
G0 X3.5042 Y0.9414
G1 Z-0.365 F20
G1 X0.5382 Y0.9414 F20
G1 X0.5382 Y0.7889
G1 X3.5042 Y0.7889
G1 X3.5042 Y0.9414
G1 X3.6167 Y1.0539 F20
G1 X0.4257 Y1.0539 F20
G1 X0.4257 Y0.6764
G1 X3.6167 Y0.6764
G1 X3.6167 Y1.0539
G1 X3.7292 Y1.1664 F20
G1 X0.3132 Y1.1664 F20
G1 X0.3132 Y0.5639
G1 X3.7292 Y0.5639
G1 X3.7292 Y1.1664

(pocket 13-1)
G0 Z0.5
G0 X6.9459 Y4.4913
G1 Z-0.02 F20
G1 X3.9799 Y4.4913 F20
G1 X3.9799 Y4.3389
G1 X6.9459 Y4.3389
G1 X6.9459 Y4.4913
G1 X7.0584 Y4.6038 F20
G1 X3.8674 Y4.6038 F20
G1 X3.8674 Y4.2264
G1 X7.0584 Y4.2264
G1 X7.0584 Y4.6038
G1 X7.1709 Y4.7163 F20
G1 X3.7549 Y4.7163 F20
G1 X3.7549 Y4.1139
G1 X7.1709 Y4.1139
G1 X7.1709 Y4.7163
G0 Z0.5
G0 X6.9459 Y4.4913
G1 Z-0.04 F20
G1 X3.9799 Y4.4913 F20
G1 X3.9799 Y4.3389
G1 X6.9459 Y4.3389
G1 X6.9459 Y4.4913
G1 X7.0584 Y4.6038 F20
G1 X3.8674 Y4.6038 F20
G1 X3.8674 Y4.2264
G1 X7.0584 Y4.2264
G1 X7.0584 Y4.6038
G1 X7.1709 Y4.7163 F20
G1 X3.7549 Y4.7163 F20
G1 X3.7549 Y4.1139
G1 X7.1709 Y4.1139
G1 X7.1709 Y4.7163
G0 Z0.5
G0 X6.9459 Y4.4913
G1 Z-0.06 F20
G1 X3.9799 Y4.4913 F20
G1 X3.9799 Y4.3389
G1 X6.9459 Y4.3389
G1 X6.9459 Y4.4913
G1 X7.0584 Y4.6038 F20
G1 X3.8674 Y4.6038 F20
G1 X3.8674 Y4.2264
G1 X7.0584 Y4.2264
G1 X7.0584 Y4.6038
G1 X7.1709 Y4.7163 F20
G1 X3.7549 Y4.7163 F20
G1 X3.7549 Y4.1139
G1 X7.1709 Y4.1139
G1 X7.1709 Y4.7163
G0 Z0.5
G0 X6.9459 Y4.4913
G1 Z-0.08 F20
G1 X3.9799 Y4.4913 F20
G1 X3.9799 Y4.3389
G1 X6.9459 Y4.3389
G1 X6.9459 Y4.4913
G1 X7.0584 Y4.6038 F20
G1 X3.8674 Y4.6038 F20
G1 X3.8674 Y4.2264
G1 X7.0584 Y4.2264
G1 X7.0584 Y4.6038
G1 X7.1709 Y4.7163 F20
G1 X3.7549 Y4.7163 F20
G1 X3.7549 Y4.1139
G1 X7.1709 Y4.1139
G1 X7.1709 Y4.7163
G0 Z0.5
G0 X6.9459 Y4.4913
G1 Z-0.1 F20
G1 X3.9799 Y4.4913 F20
G1 X3.9799 Y4.3389
G1 X6.9459 Y4.3389
G1 X6.9459 Y4.4913
G1 X7.0584 Y4.6038 F20
G1 X3.8674 Y4.6038 F20
G1 X3.8674 Y4.2264
G1 X7.0584 Y4.2264
G1 X7.0584 Y4.6038
G1 X7.1709 Y4.7163 F20
G1 X3.7549 Y4.7163 F20
G1 X3.7549 Y4.1139
G1 X7.1709 Y4.1139
G1 X7.1709 Y4.7163
G0 Z0.5
G0 X6.9459 Y4.4913
G1 Z-0.12 F20
G1 X3.9799 Y4.4913 F20
G1 X3.9799 Y4.3389
G1 X6.9459 Y4.3389
G1 X6.9459 Y4.4913
G1 X7.0584 Y4.6038 F20
G1 X3.8674 Y4.6038 F20
G1 X3.8674 Y4.2264
G1 X7.0584 Y4.2264
G1 X7.0584 Y4.6038
G1 X7.1709 Y4.7163 F20
G1 X3.7549 Y4.7163 F20
G1 X3.7549 Y4.1139
G1 X7.1709 Y4.1139
G1 X7.1709 Y4.7163
G0 Z0.5
G0 X6.9459 Y4.4913
G1 Z-0.14 F20
G1 X3.9799 Y4.4913 F20
G1 X3.9799 Y4.3389
G1 X6.9459 Y4.3389
G1 X6.9459 Y4.4913
G1 X7.0584 Y4.6038 F20
G1 X3.8674 Y4.6038 F20
G1 X3.8674 Y4.2264
G1 X7.0584 Y4.2264
G1 X7.0584 Y4.6038
G1 X7.1709 Y4.7163 F20
G1 X3.7549 Y4.7163 F20
G1 X3.7549 Y4.1139
G1 X7.1709 Y4.1139
G1 X7.1709 Y4.7163
G0 Z0.5
G0 X6.9459 Y4.4913
G1 Z-0.16 F20
G1 X3.9799 Y4.4913 F20
G1 X3.9799 Y4.3389
G1 X6.9459 Y4.3389
G1 X6.9459 Y4.4913
G1 X7.0584 Y4.6038 F20
G1 X3.8674 Y4.6038 F20
G1 X3.8674 Y4.2264
G1 X7.0584 Y4.2264
G1 X7.0584 Y4.6038
G1 X7.1709 Y4.7163 F20
G1 X3.7549 Y4.7163 F20
G1 X3.7549 Y4.1139
G1 X7.1709 Y4.1139
G1 X7.1709 Y4.7163
G0 Z0.5
G0 X6.9459 Y4.4913
G1 Z-0.18 F20
G1 X3.9799 Y4.4913 F20
G1 X3.9799 Y4.3389
G1 X6.9459 Y4.3389
G1 X6.9459 Y4.4913
G1 X7.0584 Y4.6038 F20
G1 X3.8674 Y4.6038 F20
G1 X3.8674 Y4.2264
G1 X7.0584 Y4.2264
G1 X7.0584 Y4.6038
G1 X7.1709 Y4.7163 F20
G1 X3.7549 Y4.7163 F20
G1 X3.7549 Y4.1139
G1 X7.1709 Y4.1139
G1 X7.1709 Y4.7163
G0 Z0.5
G0 X6.9459 Y4.4913
G1 Z-0.2 F20
G1 X3.9799 Y4.4913 F20
G1 X3.9799 Y4.3389
G1 X6.9459 Y4.3389
G1 X6.9459 Y4.4913
G1 X7.0584 Y4.6038 F20
G1 X3.8674 Y4.6038 F20
G1 X3.8674 Y4.2264
G1 X7.0584 Y4.2264
G1 X7.0584 Y4.6038
G1 X7.1709 Y4.7163 F20
G1 X3.7549 Y4.7163 F20
G1 X3.7549 Y4.1139
G1 X7.1709 Y4.1139
G1 X7.1709 Y4.7163
G0 Z0.5
G0 X6.9459 Y4.4913
G1 Z-0.22 F20
G1 X3.9799 Y4.4913 F20
G1 X3.9799 Y4.3389
G1 X6.9459 Y4.3389
G1 X6.9459 Y4.4913
G1 X7.0584 Y4.6038 F20
G1 X3.8674 Y4.6038 F20
G1 X3.8674 Y4.2264
G1 X7.0584 Y4.2264
G1 X7.0584 Y4.6038
G1 X7.1709 Y4.7163 F20
G1 X3.7549 Y4.7163 F20
G1 X3.7549 Y4.1139
G1 X7.1709 Y4.1139
G1 X7.1709 Y4.7163
G0 Z0.5
G0 X6.9459 Y4.4913
G1 Z-0.24 F20
G1 X3.9799 Y4.4913 F20
G1 X3.9799 Y4.3389
G1 X6.9459 Y4.3389
G1 X6.9459 Y4.4913
G1 X7.0584 Y4.6038 F20
G1 X3.8674 Y4.6038 F20
G1 X3.8674 Y4.2264
G1 X7.0584 Y4.2264
G1 X7.0584 Y4.6038
G1 X7.1709 Y4.7163 F20
G1 X3.7549 Y4.7163 F20
G1 X3.7549 Y4.1139
G1 X7.1709 Y4.1139
G1 X7.1709 Y4.7163
G0 Z0.5
G0 X6.9459 Y4.4913
G1 Z-0.26 F20
G1 X3.9799 Y4.4913 F20
G1 X3.9799 Y4.3389
G1 X6.9459 Y4.3389
G1 X6.9459 Y4.4913
G1 X7.0584 Y4.6038 F20
G1 X3.8674 Y4.6038 F20
G1 X3.8674 Y4.2264
G1 X7.0584 Y4.2264
G1 X7.0584 Y4.6038
G1 X7.1709 Y4.7163 F20
G1 X3.7549 Y4.7163 F20
G1 X3.7549 Y4.1139
G1 X7.1709 Y4.1139
G1 X7.1709 Y4.7163
G0 Z0.5
G0 X6.9459 Y4.4913
G1 Z-0.28 F20
G1 X3.9799 Y4.4913 F20
G1 X3.9799 Y4.3389
G1 X6.9459 Y4.3389
G1 X6.9459 Y4.4913
G1 X7.0584 Y4.6038 F20
G1 X3.8674 Y4.6038 F20
G1 X3.8674 Y4.2264
G1 X7.0584 Y4.2264
G1 X7.0584 Y4.6038
G1 X7.1709 Y4.7163 F20
G1 X3.7549 Y4.7163 F20
G1 X3.7549 Y4.1139
G1 X7.1709 Y4.1139
G1 X7.1709 Y4.7163
G0 Z0.5
G0 X6.9459 Y4.4913
G1 Z-0.3 F20
G1 X3.9799 Y4.4913 F20
G1 X3.9799 Y4.3389
G1 X6.9459 Y4.3389
G1 X6.9459 Y4.4913
G1 X7.0584 Y4.6038 F20
G1 X3.8674 Y4.6038 F20
G1 X3.8674 Y4.2264
G1 X7.0584 Y4.2264
G1 X7.0584 Y4.6038
G1 X7.1709 Y4.7163 F20
G1 X3.7549 Y4.7163 F20
G1 X3.7549 Y4.1139
G1 X7.1709 Y4.1139
G1 X7.1709 Y4.7163
G0 Z0.5
G0 X6.9459 Y4.4913
G1 Z-0.32 F20
G1 X3.9799 Y4.4913 F20
G1 X3.9799 Y4.3389
G1 X6.9459 Y4.3389
G1 X6.9459 Y4.4913
G1 X7.0584 Y4.6038 F20
G1 X3.8674 Y4.6038 F20
G1 X3.8674 Y4.2264
G1 X7.0584 Y4.2264
G1 X7.0584 Y4.6038
G1 X7.1709 Y4.7163 F20
G1 X3.7549 Y4.7163 F20
G1 X3.7549 Y4.1139
G1 X7.1709 Y4.1139
G1 X7.1709 Y4.7163
G0 Z0.5
G0 X6.9459 Y4.4913
G1 Z-0.34 F20
G1 X3.9799 Y4.4913 F20
G1 X3.9799 Y4.3389
G1 X6.9459 Y4.3389
G1 X6.9459 Y4.4913
G1 X7.0584 Y4.6038 F20
G1 X3.8674 Y4.6038 F20
G1 X3.8674 Y4.2264
G1 X7.0584 Y4.2264
G1 X7.0584 Y4.6038
G1 X7.1709 Y4.7163 F20
G1 X3.7549 Y4.7163 F20
G1 X3.7549 Y4.1139
G1 X7.1709 Y4.1139
G1 X7.1709 Y4.7163
G0 Z0.5
G0 X6.9459 Y4.4913
G1 Z-0.36 F20
G1 X3.9799 Y4.4913 F20
G1 X3.9799 Y4.3389
G1 X6.9459 Y4.3389
G1 X6.9459 Y4.4913
G1 X7.0584 Y4.6038 F20
G1 X3.8674 Y4.6038 F20
G1 X3.8674 Y4.2264
G1 X7.0584 Y4.2264
G1 X7.0584 Y4.6038
G1 X7.1709 Y4.7163 F20
G1 X3.7549 Y4.7163 F20
G1 X3.7549 Y4.1139
G1 X7.1709 Y4.1139
G1 X7.1709 Y4.7163
G0 Z0.5
G0 X6.9459 Y4.4913
G1 Z-0.365 F20
G1 X3.9799 Y4.4913 F20
G1 X3.9799 Y4.3389
G1 X6.9459 Y4.3389
G1 X6.9459 Y4.4913
G1 X7.0584 Y4.6038 F20
G1 X3.8674 Y4.6038 F20
G1 X3.8674 Y4.2264
G1 X7.0584 Y4.2264
G1 X7.0584 Y4.6038
G1 X7.1709 Y4.7163 F20
G1 X3.7549 Y4.7163 F20
G1 X3.7549 Y4.1139
G1 X7.1709 Y4.1139
G1 X7.1709 Y4.7163

(profile 15-0)
G0 Z0.25
G0 X3.6972 Y1.2301
G1 Z-0.02 F20
G1 X3.6972 Y0.5007 F20
G2 X3.6347 Y0.4382 I-0.0625 J0
G1 X2.2301 Y0.4382
G1 X1.9801 Y0.4382
G1 X0.4076 Y0.4382
G2 X0.3451 Y0.5007 I0 J0.0625
G1 X0.3451 Y1.0758
G1 X0.3451 Y1.2331
G1 X0.3451 Y1.3258
G1 X0.3446 Y3.8489
G1 X0.3446 Y4.1297
G1 X0.3444 Y4.7795
G1 X0.3444 Y4.7796
G2 X0.4069 Y4.8421 I0.0625 J0
G1 X1.9355 Y4.8421
G1 X2.1855 Y4.8421
G1 X3.6355 Y4.8421
G2 X3.698 Y4.7796 I0 J-0.0625
G1 X3.698 Y4.7795
G1 X3.6978 Y4.1435
G1 X3.6978 Y3.8935
G1 X3.6972 Y1.4801
G1 X3.6972 Y1.2301
G1 Z-0.04 F20
G1 X3.6972 Y0.5007 F20
G2 X3.6347 Y0.4382 I-0.0625 J0
G1 X2.2301 Y0.4382
G1 X1.9801 Y0.4382
G1 X0.4076 Y0.4382
G2 X0.3451 Y0.5007 I0 J0.0625
G1 X0.3451 Y1.0758
G1 X0.3451 Y1.2331
G1 X0.3451 Y1.3258
G1 X0.3446 Y3.8489
G1 X0.3446 Y4.1297
G1 X0.3444 Y4.7795
G1 X0.3444 Y4.7796
G2 X0.4069 Y4.8421 I0.0625 J0
G1 X1.9355 Y4.8421
G1 X2.1855 Y4.8421
G1 X3.6355 Y4.8421
G2 X3.698 Y4.7796 I0 J-0.0625
G1 X3.698 Y4.7795
G1 X3.6978 Y4.1435
G1 X3.6978 Y3.8935
G1 X3.6972 Y1.4801
G1 X3.6972 Y1.2301
G1 Z-0.06 F20
G1 X3.6972 Y0.5007 F20
G2 X3.6347 Y0.4382 I-0.0625 J0
G1 X2.2301 Y0.4382
G1 X1.9801 Y0.4382
G1 X0.4076 Y0.4382
G2 X0.3451 Y0.5007 I0 J0.0625
G1 X0.3451 Y1.0758
G1 X0.3451 Y1.2331
G1 X0.3451 Y1.3258
G1 X0.3446 Y3.8489
G1 X0.3446 Y4.1297
G1 X0.3444 Y4.7795
G1 X0.3444 Y4.7796
G2 X0.4069 Y4.8421 I0.0625 J0
G1 X1.9355 Y4.8421
G1 X2.1855 Y4.8421
G1 X3.6355 Y4.8421
G2 X3.698 Y4.7796 I0 J-0.0625
G1 X3.698 Y4.7795
G1 X3.6978 Y4.1435
G1 X3.6978 Y3.8935
G1 X3.6972 Y1.4801
G1 X3.6972 Y1.2301
G1 Z-0.08 F20
G1 X3.6972 Y0.5007 F20
G2 X3.6347 Y0.4382 I-0.0625 J0
G1 X2.2301 Y0.4382
G1 X1.9801 Y0.4382
G1 X0.4076 Y0.4382
G2 X0.3451 Y0.5007 I0 J0.0625
G1 X0.3451 Y1.0758
G1 X0.3451 Y1.2331
G1 X0.3451 Y1.3258
G1 X0.3446 Y3.8489
G1 X0.3446 Y4.1297
G1 X0.3444 Y4.7795
G1 X0.3444 Y4.7796
G2 X0.4069 Y4.8421 I0.0625 J0
G1 X1.9355 Y4.8421
G1 X2.1855 Y4.8421
G1 X3.6355 Y4.8421
G2 X3.698 Y4.7796 I0 J-0.0625
G1 X3.698 Y4.7795
G1 X3.6978 Y4.1435
G1 X3.6978 Y3.8935
G1 X3.6972 Y1.4801
G1 X3.6972 Y1.2301
G1 Z-0.1 F20
G1 X3.6972 Y0.5007 F20
G2 X3.6347 Y0.4382 I-0.0625 J0
G1 X2.2301 Y0.4382
G1 X1.9801 Y0.4382
G1 X0.4076 Y0.4382
G2 X0.3451 Y0.5007 I0 J0.0625
G1 X0.3451 Y1.0758
G1 X0.3451 Y1.2331
G1 X0.3451 Y1.3258
G1 X0.3446 Y3.8489
G1 X0.3446 Y4.1297
G1 X0.3444 Y4.7795
G1 X0.3444 Y4.7796
G2 X0.4069 Y4.8421 I0.0625 J0
G1 X1.9355 Y4.8421
G1 X2.1855 Y4.8421
G1 X3.6355 Y4.8421
G2 X3.698 Y4.7796 I0 J-0.0625
G1 X3.698 Y4.7795
G1 X3.6978 Y4.1435
G1 X3.6978 Y3.8935
G1 X3.6972 Y1.4801
G1 X3.6972 Y1.2301
G1 Z-0.12 F20
G1 X3.6972 Y0.5007 F20
G2 X3.6347 Y0.4382 I-0.0625 J0
G1 X2.2301 Y0.4382
G1 X1.9801 Y0.4382
G1 X0.4076 Y0.4382
G2 X0.3451 Y0.5007 I0 J0.0625
G1 X0.3451 Y1.0758
G1 X0.3451 Y1.2331
G1 X0.3451 Y1.3258
G1 X0.3446 Y3.8489
G1 X0.3446 Y4.1297
G1 X0.3444 Y4.7795
G1 X0.3444 Y4.7796
G2 X0.4069 Y4.8421 I0.0625 J0
G1 X1.9355 Y4.8421
G1 X2.1855 Y4.8421
G1 X3.6355 Y4.8421
G2 X3.698 Y4.7796 I0 J-0.0625
G1 X3.698 Y4.7795
G1 X3.6978 Y4.1435
G1 X3.6978 Y3.8935
G1 X3.6972 Y1.4801
G1 X3.6972 Y1.2301
G1 Z-0.14 F20
G1 X3.6972 Y0.5007 F20
G2 X3.6347 Y0.4382 I-0.0625 J0
G1 X2.2301 Y0.4382
G1 X1.9801 Y0.4382
G1 X0.4076 Y0.4382
G2 X0.3451 Y0.5007 I0 J0.0625
G1 X0.3451 Y1.0758
G1 X0.3451 Y1.2331
G1 X0.3451 Y1.3258
G1 X0.3446 Y3.8489
G1 X0.3446 Y4.1297
G1 X0.3444 Y4.7795
G1 X0.3444 Y4.7796
G2 X0.4069 Y4.8421 I0.0625 J0
G1 X1.9355 Y4.8421
G1 X2.1855 Y4.8421
G1 X3.6355 Y4.8421
G2 X3.698 Y4.7796 I0 J-0.0625
G1 X3.698 Y4.7795
G1 X3.6978 Y4.1435
G1 X3.6978 Y3.8935
G1 X3.6972 Y1.4801
G1 X3.6972 Y1.2301
G1 Z-0.16 F20
G1 X3.6972 Y0.5007 F20
G2 X3.6347 Y0.4382 I-0.0625 J0
G1 X2.2301 Y0.4382
G1 X1.9801 Y0.4382
G1 X0.4076 Y0.4382
G2 X0.3451 Y0.5007 I0 J0.0625
G1 X0.3451 Y1.0758
G1 X0.3451 Y1.2331
G1 X0.3451 Y1.3258
G1 X0.3446 Y3.8489
G1 X0.3446 Y4.1297
G1 X0.3444 Y4.7795
G1 X0.3444 Y4.7796
G2 X0.4069 Y4.8421 I0.0625 J0
G1 X1.9355 Y4.8421
G1 X2.1855 Y4.8421
G1 X3.6355 Y4.8421
G2 X3.698 Y4.7796 I0 J-0.0625
G1 X3.698 Y4.7795
G1 X3.6978 Y4.1435
G1 X3.6978 Y3.8935
G1 X3.6972 Y1.4801
G1 X3.6972 Y1.2301
G1 Z-0.18 F20
G1 X3.6972 Y0.5007 F20
G2 X3.6347 Y0.4382 I-0.0625 J0
G1 X2.2301 Y0.4382
G1 X1.9801 Y0.4382
G1 X0.4076 Y0.4382
G2 X0.3451 Y0.5007 I0 J0.0625
G1 X0.3451 Y1.0758
G1 X0.3451 Y1.2331
G1 X0.3451 Y1.3258
G1 X0.3446 Y3.8489
G1 X0.3446 Y4.1297
G1 X0.3444 Y4.7795
G1 X0.3444 Y4.7796
G2 X0.4069 Y4.8421 I0.0625 J0
G1 X1.9355 Y4.8421
G1 X2.1855 Y4.8421
G1 X3.6355 Y4.8421
G2 X3.698 Y4.7796 I0 J-0.0625
G1 X3.698 Y4.7795
G1 X3.6978 Y4.1435
G1 X3.6978 Y3.8935
G1 X3.6972 Y1.4801
G1 X3.6972 Y1.2301
G1 Z-0.2 F20
G1 X3.6972 Y0.5007 F20
G2 X3.6347 Y0.4382 I-0.0625 J0
G1 X2.2301 Y0.4382
G1 X1.9801 Y0.4382
G1 X0.4076 Y0.4382
G2 X0.3451 Y0.5007 I0 J0.0625
G1 X0.3451 Y1.0758
G1 X0.3451 Y1.2331
G1 X0.3451 Y1.3258
G1 X0.3446 Y3.8489
G1 X0.3446 Y4.1297
G1 X0.3444 Y4.7795
G1 X0.3444 Y4.7796
G2 X0.4069 Y4.8421 I0.0625 J0
G1 X1.9355 Y4.8421
G1 X2.1855 Y4.8421
G1 X3.6355 Y4.8421
G2 X3.698 Y4.7796 I0 J-0.0625
G1 X3.698 Y4.7795
G1 X3.6978 Y4.1435
G1 X3.6978 Y3.8935
G1 X3.6972 Y1.4801
G1 X3.6972 Y1.2301
G1 Z-0.22 F20
G1 X3.6972 Y0.5007 F20
G2 X3.6347 Y0.4382 I-0.0625 J0
G1 X2.2301 Y0.4382
G1 X1.9801 Y0.4382
G1 X0.4076 Y0.4382
G2 X0.3451 Y0.5007 I0 J0.0625
G1 X0.3451 Y1.0758
G1 X0.3451 Y1.2331
G1 X0.3451 Y1.3258
G1 X0.3446 Y3.8489
G1 X0.3446 Y4.1297
G1 X0.3444 Y4.7795
G1 X0.3444 Y4.7796
G2 X0.4069 Y4.8421 I0.0625 J0
G1 X1.9355 Y4.8421
G1 X2.1855 Y4.8421
G1 X3.6355 Y4.8421
G2 X3.698 Y4.7796 I0 J-0.0625
G1 X3.698 Y4.7795
G1 X3.6978 Y4.1435
G1 X3.6978 Y3.8935
G1 X3.6972 Y1.4801
G1 X3.6972 Y1.2301
G1 Z-0.24 F20
G1 X3.6972 Y0.5007 F20
G2 X3.6347 Y0.4382 I-0.0625 J0
G1 X2.2301 Y0.4382
G1 X1.9801 Y0.4382
G1 X0.4076 Y0.4382
G2 X0.3451 Y0.5007 I0 J0.0625
G1 X0.3451 Y1.0758
G1 X0.3451 Y1.2331
G1 X0.3451 Y1.3258
G1 X0.3446 Y3.8489
G1 X0.3446 Y4.1297
G1 X0.3444 Y4.7795
G1 X0.3444 Y4.7796
G2 X0.4069 Y4.8421 I0.0625 J0
G1 X1.9355 Y4.8421
G1 X2.1855 Y4.8421
G1 X3.6355 Y4.8421
G2 X3.698 Y4.7796 I0 J-0.0625
G1 X3.698 Y4.7795
G1 X3.6978 Y4.1435
G1 X3.6978 Y3.8935
G1 X3.6972 Y1.4801
G1 X3.6972 Y1.2301
G1 Z-0.26 F20
G1 X3.6972 Y0.5007 F20
G2 X3.6347 Y0.4382 I-0.0625 J0
G1 X2.2301 Y0.4382
G1 X1.9801 Y0.4382
G1 X0.4076 Y0.4382
G2 X0.3451 Y0.5007 I0 J0.0625
G1 X0.3451 Y1.0758
G1 X0.3451 Y1.2331
G1 X0.3451 Y1.3258
G1 X0.3446 Y3.8489
G1 X0.3446 Y4.1297
G1 X0.3444 Y4.7795
G1 X0.3444 Y4.7796
G2 X0.4069 Y4.8421 I0.0625 J0
G1 X1.9355 Y4.8421
G1 X2.1855 Y4.8421
G1 X3.6355 Y4.8421
G2 X3.698 Y4.7796 I0 J-0.0625
G1 X3.698 Y4.7795
G1 X3.6978 Y4.1435
G1 X3.6978 Y3.8935
G1 X3.6972 Y1.4801
G1 X3.6972 Y1.2301
G1 Z-0.28 F20
G1 X3.6972 Y0.5007 F20
G2 X3.6347 Y0.4382 I-0.0625 J0
G1 X2.2301 Y0.4382
G1 X1.9801 Y0.4382
G1 X0.4076 Y0.4382
G2 X0.3451 Y0.5007 I0 J0.0625
G1 X0.3451 Y1.0758
G1 X0.3451 Y1.2331
G1 X0.3451 Y1.3258
G1 X0.3446 Y3.8489
G1 X0.3446 Y4.1297
G1 X0.3444 Y4.7795
G1 X0.3444 Y4.7796
G2 X0.4069 Y4.8421 I0.0625 J0
G1 X1.9355 Y4.8421
G1 X2.1855 Y4.8421
G1 X3.6355 Y4.8421
G2 X3.698 Y4.7796 I0 J-0.0625
G1 X3.698 Y4.7795
G1 X3.6978 Y4.1435
G1 X3.6978 Y3.8935
G1 X3.6972 Y1.4801
G1 X3.6972 Y1.2301
G1 Z-0.3 F20
G1 X3.6972 Y0.5007 F20
G2 X3.6347 Y0.4382 I-0.0625 J0
G1 X2.2301 Y0.4382
G1 X1.9801 Y0.4382
G1 X0.4076 Y0.4382
G2 X0.3451 Y0.5007 I0 J0.0625
G1 X0.3451 Y1.0758
G1 X0.3451 Y1.2331
G1 X0.3451 Y1.3258
G1 X0.3446 Y3.8489
G1 X0.3446 Y4.1297
G1 X0.3444 Y4.7795
G1 X0.3444 Y4.7796
G2 X0.4069 Y4.8421 I0.0625 J0
G1 X1.9355 Y4.8421
G1 X2.1855 Y4.8421
G1 X3.6355 Y4.8421
G2 X3.698 Y4.7796 I0 J-0.0625
G1 X3.698 Y4.7795
G1 X3.6978 Y4.1435
G1 X3.6978 Y3.8935
G1 X3.6972 Y1.4801
G1 X3.6972 Y1.2301
G1 Z-0.32 F20
G1 X3.6972 Y0.5007 F20
G2 X3.6347 Y0.4382 I-0.0625 J0
G1 X2.2301 Y0.4382
G1 X1.9801 Y0.4382
G1 X0.4076 Y0.4382
G2 X0.3451 Y0.5007 I0 J0.0625
G1 X0.3451 Y1.0758
G1 X0.3451 Y1.2331
G1 X0.3451 Y1.3258
G1 X0.3446 Y3.8489
G1 X0.3446 Y4.1297
G1 X0.3444 Y4.7795
G1 X0.3444 Y4.7796
G2 X0.4069 Y4.8421 I0.0625 J0
G1 X1.9355 Y4.8421
G1 X2.1855 Y4.8421
G1 X3.6355 Y4.8421
G2 X3.698 Y4.7796 I0 J-0.0625
G1 X3.698 Y4.7795
G1 X3.6978 Y4.1435
G1 X3.6978 Y3.8935
G1 X3.6972 Y1.4801
G1 X3.6972 Y1.2301
G1 Z-0.34 F20
G1 X3.6972 Y0.5007 F20
G2 X3.6347 Y0.4382 I-0.0625 J0
G1 X2.2301 Y0.4382
G1 X1.9801 Y0.4382
G1 X0.4076 Y0.4382
G2 X0.3451 Y0.5007 I0 J0.0625
G1 X0.3451 Y1.0758
G1 X0.3451 Y1.2331
G1 X0.3451 Y1.3258
G1 X0.3446 Y3.8489
G1 X0.3446 Y4.1297
G1 X0.3444 Y4.7795
G1 X0.3444 Y4.7796
G2 X0.4069 Y4.8421 I0.0625 J0
G1 X1.9355 Y4.8421
G1 X2.1855 Y4.8421
G1 X3.6355 Y4.8421
G2 X3.698 Y4.7796 I0 J-0.0625
G1 X3.698 Y4.7795
G1 X3.6978 Y4.1435
G1 X3.6978 Y3.8935
G1 X3.6972 Y1.4801
G1 X3.6972 Y1.2301
G1 Z-0.36 F20
G1 X3.6972 Y0.5007 F20
G2 X3.6347 Y0.4382 I-0.0625 J0
G1 X2.2301 Y0.4382
G1 X1.9801 Y0.4382
G1 X0.4076 Y0.4382
G2 X0.3451 Y0.5007 I0 J0.0625
G1 X0.3451 Y1.0758
G1 X0.3451 Y1.2331
G1 X0.3451 Y1.3258
G1 X0.3446 Y3.8489
G1 X0.3446 Y4.1297
G1 X0.3444 Y4.7795
G1 X0.3444 Y4.7796
G2 X0.4069 Y4.8421 I0.0625 J0
G1 X1.9355 Y4.8421
G1 X2.1855 Y4.8421
G1 X3.6355 Y4.8421
G2 X3.698 Y4.7796 I0 J-0.0625
G1 X3.698 Y4.7795
G1 X3.6978 Y4.1435
G1 X3.6978 Y3.8935
G1 X3.6972 Y1.4801
G1 X3.6972 Y1.2301
G1 Z-0.38 F20
G1 X3.6972 Y0.5007 F20
G2 X3.6347 Y0.4382 I-0.0625 J0
G1 X2.2301 Y0.4382
G1 X1.9801 Y0.4382
G1 X0.4076 Y0.4382
G2 X0.3451 Y0.5007 I0 J0.0625
G1 X0.3451 Y1.0758
G1 X0.3451 Y1.2331
G1 X0.3451 Y1.3258
G1 X0.3446 Y3.8489
G1 X0.3446 Y4.1297
G1 X0.3444 Y4.7795
G1 X0.3444 Y4.7796
G2 X0.4069 Y4.8421 I0.0625 J0
G1 X1.9355 Y4.8421
G1 X2.1855 Y4.8421
G1 X3.6355 Y4.8421
G2 X3.698 Y4.7796 I0 J-0.0625
G1 X3.698 Y4.7795
G1 X3.6978 Y4.1435
G1 X3.6978 Y3.8935
G1 X3.6972 Y1.4801
G1 X3.6972 Y1.2301
G1 Z-0.4 F20
G1 X3.6972 Y0.5007 F20
G2 X3.6347 Y0.4382 I-0.0625 J0
G1 X2.2301 Y0.4382
G1 X1.9801 Y0.4382
G1 X0.4076 Y0.4382
G2 X0.3451 Y0.5007 I0 J0.0625
G1 X0.3451 Y1.0758
G1 X0.3451 Y1.2331
G1 X0.3451 Y1.3258
G1 X0.3446 Y3.8489
G1 X0.3446 Y4.1297
G1 X0.3444 Y4.7795
G1 X0.3444 Y4.7796
G2 X0.4069 Y4.8421 I0.0625 J0
G1 X1.9355 Y4.8421
G1 X2.1855 Y4.8421
G1 X3.6355 Y4.8421
G2 X3.698 Y4.7796 I0 J-0.0625
G1 X3.698 Y4.7795
G1 X3.6978 Y4.1435
G1 X3.6978 Y3.8935
G1 X3.6972 Y1.4801
G1 X3.6972 Y1.2301
G1 Z-0.42 F20
G1 X3.6972 Y0.5007 F20
G2 X3.6347 Y0.4382 I-0.0625 J0
G1 X2.2301 Y0.4382
G1 X1.9801 Y0.4382
G1 X0.4076 Y0.4382
G2 X0.3451 Y0.5007 I0 J0.0625
G1 X0.3451 Y1.0758
G1 X0.3451 Y1.2331
G1 X0.3451 Y1.3258
G1 X0.3446 Y3.8489
G1 X0.3446 Y4.1297
G1 X0.3444 Y4.7795
G1 X0.3444 Y4.7796
G2 X0.4069 Y4.8421 I0.0625 J0
G1 X1.9355 Y4.8421
G1 X2.1855 Y4.8421
G1 X3.6355 Y4.8421
G2 X3.698 Y4.7796 I0 J-0.0625
G1 X3.698 Y4.7795
G1 X3.6978 Y4.1435
G1 X3.6978 Y3.8935
G1 X3.6972 Y1.4801
G1 X3.6972 Y1.2301
G1 Z-0.44 F20
G1 X3.6972 Y0.5007 F20
G2 X3.6347 Y0.4382 I-0.0625 J0
G1 X2.2301 Y0.4382
G1 X1.9801 Y0.4382
G1 X0.4076 Y0.4382
G2 X0.3451 Y0.5007 I0 J0.0625
G1 X0.3451 Y1.0758
G1 X0.3451 Y1.2331
G1 X0.3451 Y1.3258
G1 X0.3446 Y3.8489
G1 X0.3446 Y4.1297
G1 X0.3444 Y4.7795
G1 X0.3444 Y4.7796
G2 X0.4069 Y4.8421 I0.0625 J0
G1 X1.9355 Y4.8421
G1 X2.1855 Y4.8421
G1 X3.6355 Y4.8421
G2 X3.698 Y4.7796 I0 J-0.0625
G1 X3.698 Y4.7795
G1 X3.6978 Y4.1435
G1 X3.6978 Y3.8935
G1 X3.6972 Y1.4801
G1 X3.6972 Y1.2301
G1 Z-0.46 F20
G1 X3.6972 Y0.5007 F20
G2 X3.6347 Y0.4382 I-0.0625 J0
G1 X2.2301 Y0.4382
G1 X1.9801 Y0.4382
G1 X0.4076 Y0.4382
G2 X0.3451 Y0.5007 I0 J0.0625
G1 X0.3451 Y1.0758
G1 X0.3451 Y1.2331
G1 X0.3451 Y1.3258
G1 X0.3446 Y3.8489
G1 X0.3446 Y4.1297
G1 X0.3444 Y4.7795
G1 X0.3444 Y4.7796
G2 X0.4069 Y4.8421 I0.0625 J0
G1 X1.9355 Y4.8421
G1 X2.1855 Y4.8421
G1 X3.6355 Y4.8421
G2 X3.698 Y4.7796 I0 J-0.0625
G1 X3.698 Y4.7795
G1 X3.6978 Y4.1435
G1 X3.6978 Y3.8935
G1 X3.6972 Y1.4801
G1 X3.6972 Y1.2301
G1 Z-0.48 F20
G1 X3.6972 Y0.5007 F20
G2 X3.6347 Y0.4382 I-0.0625 J0
G1 X2.2301 Y0.4382
G1 X1.9801 Y0.4382
G1 X0.4076 Y0.4382
G2 X0.3451 Y0.5007 I0 J0.0625
G1 X0.3451 Y1.0758
G1 X0.3451 Y1.2331
G1 X0.3451 Y1.3258
G1 X0.3446 Y3.8489
G1 X0.3446 Y4.1297
G1 X0.3444 Y4.7795
G1 X0.3444 Y4.7796
G2 X0.4069 Y4.8421 I0.0625 J0
G1 X1.9355 Y4.8421
G1 X2.1855 Y4.8421
G1 X3.6355 Y4.8421
G2 X3.698 Y4.7796 I0 J-0.0625
G1 X3.698 Y4.7795
G1 X3.6978 Y4.1435
G1 X3.6978 Y3.8935
G1 X3.6972 Y1.4801
G1 X3.6972 Y1.2301
G1 Z-0.5 F20
G1 X3.6972 Y0.5007 F20
G2 X3.6347 Y0.4382 I-0.0625 J0
G1 X2.2301 Y0.4382
G1 X1.9801 Y0.4382
G1 X0.4076 Y0.4382
G2 X0.3451 Y0.5007 I0 J0.0625
G1 X0.3451 Y1.0758
G1 X0.3451 Y1.2331
G1 X0.3451 Y1.3258
G1 X0.3446 Y3.8489
G1 X0.3446 Y4.1297
G1 X0.3444 Y4.7795
G1 X0.3444 Y4.7796
G2 X0.4069 Y4.8421 I0.0625 J0
G1 X1.9355 Y4.8421
G1 X2.1855 Y4.8421
G1 X3.6355 Y4.8421
G2 X3.698 Y4.7796 I0 J-0.0625
G1 X3.698 Y4.7795
G1 X3.6978 Y4.1435
G1 X3.6978 Y3.8935
G1 X3.6972 Y1.4801
G1 X3.6972 Y1.2301
G1 Z-0.52 F20
G1 X3.6972 Y0.5007 F20
G2 X3.6347 Y0.4382 I-0.0625 J0
G1 X2.2301 Y0.4382
G1 X1.9801 Y0.4382
G1 X0.4076 Y0.4382
G2 X0.3451 Y0.5007 I0 J0.0625
G1 X0.3451 Y1.0758
G1 X0.3451 Y1.2331
G1 X0.3451 Y1.3258
G1 X0.3446 Y3.8489
G1 X0.3446 Y4.1297
G1 X0.3444 Y4.7795
G1 X0.3444 Y4.7796
G2 X0.4069 Y4.8421 I0.0625 J0
G1 X1.9355 Y4.8421
G1 X2.1855 Y4.8421
G1 X3.6355 Y4.8421
G2 X3.698 Y4.7796 I0 J-0.0625
G1 X3.698 Y4.7795
G1 X3.6978 Y4.1435
G1 X3.6978 Y3.8935
G1 X3.6972 Y1.4801
G1 X3.6972 Y1.2301
G1 Z-0.54 F20
G1 X3.6972 Y0.5007 F20
G2 X3.6347 Y0.4382 I-0.0625 J0
G1 X2.2301 Y0.4382
G1 X1.9801 Y0.4382
G1 X0.4076 Y0.4382
G2 X0.3451 Y0.5007 I0 J0.0625
G1 X0.3451 Y1.0758
G1 X0.3451 Y1.2331
G1 X0.3451 Y1.3258
G1 X0.3446 Y3.8489
G1 X0.3446 Y4.1297
G1 X0.3444 Y4.7795
G1 X0.3444 Y4.7796
G2 X0.4069 Y4.8421 I0.0625 J0
G1 X1.9355 Y4.8421
G1 X2.1855 Y4.8421
G1 X3.6355 Y4.8421
G2 X3.698 Y4.7796 I0 J-0.0625
G1 X3.698 Y4.7795
G1 X3.6978 Y4.1435
G1 X3.6978 Y3.8935
G1 X3.6972 Y1.4801
G1 X3.6972 Y1.2301
G1 Z-0.56 F20
G1 X3.6972 Y0.5007 F20
G2 X3.6347 Y0.4382 I-0.0625 J0
G1 X2.2301 Y0.4382
G1 X1.9801 Y0.4382
G1 X0.4076 Y0.4382
G2 X0.3451 Y0.5007 I0 J0.0625
G1 X0.3451 Y1.0758
G1 X0.3451 Y1.2331
G1 X0.3451 Y1.3258
G1 X0.3446 Y3.8489
G1 X0.3446 Y4.1297
G1 X0.3444 Y4.7795
G1 X0.3444 Y4.7796
G2 X0.4069 Y4.8421 I0.0625 J0
G1 X1.9355 Y4.8421
G1 X2.1855 Y4.8421
G1 X3.6355 Y4.8421
G2 X3.698 Y4.7796 I0 J-0.0625
G1 X3.698 Y4.7795
G1 X3.6978 Y4.1435
G1 X3.6978 Y3.8935
G1 X3.6972 Y1.4801
G1 X3.6972 Y1.2301
G1 Z-0.58 F20
G1 X3.6972 Y0.5007 F20
G2 X3.6347 Y0.4382 I-0.0625 J0
G1 X2.2301 Y0.4382
G1 X1.9801 Y0.4382
G1 X0.4076 Y0.4382
G2 X0.3451 Y0.5007 I0 J0.0625
G1 X0.3451 Y1.0758
G1 X0.3451 Y1.2331
G1 X0.3451 Y1.3258
G1 X0.3446 Y3.8489
G1 X0.3446 Y4.1297
G1 X0.3444 Y4.7795
G1 X0.3444 Y4.7796
G2 X0.4069 Y4.8421 I0.0625 J0
G1 X1.9355 Y4.8421
G1 X2.1855 Y4.8421
G1 X3.6355 Y4.8421
G2 X3.698 Y4.7796 I0 J-0.0625
G1 X3.698 Y4.7795
G1 X3.6978 Y4.1435
G1 X3.6978 Y3.8935
G1 X3.6972 Y1.4801
G1 X3.6972 Y1.2301
G1 Z-0.6 F20
G1 X3.6972 Y0.5007 F20
G2 X3.6347 Y0.4382 I-0.0625 J0
G1 X2.2301 Y0.4382
G1 X1.9801 Y0.4382
G1 X0.4076 Y0.4382
G2 X0.3451 Y0.5007 I0 J0.0625
G1 X0.3451 Y1.0758
G1 X0.3451 Y1.2331
G1 X0.3451 Y1.3258
G1 X0.3446 Y3.8489
G1 X0.3446 Y4.1297
G1 X0.3444 Y4.7795
G1 X0.3444 Y4.7796
G2 X0.4069 Y4.8421 I0.0625 J0
G1 X1.9355 Y4.8421
G1 X2.1855 Y4.8421
G1 X3.6355 Y4.8421
G2 X3.698 Y4.7796 I0 J-0.0625
G1 X3.698 Y4.7795
G1 X3.6978 Y4.1435
G1 X3.6978 Y3.8935
G1 X3.6972 Y1.4801
G1 X3.6972 Y1.2301
G1 Z-0.62 F20
G1 X3.6972 Y0.5007 F20
G2 X3.6347 Y0.4382 I-0.0625 J0
G1 X2.2301 Y0.4382
G1 X1.9801 Y0.4382
G1 X0.4076 Y0.4382
G2 X0.3451 Y0.5007 I0 J0.0625
G1 X0.3451 Y1.0758
G1 X0.3451 Y1.2331
G1 X0.3451 Y1.3258
G1 X0.3446 Y3.8489
G1 X0.3446 Y4.1297
G1 X0.3444 Y4.7795
G1 X0.3444 Y4.7796
G2 X0.4069 Y4.8421 I0.0625 J0
G1 X1.9355 Y4.8421
G1 X2.1855 Y4.8421
G1 X3.6355 Y4.8421
G2 X3.698 Y4.7796 I0 J-0.0625
G1 X3.698 Y4.7795
G1 X3.6978 Y4.1435
G1 X3.6978 Y3.8935
G1 X3.6972 Y1.4801
G1 X3.6972 Y1.2301
G1 Z-0.64 F20
G1 X3.6972 Y0.5007 F20
G2 X3.6347 Y0.4382 I-0.0625 J0
G1 X2.2301 Y0.4382
G1 X1.9801 Y0.4382
G1 X0.4076 Y0.4382
G2 X0.3451 Y0.5007 I0 J0.0625
G1 X0.3451 Y1.0758
G1 X0.3451 Y1.2331
G1 X0.3451 Y1.3258
G1 X0.3446 Y3.8489
G1 X0.3446 Y4.1297
G1 X0.3444 Y4.7795
G1 X0.3444 Y4.7796
G2 X0.4069 Y4.8421 I0.0625 J0
G1 X1.9355 Y4.8421
G1 X2.1855 Y4.8421
G1 X3.6355 Y4.8421
G2 X3.698 Y4.7796 I0 J-0.0625
G1 X3.698 Y4.7795
G1 X3.6978 Y4.1435
G1 X3.6978 Y3.8935
G1 X3.6972 Y1.4801
G1 X3.6972 Y1.2301
G1 Z-0.66 F20
G1 X3.6972 Y0.5007 F20
G2 X3.6347 Y0.4382 I-0.0625 J0
G1 X2.2301 Y0.4382
G1 X1.9801 Y0.4382
G1 X0.4076 Y0.4382
G2 X0.3451 Y0.5007 I0 J0.0625
G1 X0.3451 Y1.0758
G1 X0.3451 Y1.2331
G1 X0.3451 Y1.3258
G1 X0.3446 Y3.8489
G1 X0.3446 Y4.1297
G1 X0.3444 Y4.7795
G1 X0.3444 Y4.7796
G2 X0.4069 Y4.8421 I0.0625 J0
G1 X1.9355 Y4.8421
G1 X2.1855 Y4.8421
G1 X3.6355 Y4.8421
G2 X3.698 Y4.7796 I0 J-0.0625
G1 X3.698 Y4.7795
G1 X3.6978 Y4.1435
G1 X3.6978 Y3.8935
G1 X3.6972 Y1.4801
G1 X3.6972 Y1.2301
G1 Z-0.68 F20
G1 X3.6972 Y0.5007 F20
G2 X3.6347 Y0.4382 I-0.0625 J0
G1 X2.2301 Y0.4382
G1 X1.9801 Y0.4382
G1 X0.4076 Y0.4382
G2 X0.3451 Y0.5007 I0 J0.0625
G1 X0.3451 Y1.0758
G1 X0.3451 Y1.2331
G1 X0.3451 Y1.3258
G1 X0.3446 Y3.8489
G1 X0.3446 Y4.1297
G1 X0.3444 Y4.7795
G1 X0.3444 Y4.7796
G2 X0.4069 Y4.8421 I0.0625 J0
G1 X1.9355 Y4.8421
G1 X2.1855 Y4.8421
G1 X3.6355 Y4.8421
G2 X3.698 Y4.7796 I0 J-0.0625
G1 X3.698 Y4.7795
G1 X3.6978 Y4.1435
G1 X3.6978 Y3.8935
G1 X3.6972 Y1.4801
G1 X3.6972 Y1.2301
G1 Z-0.7 F20
G1 X3.6972 Y0.5007 F20
G2 X3.6347 Y0.4382 I-0.0625 J0
G1 X2.2301 Y0.4382
G1 Z-0.68 F20
G1 X1.9801 Y0.4382 F20
G1 Z-0.7 F20
G1 X0.4076 Y0.4382 F20
G2 X0.3451 Y0.5007 I0 J0.0625
G1 X0.3451 Y1.0758
G1 Z-0.68 F20
G1 X0.3451 Y1.2331 F20
G1 X0.3451 Y1.3258
G1 Z-0.7 F20
G1 X0.3446 Y3.8489 F20
G1 Z-0.68 F20
G1 X0.3446 Y4.1297 F20
G1 Z-0.7 F20
G1 X0.3444 Y4.7795 F20
G1 X0.3444 Y4.7796
G2 X0.4069 Y4.8421 I0.0625 J0
G1 X1.9355 Y4.8421
G1 Z-0.68 F20
G1 X2.1855 Y4.8421 F20
G1 Z-0.7 F20
G1 X3.6355 Y4.8421 F20
G2 X3.698 Y4.7796 I0 J-0.0625
G1 X3.698 Y4.7795
G1 X3.6978 Y4.1435
G1 Z-0.68 F20
G1 X3.6978 Y3.8935 F20
G1 Z-0.7 F20
G1 X3.6972 Y1.4801 F20
G1 Z-0.68 F20
G1 X3.6972 Y1.2301 F20
G1 Z-0.72 F20
G1 X3.6972 Y0.5007 F20
G2 X3.6347 Y0.4382 I-0.0625 J0
G1 X2.2301 Y0.4382
G1 Z-0.68 F20
G1 X1.9801 Y0.4382 F20
G1 Z-0.72 F20
G1 X0.4076 Y0.4382 F20
G2 X0.3451 Y0.5007 I0 J0.0625
G1 X0.3451 Y1.0758
G1 Z-0.68 F20
G1 X0.3451 Y1.2331 F20
G1 X0.3451 Y1.3258
G1 Z-0.72 F20
G1 X0.3446 Y3.8489 F20
G1 Z-0.68 F20
G1 X0.3446 Y4.1297 F20
G1 Z-0.72 F20
G1 X0.3444 Y4.7795 F20
G1 X0.3444 Y4.7796
G2 X0.4069 Y4.8421 I0.0625 J0
G1 X1.9355 Y4.8421
G1 Z-0.68 F20
G1 X2.1855 Y4.8421 F20
G1 Z-0.72 F20
G1 X3.6355 Y4.8421 F20
G2 X3.698 Y4.7796 I0 J-0.0625
G1 X3.698 Y4.7795
G1 X3.6978 Y4.1435
G1 Z-0.68 F20
G1 X3.6978 Y3.8935 F20
G1 Z-0.72 F20
G1 X3.6972 Y1.4801 F20
G1 Z-0.68 F20
G1 X3.6972 Y1.2301 F20
G1 Z-0.74 F20
G1 X3.6972 Y0.5007 F20
G2 X3.6347 Y0.4382 I-0.0625 J0
G1 X2.2301 Y0.4382
G1 Z-0.68 F20
G1 X1.9801 Y0.4382 F20
G1 Z-0.74 F20
G1 X0.4076 Y0.4382 F20
G2 X0.3451 Y0.5007 I0 J0.0625
G1 X0.3451 Y1.0758
G1 Z-0.68 F20
G1 X0.3451 Y1.2331 F20
G1 X0.3451 Y1.3258
G1 Z-0.74 F20
G1 X0.3446 Y3.8489 F20
G1 Z-0.68 F20
G1 X0.3446 Y4.1297 F20
G1 Z-0.74 F20
G1 X0.3444 Y4.7795 F20
G1 X0.3444 Y4.7796
G2 X0.4069 Y4.8421 I0.0625 J0
G1 X1.9355 Y4.8421
G1 Z-0.68 F20
G1 X2.1855 Y4.8421 F20
G1 Z-0.74 F20
G1 X3.6355 Y4.8421 F20
G2 X3.698 Y4.7796 I0 J-0.0625
G1 X3.698 Y4.7795
G1 X3.6978 Y4.1435
G1 Z-0.68 F20
G1 X3.6978 Y3.8935 F20
G1 Z-0.74 F20
G1 X3.6972 Y1.4801 F20
G1 Z-0.68 F20
G1 X3.6972 Y1.2301 F20
G1 Z-0.76 F20
G1 X3.6972 Y0.5007 F20
G2 X3.6347 Y0.4382 I-0.0625 J0
G1 X2.2301 Y0.4382
G1 Z-0.68 F20
G1 X1.9801 Y0.4382 F20
G1 Z-0.76 F20
G1 X0.4076 Y0.4382 F20
G2 X0.3451 Y0.5007 I0 J0.0625
G1 X0.3451 Y1.0758
G1 Z-0.68 F20
G1 X0.3451 Y1.2331 F20
G1 X0.3451 Y1.3258
G1 Z-0.76 F20
G1 X0.3446 Y3.8489 F20
G1 Z-0.68 F20
G1 X0.3446 Y4.1297 F20
G1 Z-0.76 F20
G1 X0.3444 Y4.7795 F20
G1 X0.3444 Y4.7796
G2 X0.4069 Y4.8421 I0.0625 J0
G1 X1.9355 Y4.8421
G1 Z-0.68 F20
G1 X2.1855 Y4.8421 F20
G1 Z-0.76 F20
G1 X3.6355 Y4.8421 F20
G2 X3.698 Y4.7796 I0 J-0.0625
G1 X3.698 Y4.7795
G1 X3.6978 Y4.1435
G1 Z-0.68 F20
G1 X3.6978 Y3.8935 F20
G1 Z-0.76 F20
G1 X3.6972 Y1.4801 F20
G1 Z-0.68 F20
G1 X3.6972 Y1.2301 F20
G1 Z-0.78 F20
G1 X3.6972 Y0.5007 F20
G2 X3.6347 Y0.4382 I-0.0625 J0
G1 X2.2301 Y0.4382
G1 Z-0.68 F20
G1 X1.9801 Y0.4382 F20
G1 Z-0.78 F20
G1 X0.4076 Y0.4382 F20
G2 X0.3451 Y0.5007 I0 J0.0625
G1 X0.3451 Y1.0758
G1 Z-0.68 F20
G1 X0.3451 Y1.2331 F20
G1 X0.3451 Y1.3258
G1 Z-0.78 F20
G1 X0.3446 Y3.8489 F20
G1 Z-0.68 F20
G1 X0.3446 Y4.1297 F20
G1 Z-0.78 F20
G1 X0.3444 Y4.7795 F20
G1 X0.3444 Y4.7796
G2 X0.4069 Y4.8421 I0.0625 J0
G1 X1.9355 Y4.8421
G1 Z-0.68 F20
G1 X2.1855 Y4.8421 F20
G1 Z-0.78 F20
G1 X3.6355 Y4.8421 F20
G2 X3.698 Y4.7796 I0 J-0.0625
G1 X3.698 Y4.7795
G1 X3.6978 Y4.1435
G1 Z-0.68 F20
G1 X3.6978 Y3.8935 F20
G1 Z-0.78 F20
G1 X3.6972 Y1.4801 F20
G1 Z-0.68 F20
G1 X3.6972 Y1.2301 F20

(profile 15-1)
G0 Z0.25
G0 X7.1397 Y0.5007
G1 Z-0.02 F20
G1 X7.1397 Y0.5007 F20
G2 X7.0772 Y0.4382 I-0.0625 J0
G1 X5.5749 Y0.4382
G1 X5.3249 Y0.4382
G1 X3.8487 Y0.4382
G2 X3.7862 Y0.5007 I0 J0.0625
G1 X3.7862 Y0.5007
G1 X3.7863 Y1.0758
G1 X3.7863 Y1.3258
G1 X3.7868 Y3.8989
G1 X3.7868 Y4.0471
G1 X3.7868 Y4.1489
G1 X3.7868 Y4.7796
G2 X3.8493 Y4.8421 I0.0625 J0
G1 X5.3355 Y4.8421
G1 X5.5855 Y4.8421
G1 X7.0764 Y4.8421
G2 X7.1389 Y4.7796 I0 J-0.0625
G1 X7.1389 Y4.1691
G1 X7.1389 Y4.0502
G1 X7.1389 Y3.9191
G1 X7.1395 Y1.3036
G1 X7.1396 Y1.0536
G1 X7.1397 Y0.5007
G1 Z-0.04 F20
G1 X7.1397 Y0.5007 F20
G2 X7.0772 Y0.4382 I-0.0625 J0
G1 X5.5749 Y0.4382
G1 X5.3249 Y0.4382
G1 X3.8487 Y0.4382
G2 X3.7862 Y0.5007 I0 J0.0625
G1 X3.7862 Y0.5007
G1 X3.7863 Y1.0758
G1 X3.7863 Y1.3258
G1 X3.7868 Y3.8989
G1 X3.7868 Y4.0471
G1 X3.7868 Y4.1489
G1 X3.7868 Y4.7796
G2 X3.8493 Y4.8421 I0.0625 J0
G1 X5.3355 Y4.8421
G1 X5.5855 Y4.8421
G1 X7.0764 Y4.8421
G2 X7.1389 Y4.7796 I0 J-0.0625
G1 X7.1389 Y4.1691
G1 X7.1389 Y4.0502
G1 X7.1389 Y3.9191
G1 X7.1395 Y1.3036
G1 X7.1396 Y1.0536
G1 X7.1397 Y0.5007
G1 Z-0.06 F20
G1 X7.1397 Y0.5007 F20
G2 X7.0772 Y0.4382 I-0.0625 J0
G1 X5.5749 Y0.4382
G1 X5.3249 Y0.4382
G1 X3.8487 Y0.4382
G2 X3.7862 Y0.5007 I0 J0.0625
G1 X3.7862 Y0.5007
G1 X3.7863 Y1.0758
G1 X3.7863 Y1.3258
G1 X3.7868 Y3.8989
G1 X3.7868 Y4.0471
G1 X3.7868 Y4.1489
G1 X3.7868 Y4.7796
G2 X3.8493 Y4.8421 I0.0625 J0
G1 X5.3355 Y4.8421
G1 X5.5855 Y4.8421
G1 X7.0764 Y4.8421
G2 X7.1389 Y4.7796 I0 J-0.0625
G1 X7.1389 Y4.1691
G1 X7.1389 Y4.0502
G1 X7.1389 Y3.9191
G1 X7.1395 Y1.3036
G1 X7.1396 Y1.0536
G1 X7.1397 Y0.5007
G1 Z-0.08 F20
G1 X7.1397 Y0.5007 F20
G2 X7.0772 Y0.4382 I-0.0625 J0
G1 X5.5749 Y0.4382
G1 X5.3249 Y0.4382
G1 X3.8487 Y0.4382
G2 X3.7862 Y0.5007 I0 J0.0625
G1 X3.7862 Y0.5007
G1 X3.7863 Y1.0758
G1 X3.7863 Y1.3258
G1 X3.7868 Y3.8989
G1 X3.7868 Y4.0471
G1 X3.7868 Y4.1489
G1 X3.7868 Y4.7796
G2 X3.8493 Y4.8421 I0.0625 J0
G1 X5.3355 Y4.8421
G1 X5.5855 Y4.8421
G1 X7.0764 Y4.8421
G2 X7.1389 Y4.7796 I0 J-0.0625
G1 X7.1389 Y4.1691
G1 X7.1389 Y4.0502
G1 X7.1389 Y3.9191
G1 X7.1395 Y1.3036
G1 X7.1396 Y1.0536
G1 X7.1397 Y0.5007
G1 Z-0.1 F20
G1 X7.1397 Y0.5007 F20
G2 X7.0772 Y0.4382 I-0.0625 J0
G1 X5.5749 Y0.4382
G1 X5.3249 Y0.4382
G1 X3.8487 Y0.4382
G2 X3.7862 Y0.5007 I0 J0.0625
G1 X3.7862 Y0.5007
G1 X3.7863 Y1.0758
G1 X3.7863 Y1.3258
G1 X3.7868 Y3.8989
G1 X3.7868 Y4.0471
G1 X3.7868 Y4.1489
G1 X3.7868 Y4.7796
G2 X3.8493 Y4.8421 I0.0625 J0
G1 X5.3355 Y4.8421
G1 X5.5855 Y4.8421
G1 X7.0764 Y4.8421
G2 X7.1389 Y4.7796 I0 J-0.0625
G1 X7.1389 Y4.1691
G1 X7.1389 Y4.0502
G1 X7.1389 Y3.9191
G1 X7.1395 Y1.3036
G1 X7.1396 Y1.0536
G1 X7.1397 Y0.5007
G1 Z-0.12 F20
G1 X7.1397 Y0.5007 F20
G2 X7.0772 Y0.4382 I-0.0625 J0
G1 X5.5749 Y0.4382
G1 X5.3249 Y0.4382
G1 X3.8487 Y0.4382
G2 X3.7862 Y0.5007 I0 J0.0625
G1 X3.7862 Y0.5007
G1 X3.7863 Y1.0758
G1 X3.7863 Y1.3258
G1 X3.7868 Y3.8989
G1 X3.7868 Y4.0471
G1 X3.7868 Y4.1489
G1 X3.7868 Y4.7796
G2 X3.8493 Y4.8421 I0.0625 J0
G1 X5.3355 Y4.8421
G1 X5.5855 Y4.8421
G1 X7.0764 Y4.8421
G2 X7.1389 Y4.7796 I0 J-0.0625
G1 X7.1389 Y4.1691
G1 X7.1389 Y4.0502
G1 X7.1389 Y3.9191
G1 X7.1395 Y1.3036
G1 X7.1396 Y1.0536
G1 X7.1397 Y0.5007
G1 Z-0.14 F20
G1 X7.1397 Y0.5007 F20
G2 X7.0772 Y0.4382 I-0.0625 J0
G1 X5.5749 Y0.4382
G1 X5.3249 Y0.4382
G1 X3.8487 Y0.4382
G2 X3.7862 Y0.5007 I0 J0.0625
G1 X3.7862 Y0.5007
G1 X3.7863 Y1.0758
G1 X3.7863 Y1.3258
G1 X3.7868 Y3.8989
G1 X3.7868 Y4.0471
G1 X3.7868 Y4.1489
G1 X3.7868 Y4.7796
G2 X3.8493 Y4.8421 I0.0625 J0
G1 X5.3355 Y4.8421
G1 X5.5855 Y4.8421
G1 X7.0764 Y4.8421
G2 X7.1389 Y4.7796 I0 J-0.0625
G1 X7.1389 Y4.1691
G1 X7.1389 Y4.0502
G1 X7.1389 Y3.9191
G1 X7.1395 Y1.3036
G1 X7.1396 Y1.0536
G1 X7.1397 Y0.5007
G1 Z-0.16 F20
G1 X7.1397 Y0.5007 F20
G2 X7.0772 Y0.4382 I-0.0625 J0
G1 X5.5749 Y0.4382
G1 X5.3249 Y0.4382
G1 X3.8487 Y0.4382
G2 X3.7862 Y0.5007 I0 J0.0625
G1 X3.7862 Y0.5007
G1 X3.7863 Y1.0758
G1 X3.7863 Y1.3258
G1 X3.7868 Y3.8989
G1 X3.7868 Y4.0471
G1 X3.7868 Y4.1489
G1 X3.7868 Y4.7796
G2 X3.8493 Y4.8421 I0.0625 J0
G1 X5.3355 Y4.8421
G1 X5.5855 Y4.8421
G1 X7.0764 Y4.8421
G2 X7.1389 Y4.7796 I0 J-0.0625
G1 X7.1389 Y4.1691
G1 X7.1389 Y4.0502
G1 X7.1389 Y3.9191
G1 X7.1395 Y1.3036
G1 X7.1396 Y1.0536
G1 X7.1397 Y0.5007
G1 Z-0.18 F20
G1 X7.1397 Y0.5007 F20
G2 X7.0772 Y0.4382 I-0.0625 J0
G1 X5.5749 Y0.4382
G1 X5.3249 Y0.4382
G1 X3.8487 Y0.4382
G2 X3.7862 Y0.5007 I0 J0.0625
G1 X3.7862 Y0.5007
G1 X3.7863 Y1.0758
G1 X3.7863 Y1.3258
G1 X3.7868 Y3.8989
G1 X3.7868 Y4.0471
G1 X3.7868 Y4.1489
G1 X3.7868 Y4.7796
G2 X3.8493 Y4.8421 I0.0625 J0
G1 X5.3355 Y4.8421
G1 X5.5855 Y4.8421
G1 X7.0764 Y4.8421
G2 X7.1389 Y4.7796 I0 J-0.0625
G1 X7.1389 Y4.1691
G1 X7.1389 Y4.0502
G1 X7.1389 Y3.9191
G1 X7.1395 Y1.3036
G1 X7.1396 Y1.0536
G1 X7.1397 Y0.5007
G1 Z-0.2 F20
G1 X7.1397 Y0.5007 F20
G2 X7.0772 Y0.4382 I-0.0625 J0
G1 X5.5749 Y0.4382
G1 X5.3249 Y0.4382
G1 X3.8487 Y0.4382
G2 X3.7862 Y0.5007 I0 J0.0625
G1 X3.7862 Y0.5007
G1 X3.7863 Y1.0758
G1 X3.7863 Y1.3258
G1 X3.7868 Y3.8989
G1 X3.7868 Y4.0471
G1 X3.7868 Y4.1489
G1 X3.7868 Y4.7796
G2 X3.8493 Y4.8421 I0.0625 J0
G1 X5.3355 Y4.8421
G1 X5.5855 Y4.8421
G1 X7.0764 Y4.8421
G2 X7.1389 Y4.7796 I0 J-0.0625
G1 X7.1389 Y4.1691
G1 X7.1389 Y4.0502
G1 X7.1389 Y3.9191
G1 X7.1395 Y1.3036
G1 X7.1396 Y1.0536
G1 X7.1397 Y0.5007
G1 Z-0.22 F20
G1 X7.1397 Y0.5007 F20
G2 X7.0772 Y0.4382 I-0.0625 J0
G1 X5.5749 Y0.4382
G1 X5.3249 Y0.4382
G1 X3.8487 Y0.4382
G2 X3.7862 Y0.5007 I0 J0.0625
G1 X3.7862 Y0.5007
G1 X3.7863 Y1.0758
G1 X3.7863 Y1.3258
G1 X3.7868 Y3.8989
G1 X3.7868 Y4.0471
G1 X3.7868 Y4.1489
G1 X3.7868 Y4.7796
G2 X3.8493 Y4.8421 I0.0625 J0
G1 X5.3355 Y4.8421
G1 X5.5855 Y4.8421
G1 X7.0764 Y4.8421
G2 X7.1389 Y4.7796 I0 J-0.0625
G1 X7.1389 Y4.1691
G1 X7.1389 Y4.0502
G1 X7.1389 Y3.9191
G1 X7.1395 Y1.3036
G1 X7.1396 Y1.0536
G1 X7.1397 Y0.5007
G1 Z-0.24 F20
G1 X7.1397 Y0.5007 F20
G2 X7.0772 Y0.4382 I-0.0625 J0
G1 X5.5749 Y0.4382
G1 X5.3249 Y0.4382
G1 X3.8487 Y0.4382
G2 X3.7862 Y0.5007 I0 J0.0625
G1 X3.7862 Y0.5007
G1 X3.7863 Y1.0758
G1 X3.7863 Y1.3258
G1 X3.7868 Y3.8989
G1 X3.7868 Y4.0471
G1 X3.7868 Y4.1489
G1 X3.7868 Y4.7796
G2 X3.8493 Y4.8421 I0.0625 J0
G1 X5.3355 Y4.8421
G1 X5.5855 Y4.8421
G1 X7.0764 Y4.8421
G2 X7.1389 Y4.7796 I0 J-0.0625
G1 X7.1389 Y4.1691
G1 X7.1389 Y4.0502
G1 X7.1389 Y3.9191
G1 X7.1395 Y1.3036
G1 X7.1396 Y1.0536
G1 X7.1397 Y0.5007
G1 Z-0.26 F20
G1 X7.1397 Y0.5007 F20
G2 X7.0772 Y0.4382 I-0.0625 J0
G1 X5.5749 Y0.4382
G1 X5.3249 Y0.4382
G1 X3.8487 Y0.4382
G2 X3.7862 Y0.5007 I0 J0.0625
G1 X3.7862 Y0.5007
G1 X3.7863 Y1.0758
G1 X3.7863 Y1.3258
G1 X3.7868 Y3.8989
G1 X3.7868 Y4.0471
G1 X3.7868 Y4.1489
G1 X3.7868 Y4.7796
G2 X3.8493 Y4.8421 I0.0625 J0
G1 X5.3355 Y4.8421
G1 X5.5855 Y4.8421
G1 X7.0764 Y4.8421
G2 X7.1389 Y4.7796 I0 J-0.0625
G1 X7.1389 Y4.1691
G1 X7.1389 Y4.0502
G1 X7.1389 Y3.9191
G1 X7.1395 Y1.3036
G1 X7.1396 Y1.0536
G1 X7.1397 Y0.5007
G1 Z-0.28 F20
G1 X7.1397 Y0.5007 F20
G2 X7.0772 Y0.4382 I-0.0625 J0
G1 X5.5749 Y0.4382
G1 X5.3249 Y0.4382
G1 X3.8487 Y0.4382
G2 X3.7862 Y0.5007 I0 J0.0625
G1 X3.7862 Y0.5007
G1 X3.7863 Y1.0758
G1 X3.7863 Y1.3258
G1 X3.7868 Y3.8989
G1 X3.7868 Y4.0471
G1 X3.7868 Y4.1489
G1 X3.7868 Y4.7796
G2 X3.8493 Y4.8421 I0.0625 J0
G1 X5.3355 Y4.8421
G1 X5.5855 Y4.8421
G1 X7.0764 Y4.8421
G2 X7.1389 Y4.7796 I0 J-0.0625
G1 X7.1389 Y4.1691
G1 X7.1389 Y4.0502
G1 X7.1389 Y3.9191
G1 X7.1395 Y1.3036
G1 X7.1396 Y1.0536
G1 X7.1397 Y0.5007
G1 Z-0.3 F20
G1 X7.1397 Y0.5007 F20
G2 X7.0772 Y0.4382 I-0.0625 J0
G1 X5.5749 Y0.4382
G1 X5.3249 Y0.4382
G1 X3.8487 Y0.4382
G2 X3.7862 Y0.5007 I0 J0.0625
G1 X3.7862 Y0.5007
G1 X3.7863 Y1.0758
G1 X3.7863 Y1.3258
G1 X3.7868 Y3.8989
G1 X3.7868 Y4.0471
G1 X3.7868 Y4.1489
G1 X3.7868 Y4.7796
G2 X3.8493 Y4.8421 I0.0625 J0
G1 X5.3355 Y4.8421
G1 X5.5855 Y4.8421
G1 X7.0764 Y4.8421
G2 X7.1389 Y4.7796 I0 J-0.0625
G1 X7.1389 Y4.1691
G1 X7.1389 Y4.0502
G1 X7.1389 Y3.9191
G1 X7.1395 Y1.3036
G1 X7.1396 Y1.0536
G1 X7.1397 Y0.5007
G1 Z-0.32 F20
G1 X7.1397 Y0.5007 F20
G2 X7.0772 Y0.4382 I-0.0625 J0
G1 X5.5749 Y0.4382
G1 X5.3249 Y0.4382
G1 X3.8487 Y0.4382
G2 X3.7862 Y0.5007 I0 J0.0625
G1 X3.7862 Y0.5007
G1 X3.7863 Y1.0758
G1 X3.7863 Y1.3258
G1 X3.7868 Y3.8989
G1 X3.7868 Y4.0471
G1 X3.7868 Y4.1489
G1 X3.7868 Y4.7796
G2 X3.8493 Y4.8421 I0.0625 J0
G1 X5.3355 Y4.8421
G1 X5.5855 Y4.8421
G1 X7.0764 Y4.8421
G2 X7.1389 Y4.7796 I0 J-0.0625
G1 X7.1389 Y4.1691
G1 X7.1389 Y4.0502
G1 X7.1389 Y3.9191
G1 X7.1395 Y1.3036
G1 X7.1396 Y1.0536
G1 X7.1397 Y0.5007
G1 Z-0.34 F20
G1 X7.1397 Y0.5007 F20
G2 X7.0772 Y0.4382 I-0.0625 J0
G1 X5.5749 Y0.4382
G1 X5.3249 Y0.4382
G1 X3.8487 Y0.4382
G2 X3.7862 Y0.5007 I0 J0.0625
G1 X3.7862 Y0.5007
G1 X3.7863 Y1.0758
G1 X3.7863 Y1.3258
G1 X3.7868 Y3.8989
G1 X3.7868 Y4.0471
G1 X3.7868 Y4.1489
G1 X3.7868 Y4.7796
G2 X3.8493 Y4.8421 I0.0625 J0
G1 X5.3355 Y4.8421
G1 X5.5855 Y4.8421
G1 X7.0764 Y4.8421
G2 X7.1389 Y4.7796 I0 J-0.0625
G1 X7.1389 Y4.1691
G1 X7.1389 Y4.0502
G1 X7.1389 Y3.9191
G1 X7.1395 Y1.3036
G1 X7.1396 Y1.0536
G1 X7.1397 Y0.5007
G1 Z-0.36 F20
G1 X7.1397 Y0.5007 F20
G2 X7.0772 Y0.4382 I-0.0625 J0
G1 X5.5749 Y0.4382
G1 X5.3249 Y0.4382
G1 X3.8487 Y0.4382
G2 X3.7862 Y0.5007 I0 J0.0625
G1 X3.7862 Y0.5007
G1 X3.7863 Y1.0758
G1 X3.7863 Y1.3258
G1 X3.7868 Y3.8989
G1 X3.7868 Y4.0471
G1 X3.7868 Y4.1489
G1 X3.7868 Y4.7796
G2 X3.8493 Y4.8421 I0.0625 J0
G1 X5.3355 Y4.8421
G1 X5.5855 Y4.8421
G1 X7.0764 Y4.8421
G2 X7.1389 Y4.7796 I0 J-0.0625
G1 X7.1389 Y4.1691
G1 X7.1389 Y4.0502
G1 X7.1389 Y3.9191
G1 X7.1395 Y1.3036
G1 X7.1396 Y1.0536
G1 X7.1397 Y0.5007
G1 Z-0.38 F20
G1 X7.1397 Y0.5007 F20
G2 X7.0772 Y0.4382 I-0.0625 J0
G1 X5.5749 Y0.4382
G1 X5.3249 Y0.4382
G1 X3.8487 Y0.4382
G2 X3.7862 Y0.5007 I0 J0.0625
G1 X3.7862 Y0.5007
G1 X3.7863 Y1.0758
G1 X3.7863 Y1.3258
G1 X3.7868 Y3.8989
G1 X3.7868 Y4.0471
G1 X3.7868 Y4.1489
G1 X3.7868 Y4.7796
G2 X3.8493 Y4.8421 I0.0625 J0
G1 X5.3355 Y4.8421
G1 X5.5855 Y4.8421
G1 X7.0764 Y4.8421
G2 X7.1389 Y4.7796 I0 J-0.0625
G1 X7.1389 Y4.1691
G1 X7.1389 Y4.0502
G1 X7.1389 Y3.9191
G1 X7.1395 Y1.3036
G1 X7.1396 Y1.0536
G1 X7.1397 Y0.5007
G1 Z-0.4 F20
G1 X7.1397 Y0.5007 F20
G2 X7.0772 Y0.4382 I-0.0625 J0
G1 X5.5749 Y0.4382
G1 X5.3249 Y0.4382
G1 X3.8487 Y0.4382
G2 X3.7862 Y0.5007 I0 J0.0625
G1 X3.7862 Y0.5007
G1 X3.7863 Y1.0758
G1 X3.7863 Y1.3258
G1 X3.7868 Y3.8989
G1 X3.7868 Y4.0471
G1 X3.7868 Y4.1489
G1 X3.7868 Y4.7796
G2 X3.8493 Y4.8421 I0.0625 J0
G1 X5.3355 Y4.8421
G1 X5.5855 Y4.8421
G1 X7.0764 Y4.8421
G2 X7.1389 Y4.7796 I0 J-0.0625
G1 X7.1389 Y4.1691
G1 X7.1389 Y4.0502
G1 X7.1389 Y3.9191
G1 X7.1395 Y1.3036
G1 X7.1396 Y1.0536
G1 X7.1397 Y0.5007
G1 Z-0.42 F20
G1 X7.1397 Y0.5007 F20
G2 X7.0772 Y0.4382 I-0.0625 J0
G1 X5.5749 Y0.4382
G1 X5.3249 Y0.4382
G1 X3.8487 Y0.4382
G2 X3.7862 Y0.5007 I0 J0.0625
G1 X3.7862 Y0.5007
G1 X3.7863 Y1.0758
G1 X3.7863 Y1.3258
G1 X3.7868 Y3.8989
G1 X3.7868 Y4.0471
G1 X3.7868 Y4.1489
G1 X3.7868 Y4.7796
G2 X3.8493 Y4.8421 I0.0625 J0
G1 X5.3355 Y4.8421
G1 X5.5855 Y4.8421
G1 X7.0764 Y4.8421
G2 X7.1389 Y4.7796 I0 J-0.0625
G1 X7.1389 Y4.1691
G1 X7.1389 Y4.0502
G1 X7.1389 Y3.9191
G1 X7.1395 Y1.3036
G1 X7.1396 Y1.0536
G1 X7.1397 Y0.5007
G1 Z-0.44 F20
G1 X7.1397 Y0.5007 F20
G2 X7.0772 Y0.4382 I-0.0625 J0
G1 X5.5749 Y0.4382
G1 X5.3249 Y0.4382
G1 X3.8487 Y0.4382
G2 X3.7862 Y0.5007 I0 J0.0625
G1 X3.7862 Y0.5007
G1 X3.7863 Y1.0758
G1 X3.7863 Y1.3258
G1 X3.7868 Y3.8989
G1 X3.7868 Y4.0471
G1 X3.7868 Y4.1489
G1 X3.7868 Y4.7796
G2 X3.8493 Y4.8421 I0.0625 J0
G1 X5.3355 Y4.8421
G1 X5.5855 Y4.8421
G1 X7.0764 Y4.8421
G2 X7.1389 Y4.7796 I0 J-0.0625
G1 X7.1389 Y4.1691
G1 X7.1389 Y4.0502
G1 X7.1389 Y3.9191
G1 X7.1395 Y1.3036
G1 X7.1396 Y1.0536
G1 X7.1397 Y0.5007
G1 Z-0.46 F20
G1 X7.1397 Y0.5007 F20
G2 X7.0772 Y0.4382 I-0.0625 J0
G1 X5.5749 Y0.4382
G1 X5.3249 Y0.4382
G1 X3.8487 Y0.4382
G2 X3.7862 Y0.5007 I0 J0.0625
G1 X3.7862 Y0.5007
G1 X3.7863 Y1.0758
G1 X3.7863 Y1.3258
G1 X3.7868 Y3.8989
G1 X3.7868 Y4.0471
G1 X3.7868 Y4.1489
G1 X3.7868 Y4.7796
G2 X3.8493 Y4.8421 I0.0625 J0
G1 X5.3355 Y4.8421
G1 X5.5855 Y4.8421
G1 X7.0764 Y4.8421
G2 X7.1389 Y4.7796 I0 J-0.0625
G1 X7.1389 Y4.1691
G1 X7.1389 Y4.0502
G1 X7.1389 Y3.9191
G1 X7.1395 Y1.3036
G1 X7.1396 Y1.0536
G1 X7.1397 Y0.5007
G1 Z-0.48 F20
G1 X7.1397 Y0.5007 F20
G2 X7.0772 Y0.4382 I-0.0625 J0
G1 X5.5749 Y0.4382
G1 X5.3249 Y0.4382
G1 X3.8487 Y0.4382
G2 X3.7862 Y0.5007 I0 J0.0625
G1 X3.7862 Y0.5007
G1 X3.7863 Y1.0758
G1 X3.7863 Y1.3258
G1 X3.7868 Y3.8989
G1 X3.7868 Y4.0471
G1 X3.7868 Y4.1489
G1 X3.7868 Y4.7796
G2 X3.8493 Y4.8421 I0.0625 J0
G1 X5.3355 Y4.8421
G1 X5.5855 Y4.8421
G1 X7.0764 Y4.8421
G2 X7.1389 Y4.7796 I0 J-0.0625
G1 X7.1389 Y4.1691
G1 X7.1389 Y4.0502
G1 X7.1389 Y3.9191
G1 X7.1395 Y1.3036
G1 X7.1396 Y1.0536
G1 X7.1397 Y0.5007
G1 Z-0.5 F20
G1 X7.1397 Y0.5007 F20
G2 X7.0772 Y0.4382 I-0.0625 J0
G1 X5.5749 Y0.4382
G1 X5.3249 Y0.4382
G1 X3.8487 Y0.4382
G2 X3.7862 Y0.5007 I0 J0.0625
G1 X3.7862 Y0.5007
G1 X3.7863 Y1.0758
G1 X3.7863 Y1.3258
G1 X3.7868 Y3.8989
G1 X3.7868 Y4.0471
G1 X3.7868 Y4.1489
G1 X3.7868 Y4.7796
G2 X3.8493 Y4.8421 I0.0625 J0
G1 X5.3355 Y4.8421
G1 X5.5855 Y4.8421
G1 X7.0764 Y4.8421
G2 X7.1389 Y4.7796 I0 J-0.0625
G1 X7.1389 Y4.1691
G1 X7.1389 Y4.0502
G1 X7.1389 Y3.9191
G1 X7.1395 Y1.3036
G1 X7.1396 Y1.0536
G1 X7.1397 Y0.5007
G1 Z-0.52 F20
G1 X7.1397 Y0.5007 F20
G2 X7.0772 Y0.4382 I-0.0625 J0
G1 X5.5749 Y0.4382
G1 X5.3249 Y0.4382
G1 X3.8487 Y0.4382
G2 X3.7862 Y0.5007 I0 J0.0625
G1 X3.7862 Y0.5007
G1 X3.7863 Y1.0758
G1 X3.7863 Y1.3258
G1 X3.7868 Y3.8989
G1 X3.7868 Y4.0471
G1 X3.7868 Y4.1489
G1 X3.7868 Y4.7796
G2 X3.8493 Y4.8421 I0.0625 J0
G1 X5.3355 Y4.8421
G1 X5.5855 Y4.8421
G1 X7.0764 Y4.8421
G2 X7.1389 Y4.7796 I0 J-0.0625
G1 X7.1389 Y4.1691
G1 X7.1389 Y4.0502
G1 X7.1389 Y3.9191
G1 X7.1395 Y1.3036
G1 X7.1396 Y1.0536
G1 X7.1397 Y0.5007
G1 Z-0.54 F20
G1 X7.1397 Y0.5007 F20
G2 X7.0772 Y0.4382 I-0.0625 J0
G1 X5.5749 Y0.4382
G1 X5.3249 Y0.4382
G1 X3.8487 Y0.4382
G2 X3.7862 Y0.5007 I0 J0.0625
G1 X3.7862 Y0.5007
G1 X3.7863 Y1.0758
G1 X3.7863 Y1.3258
G1 X3.7868 Y3.8989
G1 X3.7868 Y4.0471
G1 X3.7868 Y4.1489
G1 X3.7868 Y4.7796
G2 X3.8493 Y4.8421 I0.0625 J0
G1 X5.3355 Y4.8421
G1 X5.5855 Y4.8421
G1 X7.0764 Y4.8421
G2 X7.1389 Y4.7796 I0 J-0.0625
G1 X7.1389 Y4.1691
G1 X7.1389 Y4.0502
G1 X7.1389 Y3.9191
G1 X7.1395 Y1.3036
G1 X7.1396 Y1.0536
G1 X7.1397 Y0.5007
G1 Z-0.56 F20
G1 X7.1397 Y0.5007 F20
G2 X7.0772 Y0.4382 I-0.0625 J0
G1 X5.5749 Y0.4382
G1 X5.3249 Y0.4382
G1 X3.8487 Y0.4382
G2 X3.7862 Y0.5007 I0 J0.0625
G1 X3.7862 Y0.5007
G1 X3.7863 Y1.0758
G1 X3.7863 Y1.3258
G1 X3.7868 Y3.8989
G1 X3.7868 Y4.0471
G1 X3.7868 Y4.1489
G1 X3.7868 Y4.7796
G2 X3.8493 Y4.8421 I0.0625 J0
G1 X5.3355 Y4.8421
G1 X5.5855 Y4.8421
G1 X7.0764 Y4.8421
G2 X7.1389 Y4.7796 I0 J-0.0625
G1 X7.1389 Y4.1691
G1 X7.1389 Y4.0502
G1 X7.1389 Y3.9191
G1 X7.1395 Y1.3036
G1 X7.1396 Y1.0536
G1 X7.1397 Y0.5007
G1 Z-0.58 F20
G1 X7.1397 Y0.5007 F20
G2 X7.0772 Y0.4382 I-0.0625 J0
G1 X5.5749 Y0.4382
G1 X5.3249 Y0.4382
G1 X3.8487 Y0.4382
G2 X3.7862 Y0.5007 I0 J0.0625
G1 X3.7862 Y0.5007
G1 X3.7863 Y1.0758
G1 X3.7863 Y1.3258
G1 X3.7868 Y3.8989
G1 X3.7868 Y4.0471
G1 X3.7868 Y4.1489
G1 X3.7868 Y4.7796
G2 X3.8493 Y4.8421 I0.0625 J0
G1 X5.3355 Y4.8421
G1 X5.5855 Y4.8421
G1 X7.0764 Y4.8421
G2 X7.1389 Y4.7796 I0 J-0.0625
G1 X7.1389 Y4.1691
G1 X7.1389 Y4.0502
G1 X7.1389 Y3.9191
G1 X7.1395 Y1.3036
G1 X7.1396 Y1.0536
G1 X7.1397 Y0.5007
G1 Z-0.6 F20
G1 X7.1397 Y0.5007 F20
G2 X7.0772 Y0.4382 I-0.0625 J0
G1 X5.5749 Y0.4382
G1 X5.3249 Y0.4382
G1 X3.8487 Y0.4382
G2 X3.7862 Y0.5007 I0 J0.0625
G1 X3.7862 Y0.5007
G1 X3.7863 Y1.0758
G1 X3.7863 Y1.3258
G1 X3.7868 Y3.8989
G1 X3.7868 Y4.0471
G1 X3.7868 Y4.1489
G1 X3.7868 Y4.7796
G2 X3.8493 Y4.8421 I0.0625 J0
G1 X5.3355 Y4.8421
G1 X5.5855 Y4.8421
G1 X7.0764 Y4.8421
G2 X7.1389 Y4.7796 I0 J-0.0625
G1 X7.1389 Y4.1691
G1 X7.1389 Y4.0502
G1 X7.1389 Y3.9191
G1 X7.1395 Y1.3036
G1 X7.1396 Y1.0536
G1 X7.1397 Y0.5007
G1 Z-0.62 F20
G1 X7.1397 Y0.5007 F20
G2 X7.0772 Y0.4382 I-0.0625 J0
G1 X5.5749 Y0.4382
G1 X5.3249 Y0.4382
G1 X3.8487 Y0.4382
G2 X3.7862 Y0.5007 I0 J0.0625
G1 X3.7862 Y0.5007
G1 X3.7863 Y1.0758
G1 X3.7863 Y1.3258
G1 X3.7868 Y3.8989
G1 X3.7868 Y4.0471
G1 X3.7868 Y4.1489
G1 X3.7868 Y4.7796
G2 X3.8493 Y4.8421 I0.0625 J0
G1 X5.3355 Y4.8421
G1 X5.5855 Y4.8421
G1 X7.0764 Y4.8421
G2 X7.1389 Y4.7796 I0 J-0.0625
G1 X7.1389 Y4.1691
G1 X7.1389 Y4.0502
G1 X7.1389 Y3.9191
G1 X7.1395 Y1.3036
G1 X7.1396 Y1.0536
G1 X7.1397 Y0.5007
G1 Z-0.64 F20
G1 X7.1397 Y0.5007 F20
G2 X7.0772 Y0.4382 I-0.0625 J0
G1 X5.5749 Y0.4382
G1 X5.3249 Y0.4382
G1 X3.8487 Y0.4382
G2 X3.7862 Y0.5007 I0 J0.0625
G1 X3.7862 Y0.5007
G1 X3.7863 Y1.0758
G1 X3.7863 Y1.3258
G1 X3.7868 Y3.8989
G1 X3.7868 Y4.0471
G1 X3.7868 Y4.1489
G1 X3.7868 Y4.7796
G2 X3.8493 Y4.8421 I0.0625 J0
G1 X5.3355 Y4.8421
G1 X5.5855 Y4.8421
G1 X7.0764 Y4.8421
G2 X7.1389 Y4.7796 I0 J-0.0625
G1 X7.1389 Y4.1691
G1 X7.1389 Y4.0502
G1 X7.1389 Y3.9191
G1 X7.1395 Y1.3036
G1 X7.1396 Y1.0536
G1 X7.1397 Y0.5007
G1 Z-0.66 F20
G1 X7.1397 Y0.5007 F20
G2 X7.0772 Y0.4382 I-0.0625 J0
G1 X5.5749 Y0.4382
G1 X5.3249 Y0.4382
G1 X3.8487 Y0.4382
G2 X3.7862 Y0.5007 I0 J0.0625
G1 X3.7862 Y0.5007
G1 X3.7863 Y1.0758
G1 X3.7863 Y1.3258
G1 X3.7868 Y3.8989
G1 X3.7868 Y4.0471
G1 X3.7868 Y4.1489
G1 X3.7868 Y4.7796
G2 X3.8493 Y4.8421 I0.0625 J0
G1 X5.3355 Y4.8421
G1 X5.5855 Y4.8421
G1 X7.0764 Y4.8421
G2 X7.1389 Y4.7796 I0 J-0.0625
G1 X7.1389 Y4.1691
G1 X7.1389 Y4.0502
G1 X7.1389 Y3.9191
G1 X7.1395 Y1.3036
G1 X7.1396 Y1.0536
G1 X7.1397 Y0.5007
G1 Z-0.68 F20
G1 X7.1397 Y0.5007 F20
G2 X7.0772 Y0.4382 I-0.0625 J0
G1 X5.5749 Y0.4382
G1 X5.3249 Y0.4382
G1 X3.8487 Y0.4382
G2 X3.7862 Y0.5007 I0 J0.0625
G1 X3.7862 Y0.5007
G1 X3.7863 Y1.0758
G1 X3.7863 Y1.3258
G1 X3.7868 Y3.8989
G1 X3.7868 Y4.0471
G1 X3.7868 Y4.1489
G1 X3.7868 Y4.7796
G2 X3.8493 Y4.8421 I0.0625 J0
G1 X5.3355 Y4.8421
G1 X5.5855 Y4.8421
G1 X7.0764 Y4.8421
G2 X7.1389 Y4.7796 I0 J-0.0625
G1 X7.1389 Y4.1691
G1 X7.1389 Y4.0502
G1 X7.1389 Y3.9191
G1 X7.1395 Y1.3036
G1 X7.1396 Y1.0536
G1 X7.1397 Y0.5007
G1 Z-0.7 F20
G1 X7.1397 Y0.5007 F20
G2 X7.0772 Y0.4382 I-0.0625 J0
G1 X5.5749 Y0.4382
G1 Z-0.68 F20
G1 X5.3249 Y0.4382 F20
G1 Z-0.7 F20
G1 X3.8487 Y0.4382 F20
G2 X3.7862 Y0.5007 I0 J0.0625
G1 X3.7862 Y0.5007
G1 X3.7863 Y1.0758
G1 Z-0.68 F20
G1 X3.7863 Y1.3258 F20
G1 Z-0.7 F20
G1 X3.7868 Y3.8989 F20
G1 Z-0.68 F20
G1 X3.7868 Y4.0471 F20
G1 X3.7868 Y4.1489
G1 Z-0.7 F20
G1 X3.7868 Y4.7796 F20
G2 X3.8493 Y4.8421 I0.0625 J0
G1 X5.3355 Y4.8421
G1 Z-0.68 F20
G1 X5.5855 Y4.8421 F20
G1 Z-0.7 F20
G1 X7.0764 Y4.8421 F20
G2 X7.1389 Y4.7796 I0 J-0.0625
G1 X7.1389 Y4.1691
G1 Z-0.68 F20
G1 X7.1389 Y4.0502 F20
G1 X7.1389 Y3.9191
G1 Z-0.7 F20
G1 X7.1395 Y1.3036 F20
G1 Z-0.68 F20
G1 X7.1396 Y1.0536 F20
G1 Z-0.7 F20
G1 X7.1397 Y0.5007 F20
G1 Z-0.72 F20
G1 X7.1397 Y0.5007 F20
G2 X7.0772 Y0.4382 I-0.0625 J0
G1 X5.5749 Y0.4382
G1 Z-0.68 F20
G1 X5.3249 Y0.4382 F20
G1 Z-0.72 F20
G1 X3.8487 Y0.4382 F20
G2 X3.7862 Y0.5007 I0 J0.0625
G1 X3.7862 Y0.5007
G1 X3.7863 Y1.0758
G1 Z-0.68 F20
G1 X3.7863 Y1.3258 F20
G1 Z-0.72 F20
G1 X3.7868 Y3.8989 F20
G1 Z-0.68 F20
G1 X3.7868 Y4.0471 F20
G1 X3.7868 Y4.1489
G1 Z-0.72 F20
G1 X3.7868 Y4.7796 F20
G2 X3.8493 Y4.8421 I0.0625 J0
G1 X5.3355 Y4.8421
G1 Z-0.68 F20
G1 X5.5855 Y4.8421 F20
G1 Z-0.72 F20
G1 X7.0764 Y4.8421 F20
G2 X7.1389 Y4.7796 I0 J-0.0625
G1 X7.1389 Y4.1691
G1 Z-0.68 F20
G1 X7.1389 Y4.0502 F20
G1 X7.1389 Y3.9191
G1 Z-0.72 F20
G1 X7.1395 Y1.3036 F20
G1 Z-0.68 F20
G1 X7.1396 Y1.0536 F20
G1 Z-0.72 F20
G1 X7.1397 Y0.5007 F20
G1 Z-0.74 F20
G1 X7.1397 Y0.5007 F20
G2 X7.0772 Y0.4382 I-0.0625 J0
G1 X5.5749 Y0.4382
G1 Z-0.68 F20
G1 X5.3249 Y0.4382 F20
G1 Z-0.74 F20
G1 X3.8487 Y0.4382 F20
G2 X3.7862 Y0.5007 I0 J0.0625
G1 X3.7862 Y0.5007
G1 X3.7863 Y1.0758
G1 Z-0.68 F20
G1 X3.7863 Y1.3258 F20
G1 Z-0.74 F20
G1 X3.7868 Y3.8989 F20
G1 Z-0.68 F20
G1 X3.7868 Y4.0471 F20
G1 X3.7868 Y4.1489
G1 Z-0.74 F20
G1 X3.7868 Y4.7796 F20
G2 X3.8493 Y4.8421 I0.0625 J0
G1 X5.3355 Y4.8421
G1 Z-0.68 F20
G1 X5.5855 Y4.8421 F20
G1 Z-0.74 F20
G1 X7.0764 Y4.8421 F20
G2 X7.1389 Y4.7796 I0 J-0.0625
G1 X7.1389 Y4.1691
G1 Z-0.68 F20
G1 X7.1389 Y4.0502 F20
G1 X7.1389 Y3.9191
G1 Z-0.74 F20
G1 X7.1395 Y1.3036 F20
G1 Z-0.68 F20
G1 X7.1396 Y1.0536 F20
G1 Z-0.74 F20
G1 X7.1397 Y0.5007 F20
G1 Z-0.76 F20
G1 X7.1397 Y0.5007 F20
G2 X7.0772 Y0.4382 I-0.0625 J0
G1 X5.5749 Y0.4382
G1 Z-0.68 F20
G1 X5.3249 Y0.4382 F20
G1 Z-0.76 F20
G1 X3.8487 Y0.4382 F20
G2 X3.7862 Y0.5007 I0 J0.0625
G1 X3.7862 Y0.5007
G1 X3.7863 Y1.0758
G1 Z-0.68 F20
G1 X3.7863 Y1.3258 F20
G1 Z-0.76 F20
G1 X3.7868 Y3.8989 F20
G1 Z-0.68 F20
G1 X3.7868 Y4.0471 F20
G1 X3.7868 Y4.1489
G1 Z-0.76 F20
G1 X3.7868 Y4.7796 F20
G2 X3.8493 Y4.8421 I0.0625 J0
G1 X5.3355 Y4.8421
G1 Z-0.68 F20
G1 X5.5855 Y4.8421 F20
G1 Z-0.76 F20
G1 X7.0764 Y4.8421 F20
G2 X7.1389 Y4.7796 I0 J-0.0625
G1 X7.1389 Y4.1691
G1 Z-0.68 F20
G1 X7.1389 Y4.0502 F20
G1 X7.1389 Y3.9191
G1 Z-0.76 F20
G1 X7.1395 Y1.3036 F20
G1 Z-0.68 F20
G1 X7.1396 Y1.0536 F20
G1 Z-0.76 F20
G1 X7.1397 Y0.5007 F20
G1 Z-0.78 F20
G1 X7.1397 Y0.5007 F20
G2 X7.0772 Y0.4382 I-0.0625 J0
G1 X5.5749 Y0.4382
G1 Z-0.68 F20
G1 X5.3249 Y0.4382 F20
G1 Z-0.78 F20
G1 X3.8487 Y0.4382 F20
G2 X3.7862 Y0.5007 I0 J0.0625
G1 X3.7862 Y0.5007
G1 X3.7863 Y1.0758
G1 Z-0.68 F20
G1 X3.7863 Y1.3258 F20
G1 Z-0.78 F20
G1 X3.7868 Y3.8989 F20
G1 Z-0.68 F20
G1 X3.7868 Y4.0471 F20
G1 X3.7868 Y4.1489
G1 Z-0.78 F20
G1 X3.7868 Y4.7796 F20
G2 X3.8493 Y4.8421 I0.0625 J0
G1 X5.3355 Y4.8421
G1 Z-0.68 F20
G1 X5.5855 Y4.8421 F20
G1 Z-0.78 F20
G1 X7.0764 Y4.8421 F20
G2 X7.1389 Y4.7796 I0 J-0.0625
G1 X7.1389 Y4.1691
G1 Z-0.68 F20
G1 X7.1389 Y4.0502 F20
G1 X7.1389 Y3.9191
G1 Z-0.78 F20
G1 X7.1395 Y1.3036 F20
G1 Z-0.68 F20
G1 X7.1396 Y1.0536 F20
G1 Z-0.78 F20
G1 X7.1397 Y0.5007 F20
G0 Z0.25
M5
M30
