(Generated by PartKam Version 0.05)

G20 G90 G40

(drill 1)
G0 Z0.25
T0 M6
G17
M3
G0 X0.865 Y0.8
G1 Z-0.025 F20
G1 Z0 F20
G1 Z-0.05 F20
G1 Z0 F20
G1 Z-0.075 F20
G1 Z0 F20
G1 Z-0.1 F20
G1 Z0 F20
G1 Z-0.125 F20
G1 Z0 F20
G1 Z-0.15 F20
G1 Z0 F20
G1 Z-0.175 F20
G1 Z0 F20
G1 Z-0.2 F20
G1 Z0 F20
G1 Z-0.225 F20
G1 Z0 F20
G1 Z-0.25 F20
G1 Z0 F20
G0 Z0.25
G0 X0.865 Y1.7833
G1 Z-0.025 F20
G1 Z0 F20
G1 Z-0.05 F20
G1 Z0 F20
G1 Z-0.075 F20
G1 Z0 F20
G1 Z-0.1 F20
G1 Z0 F20
G1 Z-0.125 F20
G1 Z0 F20
G1 Z-0.15 F20
G1 Z0 F20
G1 Z-0.175 F20
G1 Z0 F20
G1 Z-0.2 F20
G1 Z0 F20
G1 Z-0.225 F20
G1 Z0 F20
G1 Z-0.25 F20
G1 Z0 F20
G0 Z0.25
G0 X0.865 Y2.7667
G1 Z-0.025 F20
G1 Z0 F20
G1 Z-0.05 F20
G1 Z0 F20
G1 Z-0.075 F20
G1 Z0 F20
G1 Z-0.1 F20
G1 Z0 F20
G1 Z-0.125 F20
G1 Z0 F20
G1 Z-0.15 F20
G1 Z0 F20
G1 Z-0.175 F20
G1 Z0 F20
G1 Z-0.2 F20
G1 Z0 F20
G1 Z-0.225 F20
G1 Z0 F20
G1 Z-0.25 F20
G1 Z0 F20
G0 Z0.25
G0 X3.0902 Y2.8852
G1 Z-0.025 F20
G1 Z0 F20
G1 Z-0.05 F20
G1 Z0 F20
G1 Z-0.075 F20
G1 Z0 F20
G1 Z-0.1 F20
G1 Z0 F20
G1 Z-0.125 F20
G1 Z0 F20
G1 Z-0.15 F20
G1 Z0 F20
G1 Z-0.175 F20
G1 Z0 F20
G1 Z-0.2 F20
G1 Z0 F20
G1 Z-0.225 F20
G1 Z0 F20
G1 Z-0.25 F20
G1 Z0 F20
G0 Z0.25
G0 X1.8698 Y2.8852
G1 Z-0.025 F20
G1 Z0 F20
G1 Z-0.05 F20
G1 Z0 F20
G1 Z-0.075 F20
G1 Z0 F20
G1 Z-0.1 F20
G1 Z0 F20
G1 Z-0.125 F20
G1 Z0 F20
G1 Z-0.15 F20
G1 Z0 F20
G1 Z-0.175 F20
G1 Z0 F20
G1 Z-0.2 F20
G1 Z0 F20
G1 Z-0.225 F20
G1 Z0 F20
G1 Z-0.25 F20
G1 Z0 F20
G0 Z0.25
G0 X1.8698 Y1.6648
G1 Z-0.025 F20
G1 Z0 F20
G1 Z-0.05 F20
G1 Z0 F20
G1 Z-0.075 F20
G1 Z0 F20
G1 Z-0.1 F20
G1 Z0 F20
G1 Z-0.125 F20
G1 Z0 F20
G1 Z-0.15 F20
G1 Z0 F20
G1 Z-0.175 F20
G1 Z0 F20
G1 Z-0.2 F20
G1 Z0 F20
G1 Z-0.225 F20
G1 Z0 F20
G1 Z-0.25 F20
G1 Z0 F20
G0 Z0.25
G0 X3.0902 Y1.6648
G1 Z-0.025 F20
G1 Z0 F20
G1 Z-0.05 F20
G1 Z0 F20
G1 Z-0.075 F20
G1 Z0 F20
G1 Z-0.1 F20
G1 Z0 F20
G1 Z-0.125 F20
G1 Z0 F20
G1 Z-0.15 F20
G1 Z0 F20
G1 Z-0.175 F20
G1 Z0 F20
G1 Z-0.2 F20
G1 Z0 F20
G1 Z-0.225 F20
G1 Z0 F20
G1 Z-0.25 F20
G1 Z0 F20
G0 Z0.25
G0 X4.4483 Y4.415
G1 Z-0.025 F20
G1 Z0 F20
G1 Z-0.05 F20
G1 Z0 F20
G1 Z-0.075 F20
G1 Z0 F20
G1 Z-0.1 F20
G1 Z0 F20
G1 Z-0.125 F20
G1 Z0 F20
G1 Z-0.15 F20
G1 Z0 F20
G1 Z-0.175 F20
G1 Z0 F20
G1 Z-0.2 F20
G1 Z0 F20
G1 Z-0.225 F20
G1 Z0 F20
G1 Z-0.25 F20
G1 Z0 F20
G0 Z0.25
G0 X3.3505 Y4.415
G1 Z-0.025 F20
G1 Z0 F20
G1 Z-0.05 F20
G1 Z0 F20
G1 Z-0.075 F20
G1 Z0 F20
G1 Z-0.1 F20
G1 Z0 F20
G1 Z-0.125 F20
G1 Z0 F20
G1 Z-0.15 F20
G1 Z0 F20
G1 Z-0.175 F20
G1 Z0 F20
G1 Z-0.2 F20
G1 Z0 F20
G1 Z-0.225 F20
G1 Z0 F20
G1 Z-0.25 F20
G1 Z0 F20
G0 Z0.25
G0 X2.2528 Y4.415
G1 Z-0.025 F20
G1 Z0 F20
G1 Z-0.05 F20
G1 Z0 F20
G1 Z-0.075 F20
G1 Z0 F20
G1 Z-0.1 F20
G1 Z0 F20
G1 Z-0.125 F20
G1 Z0 F20
G1 Z-0.15 F20
G1 Z0 F20
G1 Z-0.175 F20
G1 Z0 F20
G1 Z-0.2 F20
G1 Z0 F20
G1 Z-0.225 F20
G1 Z0 F20
G1 Z-0.25 F20
G1 Z0 F20
G0 Z0.25
G0 X1.155 Y4.415
G1 Z-0.025 F20
G1 Z0 F20
G1 Z-0.05 F20
G1 Z0 F20
G1 Z-0.075 F20
G1 Z0 F20
G1 Z-0.1 F20
G1 Z0 F20
G1 Z-0.125 F20
G1 Z0 F20
G1 Z-0.15 F20
G1 Z0 F20
G1 Z-0.175 F20
G1 Z0 F20
G1 Z-0.2 F20
G1 Z0 F20
G1 Z-0.225 F20
G1 Z0 F20
G1 Z-0.25 F20
G1 Z0 F20

(profile 2)
G0 Z0.25
G0 X2.6949 Y2.7937
G1 Z-0.02 F20
G1 X2.6117 Y2.816 F20
G1 X2.5533 Y2.8317
G1 X2.4067 Y2.8317
G1 X2.3653 Y2.8206
G1 X2.2651 Y2.7937
G1 X2.1382 Y2.7205
G1 X2.0345 Y2.6168
G1 X1.9612 Y2.4899
G1 X1.9435 Y2.4237
G1 X1.9233 Y2.3483
G1 X1.9233 Y2.2017
G1 X1.9299 Y2.1772
G1 X1.9612 Y2.0601
G1 X2.0345 Y1.9332
G1 X2.1382 Y1.8295
G1 X2.2651 Y1.7562
G1 X2.3415 Y1.7358
G1 X2.4067 Y1.7183
G1 X2.5533 Y1.7183
G1 X2.5879 Y1.7276
G1 X2.6949 Y1.7562
G1 X2.8218 Y1.8295
G1 X2.9255 Y1.9332
G1 X2.9988 Y2.0601
G1 X3.0367 Y2.2017
G1 X3.0367 Y2.3483
G1 X2.9988 Y2.4899
G1 X2.9255 Y2.6168
G1 X2.8218 Y2.7205
G1 X2.6949 Y2.7937
G1 Z-0.04 F20
G1 X2.6117 Y2.816 F20
G1 X2.5533 Y2.8317
G1 X2.4067 Y2.8317
G1 X2.3653 Y2.8206
G1 X2.2651 Y2.7937
G1 X2.1382 Y2.7205
G1 X2.0345 Y2.6168
G1 X1.9612 Y2.4899
G1 X1.9435 Y2.4237
G1 X1.9233 Y2.3483
G1 X1.9233 Y2.2017
G1 X1.9299 Y2.1772
G1 X1.9612 Y2.0601
G1 X2.0345 Y1.9332
G1 X2.1382 Y1.8295
G1 X2.2651 Y1.7562
G1 X2.3415 Y1.7358
G1 X2.4067 Y1.7183
G1 X2.5533 Y1.7183
G1 X2.5879 Y1.7276
G1 X2.6949 Y1.7562
G1 X2.8218 Y1.8295
G1 X2.9255 Y1.9332
G1 X2.9988 Y2.0601
G1 X3.0367 Y2.2017
G1 X3.0367 Y2.3483
G1 X2.9988 Y2.4899
G1 X2.9255 Y2.6168
G1 X2.8218 Y2.7205
G1 X2.6949 Y2.7937
G1 Z-0.06 F20
G1 X2.6117 Y2.816 F20
G1 X2.5533 Y2.8317
G1 X2.4067 Y2.8317
G1 X2.3653 Y2.8206
G1 X2.2651 Y2.7937
G1 X2.1382 Y2.7205
G1 X2.0345 Y2.6168
G1 X1.9612 Y2.4899
G1 X1.9435 Y2.4237
G1 X1.9233 Y2.3483
G1 X1.9233 Y2.2017
G1 X1.9299 Y2.1772
G1 X1.9612 Y2.0601
G1 X2.0345 Y1.9332
G1 X2.1382 Y1.8295
G1 X2.2651 Y1.7562
G1 X2.3415 Y1.7358
G1 X2.4067 Y1.7183
G1 X2.5533 Y1.7183
G1 X2.5879 Y1.7276
G1 X2.6949 Y1.7562
G1 X2.8218 Y1.8295
G1 X2.9255 Y1.9332
G1 X2.9988 Y2.0601
G1 X3.0367 Y2.2017
G1 X3.0367 Y2.3483
G1 X2.9988 Y2.4899
G1 X2.9255 Y2.6168
G1 X2.8218 Y2.7205
G1 X2.6949 Y2.7937
G1 Z-0.08 F20
G1 X2.6117 Y2.816 F20
G1 X2.5533 Y2.8317
G1 X2.4067 Y2.8317
G1 X2.3653 Y2.8206
G1 X2.2651 Y2.7937
G1 X2.1382 Y2.7205
G1 X2.0345 Y2.6168
G1 X1.9612 Y2.4899
G1 X1.9435 Y2.4237
G1 X1.9233 Y2.3483
G1 X1.9233 Y2.2017
G1 X1.9299 Y2.1772
G1 X1.9612 Y2.0601
G1 X2.0345 Y1.9332
G1 X2.1382 Y1.8295
G1 X2.2651 Y1.7562
G1 X2.3415 Y1.7358
G1 X2.4067 Y1.7183
G1 X2.5533 Y1.7183
G1 X2.5879 Y1.7276
G1 X2.6949 Y1.7562
G1 X2.8218 Y1.8295
G1 X2.9255 Y1.9332
G1 X2.9988 Y2.0601
G1 X3.0367 Y2.2017
G1 X3.0367 Y2.3483
G1 X2.9988 Y2.4899
G1 X2.9255 Y2.6168
G1 X2.8218 Y2.7205
G1 X2.6949 Y2.7937
G1 Z-0.1 F20
G1 X2.6117 Y2.816 F20
G1 X2.5533 Y2.8317
G1 X2.4067 Y2.8317
G1 X2.3653 Y2.8206
G1 X2.2651 Y2.7937
G1 X2.1382 Y2.7205
G1 X2.0345 Y2.6168
G1 X1.9612 Y2.4899
G1 X1.9435 Y2.4237
G1 X1.9233 Y2.3483
G1 X1.9233 Y2.2017
G1 X1.9299 Y2.1772
G1 X1.9612 Y2.0601
G1 X2.0345 Y1.9332
G1 X2.1382 Y1.8295
G1 X2.2651 Y1.7562
G1 X2.3415 Y1.7358
G1 X2.4067 Y1.7183
G1 X2.5533 Y1.7183
G1 X2.5879 Y1.7276
G1 X2.6949 Y1.7562
G1 X2.8218 Y1.8295
G1 X2.9255 Y1.9332
G1 X2.9988 Y2.0601
G1 X3.0367 Y2.2017
G1 X3.0367 Y2.3483
G1 X2.9988 Y2.4899
G1 X2.9255 Y2.6168
G1 X2.8218 Y2.7205
G1 X2.6949 Y2.7937
G1 Z-0.12 F20
G1 X2.6117 Y2.816 F20
G1 X2.5533 Y2.8317
G1 X2.4067 Y2.8317
G1 X2.3653 Y2.8206
G1 X2.2651 Y2.7937
G1 X2.1382 Y2.7205
G1 X2.0345 Y2.6168
G1 X1.9612 Y2.4899
G1 X1.9435 Y2.4237
G1 X1.9233 Y2.3483
G1 X1.9233 Y2.2017
G1 X1.9299 Y2.1772
G1 X1.9612 Y2.0601
G1 X2.0345 Y1.9332
G1 X2.1382 Y1.8295
G1 X2.2651 Y1.7562
G1 X2.3415 Y1.7358
G1 X2.4067 Y1.7183
G1 X2.5533 Y1.7183
G1 X2.5879 Y1.7276
G1 X2.6949 Y1.7562
G1 X2.8218 Y1.8295
G1 X2.9255 Y1.9332
G1 X2.9988 Y2.0601
G1 X3.0367 Y2.2017
G1 X3.0367 Y2.3483
G1 X2.9988 Y2.4899
G1 X2.9255 Y2.6168
G1 X2.8218 Y2.7205
G1 X2.6949 Y2.7937
G1 Z-0.14 F20
G1 X2.6117 Y2.816 F20
G1 X2.5533 Y2.8317
G1 X2.4067 Y2.8317
G1 X2.3653 Y2.8206
G1 X2.2651 Y2.7937
G1 X2.1382 Y2.7205
G1 X2.0345 Y2.6168
G1 X1.9612 Y2.4899
G1 X1.9435 Y2.4237
G1 X1.9233 Y2.3483
G1 X1.9233 Y2.2017
G1 X1.9299 Y2.1772
G1 X1.9612 Y2.0601
G1 X2.0345 Y1.9332
G1 X2.1382 Y1.8295
G1 X2.2651 Y1.7562
G1 X2.3415 Y1.7358
G1 X2.4067 Y1.7183
G1 X2.5533 Y1.7183
G1 X2.5879 Y1.7276
G1 X2.6949 Y1.7562
G1 X2.8218 Y1.8295
G1 X2.9255 Y1.9332
G1 X2.9988 Y2.0601
G1 X3.0367 Y2.2017
G1 X3.0367 Y2.3483
G1 X2.9988 Y2.4899
G1 X2.9255 Y2.6168
G1 X2.8218 Y2.7205
G1 X2.6949 Y2.7937
G1 Z-0.16 F20
G1 X2.6117 Y2.816 F20
G1 Z-0.15 F20
G1 X2.5533 Y2.8317 F20
G1 X2.4067 Y2.8317
G1 X2.3653 Y2.8206
G1 Z-0.16 F20
G1 X2.2651 Y2.7937 F20
G1 X2.1382 Y2.7205
G1 X2.0345 Y2.6168
G1 X1.9612 Y2.4899
G1 X1.9435 Y2.4237
G1 Z-0.15 F20
G1 X1.9233 Y2.3483 F20
G1 X1.9233 Y2.2017
G1 X1.9299 Y2.1772
G1 Z-0.16 F20
G1 X1.9612 Y2.0601 F20
G1 X2.0345 Y1.9332
G1 X2.1382 Y1.8295
G1 X2.2651 Y1.7562
G1 X2.3415 Y1.7358
G1 Z-0.15 F20
G1 X2.4067 Y1.7183 F20
G1 X2.5533 Y1.7183
G1 X2.5879 Y1.7276
G1 Z-0.16 F20
G1 X2.6949 Y1.7562 F20
G1 X2.8218 Y1.8295
G1 X2.9255 Y1.9332
G1 X2.9988 Y2.0601
G1 X3.0367 Y2.2017
G1 X3.0367 Y2.3483
G1 X2.9988 Y2.4899
G1 X2.9255 Y2.6168
G1 X2.8218 Y2.7205
G1 X2.6949 Y2.7937
G1 Z-0.18 F20
G1 X2.6117 Y2.816 F20
G1 Z-0.15 F20
G1 X2.5533 Y2.8317 F20
G1 X2.4067 Y2.8317
G1 X2.3653 Y2.8206
G1 Z-0.18 F20
G1 X2.2651 Y2.7937 F20
G1 X2.1382 Y2.7205
G1 X2.0345 Y2.6168
G1 X1.9612 Y2.4899
G1 X1.9435 Y2.4237
G1 Z-0.15 F20
G1 X1.9233 Y2.3483 F20
G1 X1.9233 Y2.2017
G1 X1.9299 Y2.1772
G1 Z-0.18 F20
G1 X1.9612 Y2.0601 F20
G1 X2.0345 Y1.9332
G1 X2.1382 Y1.8295
G1 X2.2651 Y1.7562
G1 X2.3415 Y1.7358
G1 Z-0.15 F20
G1 X2.4067 Y1.7183 F20
G1 X2.5533 Y1.7183
G1 X2.5879 Y1.7276
G1 Z-0.18 F20
G1 X2.6949 Y1.7562 F20
G1 X2.8218 Y1.8295
G1 X2.9255 Y1.9332
G1 X2.9988 Y2.0601
G1 X3.0367 Y2.2017
G1 X3.0367 Y2.3483
G1 X2.9988 Y2.4899
G1 X2.9255 Y2.6168
G1 X2.8218 Y2.7205
G1 X2.6949 Y2.7937
G1 Z-0.2 F20
G1 X2.6117 Y2.816 F20
G1 Z-0.15 F20
G1 X2.5533 Y2.8317 F20
G1 X2.4067 Y2.8317
G1 X2.3653 Y2.8206
G1 Z-0.2 F20
G1 X2.2651 Y2.7937 F20
G1 X2.1382 Y2.7205
G1 X2.0345 Y2.6168
G1 X1.9612 Y2.4899
G1 X1.9435 Y2.4237
G1 Z-0.15 F20
G1 X1.9233 Y2.3483 F20
G1 X1.9233 Y2.2017
G1 X1.9299 Y2.1772
G1 Z-0.2 F20
G1 X1.9612 Y2.0601 F20
G1 X2.0345 Y1.9332
G1 X2.1382 Y1.8295
G1 X2.2651 Y1.7562
G1 X2.3415 Y1.7358
G1 Z-0.15 F20
G1 X2.4067 Y1.7183 F20
G1 X2.5533 Y1.7183
G1 X2.5879 Y1.7276
G1 Z-0.2 F20
G1 X2.6949 Y1.7562 F20
G1 X2.8218 Y1.8295
G1 X2.9255 Y1.9332
G1 X2.9988 Y2.0601
G1 X3.0367 Y2.2017
G1 X3.0367 Y2.3483
G1 X2.9988 Y2.4899
G1 X2.9255 Y2.6168
G1 X2.8218 Y2.7205
G1 X2.6949 Y2.7937
G1 Z-0.22 F20
G1 X2.6117 Y2.816 F20
G1 Z-0.15 F20
G1 X2.5533 Y2.8317 F20
G1 X2.4067 Y2.8317
G1 X2.3653 Y2.8206
G1 Z-0.22 F20
G1 X2.2651 Y2.7937 F20
G1 X2.1382 Y2.7205
G1 X2.0345 Y2.6168
G1 X1.9612 Y2.4899
G1 X1.9435 Y2.4237
G1 Z-0.15 F20
G1 X1.9233 Y2.3483 F20
G1 X1.9233 Y2.2017
G1 X1.9299 Y2.1772
G1 Z-0.22 F20
G1 X1.9612 Y2.0601 F20
G1 X2.0345 Y1.9332
G1 X2.1382 Y1.8295
G1 X2.2651 Y1.7562
G1 X2.3415 Y1.7358
G1 Z-0.15 F20
G1 X2.4067 Y1.7183 F20
G1 X2.5533 Y1.7183
G1 X2.5879 Y1.7276
G1 Z-0.22 F20
G1 X2.6949 Y1.7562 F20
G1 X2.8218 Y1.8295
G1 X2.9255 Y1.9332
G1 X2.9988 Y2.0601
G1 X3.0367 Y2.2017
G1 X3.0367 Y2.3483
G1 X2.9988 Y2.4899
G1 X2.9255 Y2.6168
G1 X2.8218 Y2.7205
G1 X2.6949 Y2.7937
G1 Z-0.24 F20
G1 X2.6117 Y2.816 F20
G1 Z-0.15 F20
G1 X2.5533 Y2.8317 F20
G1 X2.4067 Y2.8317
G1 X2.3653 Y2.8206
G1 Z-0.24 F20
G1 X2.2651 Y2.7937 F20
G1 X2.1382 Y2.7205
G1 X2.0345 Y2.6168
G1 X1.9612 Y2.4899
G1 X1.9435 Y2.4237
G1 Z-0.15 F20
G1 X1.9233 Y2.3483 F20
G1 X1.9233 Y2.2017
G1 X1.9299 Y2.1772
G1 Z-0.24 F20
G1 X1.9612 Y2.0601 F20
G1 X2.0345 Y1.9332
G1 X2.1382 Y1.8295
G1 X2.2651 Y1.7562
G1 X2.3415 Y1.7358
G1 Z-0.15 F20
G1 X2.4067 Y1.7183 F20
G1 X2.5533 Y1.7183
G1 X2.5879 Y1.7276
G1 Z-0.24 F20
G1 X2.6949 Y1.7562 F20
G1 X2.8218 Y1.8295
G1 X2.9255 Y1.9332
G1 X2.9988 Y2.0601
G1 X3.0367 Y2.2017
G1 X3.0367 Y2.3483
G1 X2.9988 Y2.4899
G1 X2.9255 Y2.6168
G1 X2.8218 Y2.7205
G1 X2.6949 Y2.7937
G1 Z-0.25 F20
G1 X2.6117 Y2.816 F20
G1 Z-0.15 F20
G1 X2.5533 Y2.8317 F20
G1 X2.4067 Y2.8317
G1 X2.3653 Y2.8206
G1 Z-0.25 F20
G1 X2.2651 Y2.7937 F20
G1 X2.1382 Y2.7205
G1 X2.0345 Y2.6168
G1 X1.9612 Y2.4899
G1 X1.9435 Y2.4237
G1 Z-0.15 F20
G1 X1.9233 Y2.3483 F20
G1 X1.9233 Y2.2017
G1 X1.9299 Y2.1772
G1 Z-0.25 F20
G1 X1.9612 Y2.0601 F20
G1 X2.0345 Y1.9332
G1 X2.1382 Y1.8295
G1 X2.2651 Y1.7562
G1 X2.3415 Y1.7358
G1 Z-0.15 F20
G1 X2.4067 Y1.7183 F20
G1 X2.5533 Y1.7183
G1 X2.5879 Y1.7276
G1 Z-0.25 F20
G1 X2.6949 Y1.7562 F20
G1 X2.8218 Y1.8295
G1 X2.9255 Y1.9332
G1 X2.9988 Y2.0601
G1 X3.0367 Y2.2017
G1 X3.0367 Y2.3483
G1 X2.9988 Y2.4899
G1 X2.9255 Y2.6168
G1 X2.8218 Y2.7205
G1 X2.6949 Y2.7937

(profile 3)
G0 Z0.5
G0 X4.0267 Y3.4953
G1 Z-0.02 F20
G1 X4.0175 Y3.4941 F20
G1 X4.009 Y3.4906
G1 X4.0016 Y3.485
G1 X3.996 Y3.4777
G1 X3.9925 Y3.4691
G1 X3.9913 Y3.46
G1 X3.9925 Y3.4508
G1 X3.996 Y3.4423
G1 X4.0016 Y3.4349
G1 X4.009 Y3.4293
G1 X4.0175 Y3.4258
G1 X4.0266 Y3.4246
G1 X4.0358 Y3.4258
G1 X4.0443 Y3.4293
G1 X4.0517 Y3.4349
G1 X4.0573 Y3.4423
G1 X4.0608 Y3.4508
G1 X4.062 Y3.46
G1 X4.0608 Y3.4691
G1 X4.0573 Y3.4777
G1 X4.0517 Y3.485
G1 X4.0443 Y3.4906
G1 X4.0358 Y3.4941
G1 X4.0267 Y3.4953
G1 Z-0.04 F20
G1 X4.0175 Y3.4941 F20
G1 X4.009 Y3.4906
G1 X4.0016 Y3.485
G1 X3.996 Y3.4777
G1 X3.9925 Y3.4691
G1 X3.9913 Y3.46
G1 X3.9925 Y3.4508
G1 X3.996 Y3.4423
G1 X4.0016 Y3.4349
G1 X4.009 Y3.4293
G1 X4.0175 Y3.4258
G1 X4.0266 Y3.4246
G1 X4.0358 Y3.4258
G1 X4.0443 Y3.4293
G1 X4.0517 Y3.4349
G1 X4.0573 Y3.4423
G1 X4.0608 Y3.4508
G1 X4.062 Y3.46
G1 X4.0608 Y3.4691
G1 X4.0573 Y3.4777
G1 X4.0517 Y3.485
G1 X4.0443 Y3.4906
G1 X4.0358 Y3.4941
G1 X4.0267 Y3.4953
G1 Z-0.06 F20
G1 X4.0175 Y3.4941 F20
G1 X4.009 Y3.4906
G1 X4.0016 Y3.485
G1 X3.996 Y3.4777
G1 X3.9925 Y3.4691
G1 X3.9913 Y3.46
G1 X3.9925 Y3.4508
G1 X3.996 Y3.4423
G1 X4.0016 Y3.4349
G1 X4.009 Y3.4293
G1 X4.0175 Y3.4258
G1 X4.0266 Y3.4246
G1 X4.0358 Y3.4258
G1 X4.0443 Y3.4293
G1 X4.0517 Y3.4349
G1 X4.0573 Y3.4423
G1 X4.0608 Y3.4508
G1 X4.062 Y3.46
G1 X4.0608 Y3.4691
G1 X4.0573 Y3.4777
G1 X4.0517 Y3.485
G1 X4.0443 Y3.4906
G1 X4.0358 Y3.4941
G1 X4.0267 Y3.4953
G1 Z-0.08 F20
G1 X4.0175 Y3.4941 F20
G1 X4.009 Y3.4906
G1 X4.0016 Y3.485
G1 X3.996 Y3.4777
G1 X3.9925 Y3.4691
G1 X3.9913 Y3.46
G1 X3.9925 Y3.4508
G1 X3.996 Y3.4423
G1 X4.0016 Y3.4349
G1 X4.009 Y3.4293
G1 X4.0175 Y3.4258
G1 X4.0266 Y3.4246
G1 X4.0358 Y3.4258
G1 X4.0443 Y3.4293
G1 X4.0517 Y3.4349
G1 X4.0573 Y3.4423
G1 X4.0608 Y3.4508
G1 X4.062 Y3.46
G1 X4.0608 Y3.4691
G1 X4.0573 Y3.4777
G1 X4.0517 Y3.485
G1 X4.0443 Y3.4906
G1 X4.0358 Y3.4941
G1 X4.0267 Y3.4953
G1 Z-0.1 F20
G1 X4.0175 Y3.4941 F20
G1 X4.009 Y3.4906
G1 X4.0016 Y3.485
G1 X3.996 Y3.4777
G1 X3.9925 Y3.4691
G1 X3.9913 Y3.46
G1 X3.9925 Y3.4508
G1 X3.996 Y3.4423
G1 X4.0016 Y3.4349
G1 X4.009 Y3.4293
G1 X4.0175 Y3.4258
G1 X4.0266 Y3.4246
G1 X4.0358 Y3.4258
G1 X4.0443 Y3.4293
G1 X4.0517 Y3.4349
G1 X4.0573 Y3.4423
G1 X4.0608 Y3.4508
G1 X4.062 Y3.46
G1 X4.0608 Y3.4691
G1 X4.0573 Y3.4777
G1 X4.0517 Y3.485
G1 X4.0443 Y3.4906
G1 X4.0358 Y3.4941
G1 X4.0267 Y3.4953
G1 Z-0.12 F20
G1 X4.0175 Y3.4941 F20
G1 X4.009 Y3.4906
G1 X4.0016 Y3.485
G1 X3.996 Y3.4777
G1 X3.9925 Y3.4691
G1 X3.9913 Y3.46
G1 X3.9925 Y3.4508
G1 X3.996 Y3.4423
G1 X4.0016 Y3.4349
G1 X4.009 Y3.4293
G1 X4.0175 Y3.4258
G1 X4.0266 Y3.4246
G1 X4.0358 Y3.4258
G1 X4.0443 Y3.4293
G1 X4.0517 Y3.4349
G1 X4.0573 Y3.4423
G1 X4.0608 Y3.4508
G1 X4.062 Y3.46
G1 X4.0608 Y3.4691
G1 X4.0573 Y3.4777
G1 X4.0517 Y3.485
G1 X4.0443 Y3.4906
G1 X4.0358 Y3.4941
G1 X4.0267 Y3.4953
G1 Z-0.14 F20
G1 X4.0175 Y3.4941 F20
G1 X4.009 Y3.4906
G1 X4.0016 Y3.485
G1 X3.996 Y3.4777
G1 X3.9925 Y3.4691
G1 X3.9913 Y3.46
G1 X3.9925 Y3.4508
G1 X3.996 Y3.4423
G1 X4.0016 Y3.4349
G1 X4.009 Y3.4293
G1 X4.0175 Y3.4258
G1 X4.0266 Y3.4246
G1 X4.0358 Y3.4258
G1 X4.0443 Y3.4293
G1 X4.0517 Y3.4349
G1 X4.0573 Y3.4423
G1 X4.0608 Y3.4508
G1 X4.062 Y3.46
G1 X4.0608 Y3.4691
G1 X4.0573 Y3.4777
G1 X4.0517 Y3.485
G1 X4.0443 Y3.4906
G1 X4.0358 Y3.4941
G1 X4.0267 Y3.4953
G1 Z-0.16 F20
G1 X4.0175 Y3.4941 F20
G1 X4.009 Y3.4906
G1 X4.0016 Y3.485
G1 X3.996 Y3.4777
G1 X3.9925 Y3.4691
G1 X3.9913 Y3.46
G1 X3.9925 Y3.4508
G1 X3.996 Y3.4423
G1 X4.0016 Y3.4349
G1 X4.009 Y3.4293
G1 X4.0175 Y3.4258
G1 X4.0266 Y3.4246
G1 X4.0358 Y3.4258
G1 X4.0443 Y3.4293
G1 X4.0517 Y3.4349
G1 X4.0573 Y3.4423
G1 X4.0608 Y3.4508
G1 X4.062 Y3.46
G1 X4.0608 Y3.4691
G1 X4.0573 Y3.4777
G1 X4.0517 Y3.485
G1 X4.0443 Y3.4906
G1 X4.0358 Y3.4941
G1 X4.0267 Y3.4953
G1 Z-0.18 F20
G1 X4.0175 Y3.4941 F20
G1 X4.009 Y3.4906
G1 X4.0016 Y3.485
G1 X3.996 Y3.4777
G1 X3.9925 Y3.4691
G1 X3.9913 Y3.46
G1 X3.9925 Y3.4508
G1 X3.996 Y3.4423
G1 X4.0016 Y3.4349
G1 X4.009 Y3.4293
G1 X4.0175 Y3.4258
G1 X4.0266 Y3.4246
G1 X4.0358 Y3.4258
G1 X4.0443 Y3.4293
G1 X4.0517 Y3.4349
G1 X4.0573 Y3.4423
G1 X4.0608 Y3.4508
G1 X4.062 Y3.46
G1 X4.0608 Y3.4691
G1 X4.0573 Y3.4777
G1 X4.0517 Y3.485
G1 X4.0443 Y3.4906
G1 X4.0358 Y3.4941
G1 X4.0267 Y3.4953
G1 Z-0.2 F20
G1 X4.0175 Y3.4941 F20
G1 X4.009 Y3.4906
G1 X4.0016 Y3.485
G1 X3.996 Y3.4777
G1 X3.9925 Y3.4691
G1 X3.9913 Y3.46
G1 X3.9925 Y3.4508
G1 X3.996 Y3.4423
G1 X4.0016 Y3.4349
G1 X4.009 Y3.4293
G1 X4.0175 Y3.4258
G1 X4.0266 Y3.4246
G1 X4.0358 Y3.4258
G1 X4.0443 Y3.4293
G1 X4.0517 Y3.4349
G1 X4.0573 Y3.4423
G1 X4.0608 Y3.4508
G1 X4.062 Y3.46
G1 X4.0608 Y3.4691
G1 X4.0573 Y3.4777
G1 X4.0517 Y3.485
G1 X4.0443 Y3.4906
G1 X4.0358 Y3.4941
G1 X4.0267 Y3.4953
G1 Z-0.22 F20
G1 X4.0175 Y3.4941 F20
G1 X4.009 Y3.4906
G1 X4.0016 Y3.485
G1 X3.996 Y3.4777
G1 X3.9925 Y3.4691
G1 X3.9913 Y3.46
G1 X3.9925 Y3.4508
G1 X3.996 Y3.4423
G1 X4.0016 Y3.4349
G1 X4.009 Y3.4293
G1 X4.0175 Y3.4258
G1 X4.0266 Y3.4246
G1 X4.0358 Y3.4258
G1 X4.0443 Y3.4293
G1 X4.0517 Y3.4349
G1 X4.0573 Y3.4423
G1 X4.0608 Y3.4508
G1 X4.062 Y3.46
G1 X4.0608 Y3.4691
G1 X4.0573 Y3.4777
G1 X4.0517 Y3.485
G1 X4.0443 Y3.4906
G1 X4.0358 Y3.4941
G1 X4.0267 Y3.4953
G1 Z-0.24 F20
G1 X4.0175 Y3.4941 F20
G1 X4.009 Y3.4906
G1 X4.0016 Y3.485
G1 X3.996 Y3.4777
G1 X3.9925 Y3.4691
G1 X3.9913 Y3.46
G1 X3.9925 Y3.4508
G1 X3.996 Y3.4423
G1 X4.0016 Y3.4349
G1 X4.009 Y3.4293
G1 X4.0175 Y3.4258
G1 X4.0266 Y3.4246
G1 X4.0358 Y3.4258
G1 X4.0443 Y3.4293
G1 X4.0517 Y3.4349
G1 X4.0573 Y3.4423
G1 X4.0608 Y3.4508
G1 X4.062 Y3.46
G1 X4.0608 Y3.4691
G1 X4.0573 Y3.4777
G1 X4.0517 Y3.485
G1 X4.0443 Y3.4906
G1 X4.0358 Y3.4941
G1 X4.0267 Y3.4953
G1 Z-0.25 F20
G1 X4.0175 Y3.4941 F20
G1 X4.009 Y3.4906
G1 X4.0016 Y3.485
G1 X3.996 Y3.4777
G1 X3.9925 Y3.4691
G1 X3.9913 Y3.46
G1 X3.9925 Y3.4508
G1 X3.996 Y3.4423
G1 X4.0016 Y3.4349
G1 X4.009 Y3.4293
G1 X4.0175 Y3.4258
G1 X4.0266 Y3.4246
G1 X4.0358 Y3.4258
G1 X4.0443 Y3.4293
G1 X4.0517 Y3.4349
G1 X4.0573 Y3.4423
G1 X4.0608 Y3.4508
G1 X4.062 Y3.46
G1 X4.0608 Y3.4691
G1 X4.0573 Y3.4777
G1 X4.0517 Y3.485
G1 X4.0443 Y3.4906
G1 X4.0358 Y3.4941
G1 X4.0267 Y3.4953

(profile 4)
G0 Z0.25
G0 X5.2344 Y4.8425
G1 Z-0.02 F20
G2 X5.2969 Y4.78 I0 J-0.0625 F20
G1 X5.2969 Y4.34
G1 X5.2969 Y4.09
G1 X5.2969 Y1.1715
G1 X5.2969 Y0.9031
G1 X5.2969 Y0.5
G2 X5.2344 Y0.4375 I-0.0625 J0
G1 X2.5593 Y0.4375
G1 X2.2908 Y0.4375
G1 X0.5 Y0.4375
G2 X0.4375 Y0.5 I0 J0.0625
G1 X0.4375 Y1.1911
G1 X0.4375 Y1.4411
G1 X0.4375 Y4.1822
G1 X0.4375 Y4.4322
G1 X0.4375 Y4.78
G2 X0.5 Y4.8425 I0.0625 J0
G1 X2.733 Y4.8425
G1 X2.983 Y4.8425
G1 X5.2344 Y4.8425
G1 Z-0.04 F20
G2 X5.2969 Y4.78 I0 J-0.0625 F20
G1 X5.2969 Y4.34
G1 X5.2969 Y4.09
G1 X5.2969 Y1.1715
G1 X5.2969 Y0.9031
G1 X5.2969 Y0.5
G2 X5.2344 Y0.4375 I-0.0625 J0
G1 X2.5593 Y0.4375
G1 X2.2908 Y0.4375
G1 X0.5 Y0.4375
G2 X0.4375 Y0.5 I0 J0.0625
G1 X0.4375 Y1.1911
G1 X0.4375 Y1.4411
G1 X0.4375 Y4.1822
G1 X0.4375 Y4.4322
G1 X0.4375 Y4.78
G2 X0.5 Y4.8425 I0.0625 J0
G1 X2.733 Y4.8425
G1 X2.983 Y4.8425
G1 X5.2344 Y4.8425
G1 Z-0.06 F20
G2 X5.2969 Y4.78 I0 J-0.0625 F20
G1 X5.2969 Y4.34
G1 X5.2969 Y4.09
G1 X5.2969 Y1.1715
G1 X5.2969 Y0.9031
G1 X5.2969 Y0.5
G2 X5.2344 Y0.4375 I-0.0625 J0
G1 X2.5593 Y0.4375
G1 X2.2908 Y0.4375
G1 X0.5 Y0.4375
G2 X0.4375 Y0.5 I0 J0.0625
G1 X0.4375 Y1.1911
G1 X0.4375 Y1.4411
G1 X0.4375 Y4.1822
G1 X0.4375 Y4.4322
G1 X0.4375 Y4.78
G2 X0.5 Y4.8425 I0.0625 J0
G1 X2.733 Y4.8425
G1 X2.983 Y4.8425
G1 X5.2344 Y4.8425
G1 Z-0.08 F20
G2 X5.2969 Y4.78 I0 J-0.0625 F20
G1 X5.2969 Y4.34
G1 X5.2969 Y4.09
G1 X5.2969 Y1.1715
G1 X5.2969 Y0.9031
G1 X5.2969 Y0.5
G2 X5.2344 Y0.4375 I-0.0625 J0
G1 X2.5593 Y0.4375
G1 X2.2908 Y0.4375
G1 X0.5 Y0.4375
G2 X0.4375 Y0.5 I0 J0.0625
G1 X0.4375 Y1.1911
G1 X0.4375 Y1.4411
G1 X0.4375 Y4.1822
G1 X0.4375 Y4.4322
G1 X0.4375 Y4.78
G2 X0.5 Y4.8425 I0.0625 J0
G1 X2.733 Y4.8425
G1 X2.983 Y4.8425
G1 X5.2344 Y4.8425
G1 Z-0.1 F20
G2 X5.2969 Y4.78 I0 J-0.0625 F20
G1 X5.2969 Y4.34
G1 X5.2969 Y4.09
G1 X5.2969 Y1.1715
G1 X5.2969 Y0.9031
G1 X5.2969 Y0.5
G2 X5.2344 Y0.4375 I-0.0625 J0
G1 X2.5593 Y0.4375
G1 X2.2908 Y0.4375
G1 X0.5 Y0.4375
G2 X0.4375 Y0.5 I0 J0.0625
G1 X0.4375 Y1.1911
G1 X0.4375 Y1.4411
G1 X0.4375 Y4.1822
G1 X0.4375 Y4.4322
G1 X0.4375 Y4.78
G2 X0.5 Y4.8425 I0.0625 J0
G1 X2.733 Y4.8425
G1 X2.983 Y4.8425
G1 X5.2344 Y4.8425
G1 Z-0.12 F20
G2 X5.2969 Y4.78 I0 J-0.0625 F20
G1 X5.2969 Y4.34
G1 X5.2969 Y4.09
G1 X5.2969 Y1.1715
G1 X5.2969 Y0.9031
G1 X5.2969 Y0.5
G2 X5.2344 Y0.4375 I-0.0625 J0
G1 X2.5593 Y0.4375
G1 X2.2908 Y0.4375
G1 X0.5 Y0.4375
G2 X0.4375 Y0.5 I0 J0.0625
G1 X0.4375 Y1.1911
G1 X0.4375 Y1.4411
G1 X0.4375 Y4.1822
G1 X0.4375 Y4.4322
G1 X0.4375 Y4.78
G2 X0.5 Y4.8425 I0.0625 J0
G1 X2.733 Y4.8425
G1 X2.983 Y4.8425
G1 X5.2344 Y4.8425
G1 Z-0.14 F20
G2 X5.2969 Y4.78 I0 J-0.0625 F20
G1 X5.2969 Y4.34
G1 X5.2969 Y4.09
G1 X5.2969 Y1.1715
G1 X5.2969 Y0.9031
G1 X5.2969 Y0.5
G2 X5.2344 Y0.4375 I-0.0625 J0
G1 X2.5593 Y0.4375
G1 X2.2908 Y0.4375
G1 X0.5 Y0.4375
G2 X0.4375 Y0.5 I0 J0.0625
G1 X0.4375 Y1.1911
G1 X0.4375 Y1.4411
G1 X0.4375 Y4.1822
G1 X0.4375 Y4.4322
G1 X0.4375 Y4.78
G2 X0.5 Y4.8425 I0.0625 J0
G1 X2.733 Y4.8425
G1 X2.983 Y4.8425
G1 X5.2344 Y4.8425
G1 Z-0.16 F20
G2 X5.2969 Y4.78 I0 J-0.0625 F20
G1 X5.2969 Y4.34
G1 Z-0.15 F20
G1 X5.2969 Y4.09 F20
G1 Z-0.16 F20
G1 X5.2969 Y1.1715 F20
G1 Z-0.15 F20
G1 X5.2969 Y0.9031 F20
G1 Z-0.16 F20
G1 X5.2969 Y0.5 F20
G2 X5.2344 Y0.4375 I-0.0625 J0
G1 X2.5593 Y0.4375
G1 Z-0.15 F20
G1 X2.2908 Y0.4375 F20
G1 Z-0.16 F20
G1 X0.5 Y0.4375 F20
G2 X0.4375 Y0.5 I0 J0.0625
G1 X0.4375 Y1.1911
G1 Z-0.15 F20
G1 X0.4375 Y1.4411 F20
G1 Z-0.16 F20
G1 X0.4375 Y4.1822 F20
G1 Z-0.15 F20
G1 X0.4375 Y4.4322 F20
G1 Z-0.16 F20
G1 X0.4375 Y4.78 F20
G2 X0.5 Y4.8425 I0.0625 J0
G1 X2.733 Y4.8425
G1 Z-0.15 F20
G1 X2.983 Y4.8425 F20
G1 Z-0.16 F20
G1 X5.2344 Y4.8425 F20
G1 Z-0.18 F20
G2 X5.2969 Y4.78 I0 J-0.0625 F20
G1 X5.2969 Y4.34
G1 Z-0.15 F20
G1 X5.2969 Y4.09 F20
G1 Z-0.18 F20
G1 X5.2969 Y1.1715 F20
G1 Z-0.15 F20
G1 X5.2969 Y0.9031 F20
G1 Z-0.18 F20
G1 X5.2969 Y0.5 F20
G2 X5.2344 Y0.4375 I-0.0625 J0
G1 X2.5593 Y0.4375
G1 Z-0.15 F20
G1 X2.2908 Y0.4375 F20
G1 Z-0.18 F20
G1 X0.5 Y0.4375 F20
G2 X0.4375 Y0.5 I0 J0.0625
G1 X0.4375 Y1.1911
G1 Z-0.15 F20
G1 X0.4375 Y1.4411 F20
G1 Z-0.18 F20
G1 X0.4375 Y4.1822 F20
G1 Z-0.15 F20
G1 X0.4375 Y4.4322 F20
G1 Z-0.18 F20
G1 X0.4375 Y4.78 F20
G2 X0.5 Y4.8425 I0.0625 J0
G1 X2.733 Y4.8425
G1 Z-0.15 F20
G1 X2.983 Y4.8425 F20
G1 Z-0.18 F20
G1 X5.2344 Y4.8425 F20
G1 Z-0.2 F20
G2 X5.2969 Y4.78 I0 J-0.0625 F20
G1 X5.2969 Y4.34
G1 Z-0.15 F20
G1 X5.2969 Y4.09 F20
G1 Z-0.2 F20
G1 X5.2969 Y1.1715 F20
G1 Z-0.15 F20
G1 X5.2969 Y0.9031 F20
G1 Z-0.2 F20
G1 X5.2969 Y0.5 F20
G2 X5.2344 Y0.4375 I-0.0625 J0
G1 X2.5593 Y0.4375
G1 Z-0.15 F20
G1 X2.2908 Y0.4375 F20
G1 Z-0.2 F20
G1 X0.5 Y0.4375 F20
G2 X0.4375 Y0.5 I0 J0.0625
G1 X0.4375 Y1.1911
G1 Z-0.15 F20
G1 X0.4375 Y1.4411 F20
G1 Z-0.2 F20
G1 X0.4375 Y4.1822 F20
G1 Z-0.15 F20
G1 X0.4375 Y4.4322 F20
G1 Z-0.2 F20
G1 X0.4375 Y4.78 F20
G2 X0.5 Y4.8425 I0.0625 J0
G1 X2.733 Y4.8425
G1 Z-0.15 F20
G1 X2.983 Y4.8425 F20
G1 Z-0.2 F20
G1 X5.2344 Y4.8425 F20
G1 Z-0.22 F20
G2 X5.2969 Y4.78 I0 J-0.0625 F20
G1 X5.2969 Y4.34
G1 Z-0.15 F20
G1 X5.2969 Y4.09 F20
G1 Z-0.22 F20
G1 X5.2969 Y1.1715 F20
G1 Z-0.15 F20
G1 X5.2969 Y0.9031 F20
G1 Z-0.22 F20
G1 X5.2969 Y0.5 F20
G2 X5.2344 Y0.4375 I-0.0625 J0
G1 X2.5593 Y0.4375
G1 Z-0.15 F20
G1 X2.2908 Y0.4375 F20
G1 Z-0.22 F20
G1 X0.5 Y0.4375 F20
G2 X0.4375 Y0.5 I0 J0.0625
G1 X0.4375 Y1.1911
G1 Z-0.15 F20
G1 X0.4375 Y1.4411 F20
G1 Z-0.22 F20
G1 X0.4375 Y4.1822 F20
G1 Z-0.15 F20
G1 X0.4375 Y4.4322 F20
G1 Z-0.22 F20
G1 X0.4375 Y4.78 F20
G2 X0.5 Y4.8425 I0.0625 J0
G1 X2.733 Y4.8425
G1 Z-0.15 F20
G1 X2.983 Y4.8425 F20
G1 Z-0.22 F20
G1 X5.2344 Y4.8425 F20
G1 Z-0.24 F20
G2 X5.2969 Y4.78 I0 J-0.0625 F20
G1 X5.2969 Y4.34
G1 Z-0.15 F20
G1 X5.2969 Y4.09 F20
G1 Z-0.24 F20
G1 X5.2969 Y1.1715 F20
G1 Z-0.15 F20
G1 X5.2969 Y0.9031 F20
G1 Z-0.24 F20
G1 X5.2969 Y0.5 F20
G2 X5.2344 Y0.4375 I-0.0625 J0
G1 X2.5593 Y0.4375
G1 Z-0.15 F20
G1 X2.2908 Y0.4375 F20
G1 Z-0.24 F20
G1 X0.5 Y0.4375 F20
G2 X0.4375 Y0.5 I0 J0.0625
G1 X0.4375 Y1.1911
G1 Z-0.15 F20
G1 X0.4375 Y1.4411 F20
G1 Z-0.24 F20
G1 X0.4375 Y4.1822 F20
G1 Z-0.15 F20
G1 X0.4375 Y4.4322 F20
G1 Z-0.24 F20
G1 X0.4375 Y4.78 F20
G2 X0.5 Y4.8425 I0.0625 J0
G1 X2.733 Y4.8425
G1 Z-0.15 F20
G1 X2.983 Y4.8425 F20
G1 Z-0.24 F20
G1 X5.2344 Y4.8425 F20
G1 Z-0.25 F20
G2 X5.2969 Y4.78 I0 J-0.0625 F20
G1 X5.2969 Y4.34
G1 Z-0.15 F20
G1 X5.2969 Y4.09 F20
G1 Z-0.25 F20
G1 X5.2969 Y1.1715 F20
G1 Z-0.15 F20
G1 X5.2969 Y0.9031 F20
G1 Z-0.25 F20
G1 X5.2969 Y0.5 F20
G2 X5.2344 Y0.4375 I-0.0625 J0
G1 X2.5593 Y0.4375
G1 Z-0.15 F20
G1 X2.2908 Y0.4375 F20
G1 Z-0.25 F20
G1 X0.5 Y0.4375 F20
G2 X0.4375 Y0.5 I0 J0.0625
G1 X0.4375 Y1.1911
G1 Z-0.15 F20
G1 X0.4375 Y1.4411 F20
G1 Z-0.25 F20
G1 X0.4375 Y4.1822 F20
G1 Z-0.15 F20
G1 X0.4375 Y4.4322 F20
G1 Z-0.25 F20
G1 X0.4375 Y4.78 F20
G2 X0.5 Y4.8425 I0.0625 J0
G1 X2.733 Y4.8425
G1 Z-0.15 F20
G1 X2.983 Y4.8425 F20
G1 Z-0.25 F20
G1 X5.2344 Y4.8425 F20
G0 Z0.25
M5
M30
