(Generated by PartKam Version 0.05)

G20 G90 G40

(drill 1-0)
G0 Z0.25
T0 M6
G17
M3
G0 X3.5683 Y0.8484
G1 Z-0.05 F25
G1 Z0 F25
G1 Z-0.1 F25
G1 Z0 F25
G1 Z-0.15 F25
G1 Z0 F25
G1 Z-0.2 F25
G1 Z0 F25
G1 Z-0.25 F25
G1 Z0 F25
G1 Z-0.3 F25
G1 Z0 F25
G1 Z-0.35 F25
G1 Z0 F25
G1 Z-0.4 F25
G1 Z0 F25
G1 Z-0.45 F25
G1 Z0 F25
G1 Z-0.5 F25
G1 Z0 F25
G1 Z-0.52 F25
G1 Z0 F25

(drill 1-1)
G0 Z0.25
G0 X0.9552 Y0.849
G1 Z-0.05 F25
G1 Z0 F25
G1 Z-0.1 F25
G1 Z0 F25
G1 Z-0.15 F25
G1 Z0 F25
G1 Z-0.2 F25
G1 Z0 F25
G1 Z-0.25 F25
G1 Z0 F25
G1 Z-0.3 F25
G1 Z0 F25
G1 Z-0.35 F25
G1 Z0 F25
G1 Z-0.4 F25
G1 Z0 F25
G1 Z-0.45 F25
G1 Z0 F25
G1 Z-0.5 F25
G1 Z0 F25
G1 Z-0.52 F25
G1 Z0 F25

(drill 1-2)
G0 Z0.25
G0 X2.2538 Y0.8493
G1 Z-0.05 F25
G1 Z0 F25
G1 Z-0.1 F25
G1 Z0 F25
G1 Z-0.15 F25
G1 Z0 F25
G1 Z-0.2 F25
G1 Z0 F25
G1 Z-0.25 F25
G1 Z0 F25
G1 Z-0.3 F25
G1 Z0 F25
G1 Z-0.35 F25
G1 Z0 F25
G1 Z-0.4 F25
G1 Z0 F25
G1 Z-0.45 F25
G1 Z0 F25
G1 Z-0.5 F25
G1 Z0 F25
G1 Z-0.52 F25
G1 Z0 F25

(profile 4-0)
G0 Z0.25
G0 X1.4347 Y1.9978
G1 Z-0.02 F25
G1 X1.433 Y1.9851 F25
G3 X1.4346 Y1.9778 I0.0352 J0.004
G3 X1.4403 Y1.9667 I0.0392 J0.0132
G3 X1.4488 Y1.9582 I0.0313 J0.0227
G3 X1.4571 Y1.954 I0.017 J0.0232
G1 X1.4579 Y1.9538
G3 X1.4677 Y1.9522 I0.0098 J0.0299
G3 X1.4797 Y1.954 I-0.0001 J0.0398
G3 X1.49 Y1.9592 I-0.0111 J0.035
G3 X1.4958 Y1.9651 I-0.0143 J0.0198
G2 X1.4979 Y1.968 I0.0513 J-0.0357
G3 X1.502 Y1.9755 I-0.0201 J0.0157
G3 X1.504 Y1.987 I-0.0355 J0.0121
G1 X1.504 Y1.9876
G3 X1.5024 Y1.9986 I-0.0376 J0
G3 X1.4985 Y2.0062 I-0.0245 J-0.0075
G2 X1.4965 Y2.0092 I0.0504 J0.0369
G3 X1.491 Y2.0151 I-0.0202 J-0.0131
G3 X1.4811 Y2.0206 I-0.022 J-0.0285
G3 X1.4691 Y2.0229 I-0.014 J-0.0395
G3 X1.4591 Y2.0221 I-0.0018 J-0.0388
G3 X1.4513 Y2.0184 I0.013 J-0.0374
G3 X1.4431 Y2.0118 I0.022 J-0.0357
G3 X1.4371 Y2.0035 I0.028 J-0.0269
G3 X1.4347 Y1.9978 I0.0266 J-0.0146
G1 Z-0.04 F25
G1 X1.433 Y1.9851 F25
G3 X1.4346 Y1.9778 I0.0352 J0.004
G3 X1.4403 Y1.9667 I0.0392 J0.0132
G3 X1.4488 Y1.9582 I0.0313 J0.0227
G3 X1.4571 Y1.954 I0.017 J0.0232
G1 X1.4579 Y1.9538
G3 X1.4677 Y1.9522 I0.0098 J0.0299
G3 X1.4797 Y1.954 I-0.0001 J0.0398
G3 X1.49 Y1.9592 I-0.0111 J0.035
G3 X1.4958 Y1.9651 I-0.0143 J0.0198
G2 X1.4979 Y1.968 I0.0513 J-0.0357
G3 X1.502 Y1.9755 I-0.0201 J0.0157
G3 X1.504 Y1.987 I-0.0355 J0.0121
G1 X1.504 Y1.9876
G3 X1.5024 Y1.9986 I-0.0376 J0
G3 X1.4985 Y2.0062 I-0.0245 J-0.0075
G2 X1.4965 Y2.0092 I0.0504 J0.0369
G3 X1.491 Y2.0151 I-0.0202 J-0.0131
G3 X1.4811 Y2.0206 I-0.022 J-0.0285
G3 X1.4691 Y2.0229 I-0.014 J-0.0395
G3 X1.4591 Y2.0221 I-0.0018 J-0.0388
G3 X1.4513 Y2.0184 I0.013 J-0.0374
G3 X1.4431 Y2.0118 I0.022 J-0.0357
G3 X1.4371 Y2.0035 I0.028 J-0.0269
G3 X1.4347 Y1.9978 I0.0266 J-0.0146
G1 Z-0.06 F25
G1 X1.433 Y1.9851 F25
G3 X1.4346 Y1.9778 I0.0352 J0.004
G3 X1.4403 Y1.9667 I0.0392 J0.0132
G3 X1.4488 Y1.9582 I0.0313 J0.0227
G3 X1.4571 Y1.954 I0.017 J0.0232
G1 X1.4579 Y1.9538
G3 X1.4677 Y1.9522 I0.0098 J0.0299
G3 X1.4797 Y1.954 I-0.0001 J0.0398
G3 X1.49 Y1.9592 I-0.0111 J0.035
G3 X1.4958 Y1.9651 I-0.0143 J0.0198
G2 X1.4979 Y1.968 I0.0513 J-0.0357
G3 X1.502 Y1.9755 I-0.0201 J0.0157
G3 X1.504 Y1.987 I-0.0355 J0.0121
G1 X1.504 Y1.9876
G3 X1.5024 Y1.9986 I-0.0376 J0
G3 X1.4985 Y2.0062 I-0.0245 J-0.0075
G2 X1.4965 Y2.0092 I0.0504 J0.0369
G3 X1.491 Y2.0151 I-0.0202 J-0.0131
G3 X1.4811 Y2.0206 I-0.022 J-0.0285
G3 X1.4691 Y2.0229 I-0.014 J-0.0395
G3 X1.4591 Y2.0221 I-0.0018 J-0.0388
G3 X1.4513 Y2.0184 I0.013 J-0.0374
G3 X1.4431 Y2.0118 I0.022 J-0.0357
G3 X1.4371 Y2.0035 I0.028 J-0.0269
G3 X1.4347 Y1.9978 I0.0266 J-0.0146
G1 Z-0.08 F25
G1 X1.433 Y1.9851 F25
G3 X1.4346 Y1.9778 I0.0352 J0.004
G3 X1.4403 Y1.9667 I0.0392 J0.0132
G3 X1.4488 Y1.9582 I0.0313 J0.0227
G3 X1.4571 Y1.954 I0.017 J0.0232
G1 X1.4579 Y1.9538
G3 X1.4677 Y1.9522 I0.0098 J0.0299
G3 X1.4797 Y1.954 I-0.0001 J0.0398
G3 X1.49 Y1.9592 I-0.0111 J0.035
G3 X1.4958 Y1.9651 I-0.0143 J0.0198
G2 X1.4979 Y1.968 I0.0513 J-0.0357
G3 X1.502 Y1.9755 I-0.0201 J0.0157
G3 X1.504 Y1.987 I-0.0355 J0.0121
G1 X1.504 Y1.9876
G3 X1.5024 Y1.9986 I-0.0376 J0
G3 X1.4985 Y2.0062 I-0.0245 J-0.0075
G2 X1.4965 Y2.0092 I0.0504 J0.0369
G3 X1.491 Y2.0151 I-0.0202 J-0.0131
G3 X1.4811 Y2.0206 I-0.022 J-0.0285
G3 X1.4691 Y2.0229 I-0.014 J-0.0395
G3 X1.4591 Y2.0221 I-0.0018 J-0.0388
G3 X1.4513 Y2.0184 I0.013 J-0.0374
G3 X1.4431 Y2.0118 I0.022 J-0.0357
G3 X1.4371 Y2.0035 I0.028 J-0.0269
G3 X1.4347 Y1.9978 I0.0266 J-0.0146
G1 Z-0.1 F25
G1 X1.433 Y1.9851 F25
G3 X1.4346 Y1.9778 I0.0352 J0.004
G3 X1.4403 Y1.9667 I0.0392 J0.0132
G3 X1.4488 Y1.9582 I0.0313 J0.0227
G3 X1.4571 Y1.954 I0.017 J0.0232
G1 X1.4579 Y1.9538
G3 X1.4677 Y1.9522 I0.0098 J0.0299
G3 X1.4797 Y1.954 I-0.0001 J0.0398
G3 X1.49 Y1.9592 I-0.0111 J0.035
G3 X1.4958 Y1.9651 I-0.0143 J0.0198
G2 X1.4979 Y1.968 I0.0513 J-0.0357
G3 X1.502 Y1.9755 I-0.0201 J0.0157
G3 X1.504 Y1.987 I-0.0355 J0.0121
G1 X1.504 Y1.9876
G3 X1.5024 Y1.9986 I-0.0376 J0
G3 X1.4985 Y2.0062 I-0.0245 J-0.0075
G2 X1.4965 Y2.0092 I0.0504 J0.0369
G3 X1.491 Y2.0151 I-0.0202 J-0.0131
G3 X1.4811 Y2.0206 I-0.022 J-0.0285
G3 X1.4691 Y2.0229 I-0.014 J-0.0395
G3 X1.4591 Y2.0221 I-0.0018 J-0.0388
G3 X1.4513 Y2.0184 I0.013 J-0.0374
G3 X1.4431 Y2.0118 I0.022 J-0.0357
G3 X1.4371 Y2.0035 I0.028 J-0.0269
G3 X1.4347 Y1.9978 I0.0266 J-0.0146
G1 Z-0.12 F25
G1 X1.433 Y1.9851 F25
G3 X1.4346 Y1.9778 I0.0352 J0.004
G3 X1.4403 Y1.9667 I0.0392 J0.0132
G3 X1.4488 Y1.9582 I0.0313 J0.0227
G3 X1.4571 Y1.954 I0.017 J0.0232
G1 X1.4579 Y1.9538
G3 X1.4677 Y1.9522 I0.0098 J0.0299
G3 X1.4797 Y1.954 I-0.0001 J0.0398
G3 X1.49 Y1.9592 I-0.0111 J0.035
G3 X1.4958 Y1.9651 I-0.0143 J0.0198
G2 X1.4979 Y1.968 I0.0513 J-0.0357
G3 X1.502 Y1.9755 I-0.0201 J0.0157
G3 X1.504 Y1.987 I-0.0355 J0.0121
G1 X1.504 Y1.9876
G3 X1.5024 Y1.9986 I-0.0376 J0
G3 X1.4985 Y2.0062 I-0.0245 J-0.0075
G2 X1.4965 Y2.0092 I0.0504 J0.0369
G3 X1.491 Y2.0151 I-0.0202 J-0.0131
G3 X1.4811 Y2.0206 I-0.022 J-0.0285
G3 X1.4691 Y2.0229 I-0.014 J-0.0395
G3 X1.4591 Y2.0221 I-0.0018 J-0.0388
G3 X1.4513 Y2.0184 I0.013 J-0.0374
G3 X1.4431 Y2.0118 I0.022 J-0.0357
G3 X1.4371 Y2.0035 I0.028 J-0.0269
G3 X1.4347 Y1.9978 I0.0266 J-0.0146
G1 Z-0.14 F25
G1 X1.433 Y1.9851 F25
G3 X1.4346 Y1.9778 I0.0352 J0.004
G3 X1.4403 Y1.9667 I0.0392 J0.0132
G3 X1.4488 Y1.9582 I0.0313 J0.0227
G3 X1.4571 Y1.954 I0.017 J0.0232
G1 X1.4579 Y1.9538
G3 X1.4677 Y1.9522 I0.0098 J0.0299
G3 X1.4797 Y1.954 I-0.0001 J0.0398
G3 X1.49 Y1.9592 I-0.0111 J0.035
G3 X1.4958 Y1.9651 I-0.0143 J0.0198
G2 X1.4979 Y1.968 I0.0513 J-0.0357
G3 X1.502 Y1.9755 I-0.0201 J0.0157
G3 X1.504 Y1.987 I-0.0355 J0.0121
G1 X1.504 Y1.9876
G3 X1.5024 Y1.9986 I-0.0376 J0
G3 X1.4985 Y2.0062 I-0.0245 J-0.0075
G2 X1.4965 Y2.0092 I0.0504 J0.0369
G3 X1.491 Y2.0151 I-0.0202 J-0.0131
G3 X1.4811 Y2.0206 I-0.022 J-0.0285
G3 X1.4691 Y2.0229 I-0.014 J-0.0395
G3 X1.4591 Y2.0221 I-0.0018 J-0.0388
G3 X1.4513 Y2.0184 I0.013 J-0.0374
G3 X1.4431 Y2.0118 I0.022 J-0.0357
G3 X1.4371 Y2.0035 I0.028 J-0.0269
G3 X1.4347 Y1.9978 I0.0266 J-0.0146
G1 Z-0.16 F25
G1 X1.433 Y1.9851 F25
G3 X1.4346 Y1.9778 I0.0352 J0.004
G3 X1.4403 Y1.9667 I0.0392 J0.0132
G3 X1.4488 Y1.9582 I0.0313 J0.0227
G3 X1.4571 Y1.954 I0.017 J0.0232
G1 X1.4579 Y1.9538
G3 X1.4677 Y1.9522 I0.0098 J0.0299
G3 X1.4797 Y1.954 I-0.0001 J0.0398
G3 X1.49 Y1.9592 I-0.0111 J0.035
G3 X1.4958 Y1.9651 I-0.0143 J0.0198
G2 X1.4979 Y1.968 I0.0513 J-0.0357
G3 X1.502 Y1.9755 I-0.0201 J0.0157
G3 X1.504 Y1.987 I-0.0355 J0.0121
G1 X1.504 Y1.9876
G3 X1.5024 Y1.9986 I-0.0376 J0
G3 X1.4985 Y2.0062 I-0.0245 J-0.0075
G2 X1.4965 Y2.0092 I0.0504 J0.0369
G3 X1.491 Y2.0151 I-0.0202 J-0.0131
G3 X1.4811 Y2.0206 I-0.022 J-0.0285
G3 X1.4691 Y2.0229 I-0.014 J-0.0395
G3 X1.4591 Y2.0221 I-0.0018 J-0.0388
G3 X1.4513 Y2.0184 I0.013 J-0.0374
G3 X1.4431 Y2.0118 I0.022 J-0.0357
G3 X1.4371 Y2.0035 I0.028 J-0.0269
G3 X1.4347 Y1.9978 I0.0266 J-0.0146
G1 Z-0.18 F25
G1 X1.433 Y1.9851 F25
G3 X1.4346 Y1.9778 I0.0352 J0.004
G3 X1.4403 Y1.9667 I0.0392 J0.0132
G3 X1.4488 Y1.9582 I0.0313 J0.0227
G3 X1.4571 Y1.954 I0.017 J0.0232
G1 X1.4579 Y1.9538
G3 X1.4677 Y1.9522 I0.0098 J0.0299
G3 X1.4797 Y1.954 I-0.0001 J0.0398
G3 X1.49 Y1.9592 I-0.0111 J0.035
G3 X1.4958 Y1.9651 I-0.0143 J0.0198
G2 X1.4979 Y1.968 I0.0513 J-0.0357
G3 X1.502 Y1.9755 I-0.0201 J0.0157
G3 X1.504 Y1.987 I-0.0355 J0.0121
G1 X1.504 Y1.9876
G3 X1.5024 Y1.9986 I-0.0376 J0
G3 X1.4985 Y2.0062 I-0.0245 J-0.0075
G2 X1.4965 Y2.0092 I0.0504 J0.0369
G3 X1.491 Y2.0151 I-0.0202 J-0.0131
G3 X1.4811 Y2.0206 I-0.022 J-0.0285
G3 X1.4691 Y2.0229 I-0.014 J-0.0395
G3 X1.4591 Y2.0221 I-0.0018 J-0.0388
G3 X1.4513 Y2.0184 I0.013 J-0.0374
G3 X1.4431 Y2.0118 I0.022 J-0.0357
G3 X1.4371 Y2.0035 I0.028 J-0.0269
G3 X1.4347 Y1.9978 I0.0266 J-0.0146
G1 Z-0.2 F25
G1 X1.433 Y1.9851 F25
G3 X1.4346 Y1.9778 I0.0352 J0.004
G3 X1.4403 Y1.9667 I0.0392 J0.0132
G3 X1.4488 Y1.9582 I0.0313 J0.0227
G3 X1.4571 Y1.954 I0.017 J0.0232
G1 X1.4579 Y1.9538
G3 X1.4677 Y1.9522 I0.0098 J0.0299
G3 X1.4797 Y1.954 I-0.0001 J0.0398
G3 X1.49 Y1.9592 I-0.0111 J0.035
G3 X1.4958 Y1.9651 I-0.0143 J0.0198
G2 X1.4979 Y1.968 I0.0513 J-0.0357
G3 X1.502 Y1.9755 I-0.0201 J0.0157
G3 X1.504 Y1.987 I-0.0355 J0.0121
G1 X1.504 Y1.9876
G3 X1.5024 Y1.9986 I-0.0376 J0
G3 X1.4985 Y2.0062 I-0.0245 J-0.0075
G2 X1.4965 Y2.0092 I0.0504 J0.0369
G3 X1.491 Y2.0151 I-0.0202 J-0.0131
G3 X1.4811 Y2.0206 I-0.022 J-0.0285
G3 X1.4691 Y2.0229 I-0.014 J-0.0395
G3 X1.4591 Y2.0221 I-0.0018 J-0.0388
G3 X1.4513 Y2.0184 I0.013 J-0.0374
G3 X1.4431 Y2.0118 I0.022 J-0.0357
G3 X1.4371 Y2.0035 I0.028 J-0.0269
G3 X1.4347 Y1.9978 I0.0266 J-0.0146
G1 Z-0.22 F25
G1 X1.433 Y1.9851 F25
G3 X1.4346 Y1.9778 I0.0352 J0.004
G3 X1.4403 Y1.9667 I0.0392 J0.0132
G3 X1.4488 Y1.9582 I0.0313 J0.0227
G3 X1.4571 Y1.954 I0.017 J0.0232
G1 X1.4579 Y1.9538
G3 X1.4677 Y1.9522 I0.0098 J0.0299
G3 X1.4797 Y1.954 I-0.0001 J0.0398
G3 X1.49 Y1.9592 I-0.0111 J0.035
G3 X1.4958 Y1.9651 I-0.0143 J0.0198
G2 X1.4979 Y1.968 I0.0513 J-0.0357
G3 X1.502 Y1.9755 I-0.0201 J0.0157
G3 X1.504 Y1.987 I-0.0355 J0.0121
G1 X1.504 Y1.9876
G3 X1.5024 Y1.9986 I-0.0376 J0
G3 X1.4985 Y2.0062 I-0.0245 J-0.0075
G2 X1.4965 Y2.0092 I0.0504 J0.0369
G3 X1.491 Y2.0151 I-0.0202 J-0.0131
G3 X1.4811 Y2.0206 I-0.022 J-0.0285
G3 X1.4691 Y2.0229 I-0.014 J-0.0395
G3 X1.4591 Y2.0221 I-0.0018 J-0.0388
G3 X1.4513 Y2.0184 I0.013 J-0.0374
G3 X1.4431 Y2.0118 I0.022 J-0.0357
G3 X1.4371 Y2.0035 I0.028 J-0.0269
G3 X1.4347 Y1.9978 I0.0266 J-0.0146
G1 Z-0.24 F25
G1 X1.433 Y1.9851 F25
G3 X1.4346 Y1.9778 I0.0352 J0.004
G3 X1.4403 Y1.9667 I0.0392 J0.0132
G3 X1.4488 Y1.9582 I0.0313 J0.0227
G3 X1.4571 Y1.954 I0.017 J0.0232
G1 X1.4579 Y1.9538
G3 X1.4677 Y1.9522 I0.0098 J0.0299
G3 X1.4797 Y1.954 I-0.0001 J0.0398
G3 X1.49 Y1.9592 I-0.0111 J0.035
G3 X1.4958 Y1.9651 I-0.0143 J0.0198
G2 X1.4979 Y1.968 I0.0513 J-0.0357
G3 X1.502 Y1.9755 I-0.0201 J0.0157
G3 X1.504 Y1.987 I-0.0355 J0.0121
G1 X1.504 Y1.9876
G3 X1.5024 Y1.9986 I-0.0376 J0
G3 X1.4985 Y2.0062 I-0.0245 J-0.0075
G2 X1.4965 Y2.0092 I0.0504 J0.0369
G3 X1.491 Y2.0151 I-0.0202 J-0.0131
G3 X1.4811 Y2.0206 I-0.022 J-0.0285
G3 X1.4691 Y2.0229 I-0.014 J-0.0395
G3 X1.4591 Y2.0221 I-0.0018 J-0.0388
G3 X1.4513 Y2.0184 I0.013 J-0.0374
G3 X1.4431 Y2.0118 I0.022 J-0.0357
G3 X1.4371 Y2.0035 I0.028 J-0.0269
G3 X1.4347 Y1.9978 I0.0266 J-0.0146
G1 Z-0.26 F25
G1 X1.433 Y1.9851 F25
G3 X1.4346 Y1.9778 I0.0352 J0.004
G3 X1.4403 Y1.9667 I0.0392 J0.0132
G3 X1.4488 Y1.9582 I0.0313 J0.0227
G3 X1.4571 Y1.954 I0.017 J0.0232
G1 X1.4579 Y1.9538
G3 X1.4677 Y1.9522 I0.0098 J0.0299
G3 X1.4797 Y1.954 I-0.0001 J0.0398
G3 X1.49 Y1.9592 I-0.0111 J0.035
G3 X1.4958 Y1.9651 I-0.0143 J0.0198
G2 X1.4979 Y1.968 I0.0513 J-0.0357
G3 X1.502 Y1.9755 I-0.0201 J0.0157
G3 X1.504 Y1.987 I-0.0355 J0.0121
G1 X1.504 Y1.9876
G3 X1.5024 Y1.9986 I-0.0376 J0
G3 X1.4985 Y2.0062 I-0.0245 J-0.0075
G2 X1.4965 Y2.0092 I0.0504 J0.0369
G3 X1.491 Y2.0151 I-0.0202 J-0.0131
G3 X1.4811 Y2.0206 I-0.022 J-0.0285
G3 X1.4691 Y2.0229 I-0.014 J-0.0395
G3 X1.4591 Y2.0221 I-0.0018 J-0.0388
G3 X1.4513 Y2.0184 I0.013 J-0.0374
G3 X1.4431 Y2.0118 I0.022 J-0.0357
G3 X1.4371 Y2.0035 I0.028 J-0.0269
G3 X1.4347 Y1.9978 I0.0266 J-0.0146
G1 Z-0.28 F25
G1 X1.433 Y1.9851 F25
G3 X1.4346 Y1.9778 I0.0352 J0.004
G3 X1.4403 Y1.9667 I0.0392 J0.0132
G3 X1.4488 Y1.9582 I0.0313 J0.0227
G3 X1.4571 Y1.954 I0.017 J0.0232
G1 X1.4579 Y1.9538
G3 X1.4677 Y1.9522 I0.0098 J0.0299
G3 X1.4797 Y1.954 I-0.0001 J0.0398
G3 X1.49 Y1.9592 I-0.0111 J0.035
G3 X1.4958 Y1.9651 I-0.0143 J0.0198
G2 X1.4979 Y1.968 I0.0513 J-0.0357
G3 X1.502 Y1.9755 I-0.0201 J0.0157
G3 X1.504 Y1.987 I-0.0355 J0.0121
G1 X1.504 Y1.9876
G3 X1.5024 Y1.9986 I-0.0376 J0
G3 X1.4985 Y2.0062 I-0.0245 J-0.0075
G2 X1.4965 Y2.0092 I0.0504 J0.0369
G3 X1.491 Y2.0151 I-0.0202 J-0.0131
G3 X1.4811 Y2.0206 I-0.022 J-0.0285
G3 X1.4691 Y2.0229 I-0.014 J-0.0395
G3 X1.4591 Y2.0221 I-0.0018 J-0.0388
G3 X1.4513 Y2.0184 I0.013 J-0.0374
G3 X1.4431 Y2.0118 I0.022 J-0.0357
G3 X1.4371 Y2.0035 I0.028 J-0.0269
G3 X1.4347 Y1.9978 I0.0266 J-0.0146
G1 Z-0.3 F25
G1 X1.433 Y1.9851 F25
G3 X1.4346 Y1.9778 I0.0352 J0.004
G3 X1.4403 Y1.9667 I0.0392 J0.0132
G3 X1.4488 Y1.9582 I0.0313 J0.0227
G3 X1.4571 Y1.954 I0.017 J0.0232
G1 X1.4579 Y1.9538
G3 X1.4677 Y1.9522 I0.0098 J0.0299
G3 X1.4797 Y1.954 I-0.0001 J0.0398
G3 X1.49 Y1.9592 I-0.0111 J0.035
G3 X1.4958 Y1.9651 I-0.0143 J0.0198
G2 X1.4979 Y1.968 I0.0513 J-0.0357
G3 X1.502 Y1.9755 I-0.0201 J0.0157
G3 X1.504 Y1.987 I-0.0355 J0.0121
G1 X1.504 Y1.9876
G3 X1.5024 Y1.9986 I-0.0376 J0
G3 X1.4985 Y2.0062 I-0.0245 J-0.0075
G2 X1.4965 Y2.0092 I0.0504 J0.0369
G3 X1.491 Y2.0151 I-0.0202 J-0.0131
G3 X1.4811 Y2.0206 I-0.022 J-0.0285
G3 X1.4691 Y2.0229 I-0.014 J-0.0395
G3 X1.4591 Y2.0221 I-0.0018 J-0.0388
G3 X1.4513 Y2.0184 I0.013 J-0.0374
G3 X1.4431 Y2.0118 I0.022 J-0.0357
G3 X1.4371 Y2.0035 I0.028 J-0.0269
G3 X1.4347 Y1.9978 I0.0266 J-0.0146
G1 Z-0.32 F25
G1 X1.433 Y1.9851 F25
G3 X1.4346 Y1.9778 I0.0352 J0.004
G3 X1.4403 Y1.9667 I0.0392 J0.0132
G3 X1.4488 Y1.9582 I0.0313 J0.0227
G3 X1.4571 Y1.954 I0.017 J0.0232
G1 X1.4579 Y1.9538
G3 X1.4677 Y1.9522 I0.0098 J0.0299
G3 X1.4797 Y1.954 I-0.0001 J0.0398
G3 X1.49 Y1.9592 I-0.0111 J0.035
G3 X1.4958 Y1.9651 I-0.0143 J0.0198
G2 X1.4979 Y1.968 I0.0513 J-0.0357
G3 X1.502 Y1.9755 I-0.0201 J0.0157
G3 X1.504 Y1.987 I-0.0355 J0.0121
G1 X1.504 Y1.9876
G3 X1.5024 Y1.9986 I-0.0376 J0
G3 X1.4985 Y2.0062 I-0.0245 J-0.0075
G2 X1.4965 Y2.0092 I0.0504 J0.0369
G3 X1.491 Y2.0151 I-0.0202 J-0.0131
G3 X1.4811 Y2.0206 I-0.022 J-0.0285
G3 X1.4691 Y2.0229 I-0.014 J-0.0395
G3 X1.4591 Y2.0221 I-0.0018 J-0.0388
G3 X1.4513 Y2.0184 I0.013 J-0.0374
G3 X1.4431 Y2.0118 I0.022 J-0.0357
G3 X1.4371 Y2.0035 I0.028 J-0.0269
G3 X1.4347 Y1.9978 I0.0266 J-0.0146
G1 Z-0.34 F25
G1 X1.433 Y1.9851 F25
G3 X1.4346 Y1.9778 I0.0352 J0.004
G3 X1.4403 Y1.9667 I0.0392 J0.0132
G3 X1.4488 Y1.9582 I0.0313 J0.0227
G3 X1.4571 Y1.954 I0.017 J0.0232
G1 X1.4579 Y1.9538
G3 X1.4677 Y1.9522 I0.0098 J0.0299
G3 X1.4797 Y1.954 I-0.0001 J0.0398
G3 X1.49 Y1.9592 I-0.0111 J0.035
G3 X1.4958 Y1.9651 I-0.0143 J0.0198
G2 X1.4979 Y1.968 I0.0513 J-0.0357
G3 X1.502 Y1.9755 I-0.0201 J0.0157
G3 X1.504 Y1.987 I-0.0355 J0.0121
G1 X1.504 Y1.9876
G3 X1.5024 Y1.9986 I-0.0376 J0
G3 X1.4985 Y2.0062 I-0.0245 J-0.0075
G2 X1.4965 Y2.0092 I0.0504 J0.0369
G3 X1.491 Y2.0151 I-0.0202 J-0.0131
G3 X1.4811 Y2.0206 I-0.022 J-0.0285
G3 X1.4691 Y2.0229 I-0.014 J-0.0395
G3 X1.4591 Y2.0221 I-0.0018 J-0.0388
G3 X1.4513 Y2.0184 I0.013 J-0.0374
G3 X1.4431 Y2.0118 I0.022 J-0.0357
G3 X1.4371 Y2.0035 I0.028 J-0.0269
G3 X1.4347 Y1.9978 I0.0266 J-0.0146
G1 Z-0.36 F25
G1 X1.433 Y1.9851 F25
G3 X1.4346 Y1.9778 I0.0352 J0.004
G3 X1.4403 Y1.9667 I0.0392 J0.0132
G3 X1.4488 Y1.9582 I0.0313 J0.0227
G3 X1.4571 Y1.954 I0.017 J0.0232
G1 X1.4579 Y1.9538
G3 X1.4677 Y1.9522 I0.0098 J0.0299
G3 X1.4797 Y1.954 I-0.0001 J0.0398
G3 X1.49 Y1.9592 I-0.0111 J0.035
G3 X1.4958 Y1.9651 I-0.0143 J0.0198
G2 X1.4979 Y1.968 I0.0513 J-0.0357
G3 X1.502 Y1.9755 I-0.0201 J0.0157
G3 X1.504 Y1.987 I-0.0355 J0.0121
G1 X1.504 Y1.9876
G3 X1.5024 Y1.9986 I-0.0376 J0
G3 X1.4985 Y2.0062 I-0.0245 J-0.0075
G2 X1.4965 Y2.0092 I0.0504 J0.0369
G3 X1.491 Y2.0151 I-0.0202 J-0.0131
G3 X1.4811 Y2.0206 I-0.022 J-0.0285
G3 X1.4691 Y2.0229 I-0.014 J-0.0395
G3 X1.4591 Y2.0221 I-0.0018 J-0.0388
G3 X1.4513 Y2.0184 I0.013 J-0.0374
G3 X1.4431 Y2.0118 I0.022 J-0.0357
G3 X1.4371 Y2.0035 I0.028 J-0.0269
G3 X1.4347 Y1.9978 I0.0266 J-0.0146
G1 Z-0.38 F25
G1 X1.433 Y1.9851 F25
G3 X1.4346 Y1.9778 I0.0352 J0.004
G3 X1.4403 Y1.9667 I0.0392 J0.0132
G3 X1.4488 Y1.9582 I0.0313 J0.0227
G3 X1.4571 Y1.954 I0.017 J0.0232
G1 X1.4579 Y1.9538
G3 X1.4677 Y1.9522 I0.0098 J0.0299
G3 X1.4797 Y1.954 I-0.0001 J0.0398
G3 X1.49 Y1.9592 I-0.0111 J0.035
G3 X1.4958 Y1.9651 I-0.0143 J0.0198
G2 X1.4979 Y1.968 I0.0513 J-0.0357
G3 X1.502 Y1.9755 I-0.0201 J0.0157
G3 X1.504 Y1.987 I-0.0355 J0.0121
G1 X1.504 Y1.9876
G3 X1.5024 Y1.9986 I-0.0376 J0
G3 X1.4985 Y2.0062 I-0.0245 J-0.0075
G2 X1.4965 Y2.0092 I0.0504 J0.0369
G3 X1.491 Y2.0151 I-0.0202 J-0.0131
G3 X1.4811 Y2.0206 I-0.022 J-0.0285
G3 X1.4691 Y2.0229 I-0.014 J-0.0395
G3 X1.4591 Y2.0221 I-0.0018 J-0.0388
G3 X1.4513 Y2.0184 I0.013 J-0.0374
G3 X1.4431 Y2.0118 I0.022 J-0.0357
G3 X1.4371 Y2.0035 I0.028 J-0.0269
G3 X1.4347 Y1.9978 I0.0266 J-0.0146
G1 Z-0.4 F25
G1 X1.433 Y1.9851 F25
G3 X1.4346 Y1.9778 I0.0352 J0.004
G3 X1.4403 Y1.9667 I0.0392 J0.0132
G3 X1.4488 Y1.9582 I0.0313 J0.0227
G3 X1.4571 Y1.954 I0.017 J0.0232
G1 X1.4579 Y1.9538
G3 X1.4677 Y1.9522 I0.0098 J0.0299
G3 X1.4797 Y1.954 I-0.0001 J0.0398
G3 X1.49 Y1.9592 I-0.0111 J0.035
G3 X1.4958 Y1.9651 I-0.0143 J0.0198
G2 X1.4979 Y1.968 I0.0513 J-0.0357
G3 X1.502 Y1.9755 I-0.0201 J0.0157
G3 X1.504 Y1.987 I-0.0355 J0.0121
G1 X1.504 Y1.9876
G3 X1.5024 Y1.9986 I-0.0376 J0
G3 X1.4985 Y2.0062 I-0.0245 J-0.0075
G2 X1.4965 Y2.0092 I0.0504 J0.0369
G3 X1.491 Y2.0151 I-0.0202 J-0.0131
G3 X1.4811 Y2.0206 I-0.022 J-0.0285
G3 X1.4691 Y2.0229 I-0.014 J-0.0395
G3 X1.4591 Y2.0221 I-0.0018 J-0.0388
G3 X1.4513 Y2.0184 I0.013 J-0.0374
G3 X1.4431 Y2.0118 I0.022 J-0.0357
G3 X1.4371 Y2.0035 I0.028 J-0.0269
G3 X1.4347 Y1.9978 I0.0266 J-0.0146
G1 Z-0.42 F25
G1 X1.433 Y1.9851 F25
G3 X1.4346 Y1.9778 I0.0352 J0.004
G3 X1.4403 Y1.9667 I0.0392 J0.0132
G3 X1.4488 Y1.9582 I0.0313 J0.0227
G3 X1.4571 Y1.954 I0.017 J0.0232
G1 X1.4579 Y1.9538
G3 X1.4677 Y1.9522 I0.0098 J0.0299
G3 X1.4797 Y1.954 I-0.0001 J0.0398
G3 X1.49 Y1.9592 I-0.0111 J0.035
G3 X1.4958 Y1.9651 I-0.0143 J0.0198
G2 X1.4979 Y1.968 I0.0513 J-0.0357
G3 X1.502 Y1.9755 I-0.0201 J0.0157
G3 X1.504 Y1.987 I-0.0355 J0.0121
G1 X1.504 Y1.9876
G3 X1.5024 Y1.9986 I-0.0376 J0
G3 X1.4985 Y2.0062 I-0.0245 J-0.0075
G2 X1.4965 Y2.0092 I0.0504 J0.0369
G3 X1.491 Y2.0151 I-0.0202 J-0.0131
G3 X1.4811 Y2.0206 I-0.022 J-0.0285
G3 X1.4691 Y2.0229 I-0.014 J-0.0395
G3 X1.4591 Y2.0221 I-0.0018 J-0.0388
G3 X1.4513 Y2.0184 I0.013 J-0.0374
G3 X1.4431 Y2.0118 I0.022 J-0.0357
G3 X1.4371 Y2.0035 I0.028 J-0.0269
G3 X1.4347 Y1.9978 I0.0266 J-0.0146
G1 Z-0.44 F25
G1 X1.433 Y1.9851 F25
G3 X1.4346 Y1.9778 I0.0352 J0.004
G3 X1.4403 Y1.9667 I0.0392 J0.0132
G3 X1.4488 Y1.9582 I0.0313 J0.0227
G3 X1.4571 Y1.954 I0.017 J0.0232
G1 X1.4579 Y1.9538
G3 X1.4677 Y1.9522 I0.0098 J0.0299
G3 X1.4797 Y1.954 I-0.0001 J0.0398
G3 X1.49 Y1.9592 I-0.0111 J0.035
G3 X1.4958 Y1.9651 I-0.0143 J0.0198
G2 X1.4979 Y1.968 I0.0513 J-0.0357
G3 X1.502 Y1.9755 I-0.0201 J0.0157
G3 X1.504 Y1.987 I-0.0355 J0.0121
G1 X1.504 Y1.9876
G3 X1.5024 Y1.9986 I-0.0376 J0
G3 X1.4985 Y2.0062 I-0.0245 J-0.0075
G2 X1.4965 Y2.0092 I0.0504 J0.0369
G3 X1.491 Y2.0151 I-0.0202 J-0.0131
G3 X1.4811 Y2.0206 I-0.022 J-0.0285
G3 X1.4691 Y2.0229 I-0.014 J-0.0395
G3 X1.4591 Y2.0221 I-0.0018 J-0.0388
G3 X1.4513 Y2.0184 I0.013 J-0.0374
G3 X1.4431 Y2.0118 I0.022 J-0.0357
G3 X1.4371 Y2.0035 I0.028 J-0.0269
G3 X1.4347 Y1.9978 I0.0266 J-0.0146
G1 Z-0.46 F25
G1 X1.433 Y1.9851 F25
G3 X1.4346 Y1.9778 I0.0352 J0.004
G3 X1.4403 Y1.9667 I0.0392 J0.0132
G3 X1.4488 Y1.9582 I0.0313 J0.0227
G3 X1.4571 Y1.954 I0.017 J0.0232
G1 X1.4579 Y1.9538
G3 X1.4677 Y1.9522 I0.0098 J0.0299
G3 X1.4797 Y1.954 I-0.0001 J0.0398
G3 X1.49 Y1.9592 I-0.0111 J0.035
G3 X1.4958 Y1.9651 I-0.0143 J0.0198
G2 X1.4979 Y1.968 I0.0513 J-0.0357
G3 X1.502 Y1.9755 I-0.0201 J0.0157
G3 X1.504 Y1.987 I-0.0355 J0.0121
G1 X1.504 Y1.9876
G3 X1.5024 Y1.9986 I-0.0376 J0
G3 X1.4985 Y2.0062 I-0.0245 J-0.0075
G2 X1.4965 Y2.0092 I0.0504 J0.0369
G3 X1.491 Y2.0151 I-0.0202 J-0.0131
G3 X1.4811 Y2.0206 I-0.022 J-0.0285
G3 X1.4691 Y2.0229 I-0.014 J-0.0395
G3 X1.4591 Y2.0221 I-0.0018 J-0.0388
G3 X1.4513 Y2.0184 I0.013 J-0.0374
G3 X1.4431 Y2.0118 I0.022 J-0.0357
G3 X1.4371 Y2.0035 I0.028 J-0.0269
G3 X1.4347 Y1.9978 I0.0266 J-0.0146
G1 Z-0.48 F25
G1 X1.433 Y1.9851 F25
G3 X1.4346 Y1.9778 I0.0352 J0.004
G3 X1.4403 Y1.9667 I0.0392 J0.0132
G3 X1.4488 Y1.9582 I0.0313 J0.0227
G3 X1.4571 Y1.954 I0.017 J0.0232
G1 X1.4579 Y1.9538
G3 X1.4677 Y1.9522 I0.0098 J0.0299
G3 X1.4797 Y1.954 I-0.0001 J0.0398
G3 X1.49 Y1.9592 I-0.0111 J0.035
G3 X1.4958 Y1.9651 I-0.0143 J0.0198
G2 X1.4979 Y1.968 I0.0513 J-0.0357
G3 X1.502 Y1.9755 I-0.0201 J0.0157
G3 X1.504 Y1.987 I-0.0355 J0.0121
G1 X1.504 Y1.9876
G3 X1.5024 Y1.9986 I-0.0376 J0
G3 X1.4985 Y2.0062 I-0.0245 J-0.0075
G2 X1.4965 Y2.0092 I0.0504 J0.0369
G3 X1.491 Y2.0151 I-0.0202 J-0.0131
G3 X1.4811 Y2.0206 I-0.022 J-0.0285
G3 X1.4691 Y2.0229 I-0.014 J-0.0395
G3 X1.4591 Y2.0221 I-0.0018 J-0.0388
G3 X1.4513 Y2.0184 I0.013 J-0.0374
G3 X1.4431 Y2.0118 I0.022 J-0.0357
G3 X1.4371 Y2.0035 I0.028 J-0.0269
G3 X1.4347 Y1.9978 I0.0266 J-0.0146
G1 Z-0.5 F25
G1 X1.433 Y1.9851 F25
G3 X1.4346 Y1.9778 I0.0352 J0.004
G3 X1.4403 Y1.9667 I0.0392 J0.0132
G3 X1.4488 Y1.9582 I0.0313 J0.0227
G3 X1.4571 Y1.954 I0.017 J0.0232
G1 X1.4579 Y1.9538
G3 X1.4677 Y1.9522 I0.0098 J0.0299
G3 X1.4797 Y1.954 I-0.0001 J0.0398
G3 X1.49 Y1.9592 I-0.0111 J0.035
G3 X1.4958 Y1.9651 I-0.0143 J0.0198
G2 X1.4979 Y1.968 I0.0513 J-0.0357
G3 X1.502 Y1.9755 I-0.0201 J0.0157
G3 X1.504 Y1.987 I-0.0355 J0.0121
G1 X1.504 Y1.9876
G3 X1.5024 Y1.9986 I-0.0376 J0
G3 X1.4985 Y2.0062 I-0.0245 J-0.0075
G2 X1.4965 Y2.0092 I0.0504 J0.0369
G3 X1.491 Y2.0151 I-0.0202 J-0.0131
G3 X1.4811 Y2.0206 I-0.022 J-0.0285
G3 X1.4691 Y2.0229 I-0.014 J-0.0395
G3 X1.4591 Y2.0221 I-0.0018 J-0.0388
G3 X1.4513 Y2.0184 I0.013 J-0.0374
G3 X1.4431 Y2.0118 I0.022 J-0.0357
G3 X1.4371 Y2.0035 I0.028 J-0.0269
G3 X1.4347 Y1.9978 I0.0266 J-0.0146
G1 Z-0.52 F25
G1 X1.433 Y1.9851 F25
G3 X1.4346 Y1.9778 I0.0352 J0.004
G3 X1.4403 Y1.9667 I0.0392 J0.0132
G3 X1.4488 Y1.9582 I0.0313 J0.0227
G3 X1.4571 Y1.954 I0.017 J0.0232
G1 X1.4579 Y1.9538
G3 X1.4677 Y1.9522 I0.0098 J0.0299
G3 X1.4797 Y1.954 I-0.0001 J0.0398
G3 X1.49 Y1.9592 I-0.0111 J0.035
G3 X1.4958 Y1.9651 I-0.0143 J0.0198
G2 X1.4979 Y1.968 I0.0513 J-0.0357
G3 X1.502 Y1.9755 I-0.0201 J0.0157
G3 X1.504 Y1.987 I-0.0355 J0.0121
G1 X1.504 Y1.9876
G3 X1.5024 Y1.9986 I-0.0376 J0
G3 X1.4985 Y2.0062 I-0.0245 J-0.0075
G2 X1.4965 Y2.0092 I0.0504 J0.0369
G3 X1.491 Y2.0151 I-0.0202 J-0.0131
G3 X1.4811 Y2.0206 I-0.022 J-0.0285
G3 X1.4691 Y2.0229 I-0.014 J-0.0395
G3 X1.4591 Y2.0221 I-0.0018 J-0.0388
G3 X1.4513 Y2.0184 I0.013 J-0.0374
G3 X1.4431 Y2.0118 I0.022 J-0.0357
G3 X1.4371 Y2.0035 I0.028 J-0.0269
G3 X1.4347 Y1.9978 I0.0266 J-0.0146

(profile 4-1)
G0 Z0.25
G0 X3.1254 Y3.7441
G1 Z-0.02 F25
G1 X3.1302 Y3.7557 F25
G3 X3.1306 Y3.761 I-0.0354 J0.0053
G3 X3.1305 Y3.7633 I-0.0358 J0
G3 X3.1278 Y3.7754 I-0.0414 J-0.0027
G3 X3.1219 Y3.7858 I-0.0356 J-0.0136
G3 X3.115 Y3.7919 I-0.0215 J-0.0174
G2 X3.1137 Y3.7927 I0.033 J0.053
G3 X3.1051 Y3.7966 I-0.016 J-0.0243
G3 X3.0932 Y3.7978 I-0.0101 J-0.038
G3 X3.0817 Y3.7954 I0.0018 J-0.0372
G3 X3.0746 Y3.7912 I0.0087 J-0.0229
G2 X3.0719 Y3.789 I-0.0403 J0.0478
G3 X3.066 Y3.7829 I0.0153 J-0.0203
G3 X3.0611 Y3.7723 I0.0311 J-0.0209
G3 X3.0597 Y3.762 I0.0362 J-0.0103
G3 X3.0597 Y3.7606 I0.0377 J0
G3 X3.0614 Y3.7522 I0.0258 J0.0009
G2 X3.0625 Y3.7492 I-0.0583 J-0.0226
G3 X3.0665 Y3.7416 I0.0244 J0.0081
G3 X3.0749 Y3.7336 I0.0295 J0.0225
G3 X3.0857 Y3.7284 I0.0223 J0.0323
G3 X3.0953 Y3.7271 I0.009 J0.0293
G1 X3.0958 Y3.7271
G3 X3.1042 Y3.7283 I-0.0004 J0.0311
G3 X3.1134 Y3.7324 I-0.0109 J0.0368
G3 X3.1213 Y3.7388 I-0.0205 J0.0334
G3 X3.1254 Y3.7441 I-0.0241 J0.0229
G1 Z-0.04 F25
G1 X3.1302 Y3.7557 F25
G3 X3.1306 Y3.761 I-0.0354 J0.0053
G3 X3.1305 Y3.7633 I-0.0358 J0
G3 X3.1278 Y3.7754 I-0.0414 J-0.0027
G3 X3.1219 Y3.7858 I-0.0356 J-0.0136
G3 X3.115 Y3.7919 I-0.0215 J-0.0174
G2 X3.1137 Y3.7927 I0.033 J0.053
G3 X3.1051 Y3.7966 I-0.016 J-0.0243
G3 X3.0932 Y3.7978 I-0.0101 J-0.038
G3 X3.0817 Y3.7954 I0.0018 J-0.0372
G3 X3.0746 Y3.7912 I0.0087 J-0.0229
G2 X3.0719 Y3.789 I-0.0403 J0.0478
G3 X3.066 Y3.7829 I0.0153 J-0.0203
G3 X3.0611 Y3.7723 I0.0311 J-0.0209
G3 X3.0597 Y3.762 I0.0362 J-0.0103
G3 X3.0597 Y3.7606 I0.0377 J0
G3 X3.0614 Y3.7522 I0.0258 J0.0009
G2 X3.0625 Y3.7492 I-0.0583 J-0.0226
G3 X3.0665 Y3.7416 I0.0244 J0.0081
G3 X3.0749 Y3.7336 I0.0295 J0.0225
G3 X3.0857 Y3.7284 I0.0223 J0.0323
G3 X3.0953 Y3.7271 I0.009 J0.0293
G1 X3.0958 Y3.7271
G3 X3.1042 Y3.7283 I-0.0004 J0.0311
G3 X3.1134 Y3.7324 I-0.0109 J0.0368
G3 X3.1213 Y3.7388 I-0.0205 J0.0334
G3 X3.1254 Y3.7441 I-0.0241 J0.0229
G1 Z-0.06 F25
G1 X3.1302 Y3.7557 F25
G3 X3.1306 Y3.761 I-0.0354 J0.0053
G3 X3.1305 Y3.7633 I-0.0358 J0
G3 X3.1278 Y3.7754 I-0.0414 J-0.0027
G3 X3.1219 Y3.7858 I-0.0356 J-0.0136
G3 X3.115 Y3.7919 I-0.0215 J-0.0174
G2 X3.1137 Y3.7927 I0.033 J0.053
G3 X3.1051 Y3.7966 I-0.016 J-0.0243
G3 X3.0932 Y3.7978 I-0.0101 J-0.038
G3 X3.0817 Y3.7954 I0.0018 J-0.0372
G3 X3.0746 Y3.7912 I0.0087 J-0.0229
G2 X3.0719 Y3.789 I-0.0403 J0.0478
G3 X3.066 Y3.7829 I0.0153 J-0.0203
G3 X3.0611 Y3.7723 I0.0311 J-0.0209
G3 X3.0597 Y3.762 I0.0362 J-0.0103
G3 X3.0597 Y3.7606 I0.0377 J0
G3 X3.0614 Y3.7522 I0.0258 J0.0009
G2 X3.0625 Y3.7492 I-0.0583 J-0.0226
G3 X3.0665 Y3.7416 I0.0244 J0.0081
G3 X3.0749 Y3.7336 I0.0295 J0.0225
G3 X3.0857 Y3.7284 I0.0223 J0.0323
G3 X3.0953 Y3.7271 I0.009 J0.0293
G1 X3.0958 Y3.7271
G3 X3.1042 Y3.7283 I-0.0004 J0.0311
G3 X3.1134 Y3.7324 I-0.0109 J0.0368
G3 X3.1213 Y3.7388 I-0.0205 J0.0334
G3 X3.1254 Y3.7441 I-0.0241 J0.0229
G1 Z-0.08 F25
G1 X3.1302 Y3.7557 F25
G3 X3.1306 Y3.761 I-0.0354 J0.0053
G3 X3.1305 Y3.7633 I-0.0358 J0
G3 X3.1278 Y3.7754 I-0.0414 J-0.0027
G3 X3.1219 Y3.7858 I-0.0356 J-0.0136
G3 X3.115 Y3.7919 I-0.0215 J-0.0174
G2 X3.1137 Y3.7927 I0.033 J0.053
G3 X3.1051 Y3.7966 I-0.016 J-0.0243
G3 X3.0932 Y3.7978 I-0.0101 J-0.038
G3 X3.0817 Y3.7954 I0.0018 J-0.0372
G3 X3.0746 Y3.7912 I0.0087 J-0.0229
G2 X3.0719 Y3.789 I-0.0403 J0.0478
G3 X3.066 Y3.7829 I0.0153 J-0.0203
G3 X3.0611 Y3.7723 I0.0311 J-0.0209
G3 X3.0597 Y3.762 I0.0362 J-0.0103
G3 X3.0597 Y3.7606 I0.0377 J0
G3 X3.0614 Y3.7522 I0.0258 J0.0009
G2 X3.0625 Y3.7492 I-0.0583 J-0.0226
G3 X3.0665 Y3.7416 I0.0244 J0.0081
G3 X3.0749 Y3.7336 I0.0295 J0.0225
G3 X3.0857 Y3.7284 I0.0223 J0.0323
G3 X3.0953 Y3.7271 I0.009 J0.0293
G1 X3.0958 Y3.7271
G3 X3.1042 Y3.7283 I-0.0004 J0.0311
G3 X3.1134 Y3.7324 I-0.0109 J0.0368
G3 X3.1213 Y3.7388 I-0.0205 J0.0334
G3 X3.1254 Y3.7441 I-0.0241 J0.0229
G1 Z-0.1 F25
G1 X3.1302 Y3.7557 F25
G3 X3.1306 Y3.761 I-0.0354 J0.0053
G3 X3.1305 Y3.7633 I-0.0358 J0
G3 X3.1278 Y3.7754 I-0.0414 J-0.0027
G3 X3.1219 Y3.7858 I-0.0356 J-0.0136
G3 X3.115 Y3.7919 I-0.0215 J-0.0174
G2 X3.1137 Y3.7927 I0.033 J0.053
G3 X3.1051 Y3.7966 I-0.016 J-0.0243
G3 X3.0932 Y3.7978 I-0.0101 J-0.038
G3 X3.0817 Y3.7954 I0.0018 J-0.0372
G3 X3.0746 Y3.7912 I0.0087 J-0.0229
G2 X3.0719 Y3.789 I-0.0403 J0.0478
G3 X3.066 Y3.7829 I0.0153 J-0.0203
G3 X3.0611 Y3.7723 I0.0311 J-0.0209
G3 X3.0597 Y3.762 I0.0362 J-0.0103
G3 X3.0597 Y3.7606 I0.0377 J0
G3 X3.0614 Y3.7522 I0.0258 J0.0009
G2 X3.0625 Y3.7492 I-0.0583 J-0.0226
G3 X3.0665 Y3.7416 I0.0244 J0.0081
G3 X3.0749 Y3.7336 I0.0295 J0.0225
G3 X3.0857 Y3.7284 I0.0223 J0.0323
G3 X3.0953 Y3.7271 I0.009 J0.0293
G1 X3.0958 Y3.7271
G3 X3.1042 Y3.7283 I-0.0004 J0.0311
G3 X3.1134 Y3.7324 I-0.0109 J0.0368
G3 X3.1213 Y3.7388 I-0.0205 J0.0334
G3 X3.1254 Y3.7441 I-0.0241 J0.0229
G1 Z-0.12 F25
G1 X3.1302 Y3.7557 F25
G3 X3.1306 Y3.761 I-0.0354 J0.0053
G3 X3.1305 Y3.7633 I-0.0358 J0
G3 X3.1278 Y3.7754 I-0.0414 J-0.0027
G3 X3.1219 Y3.7858 I-0.0356 J-0.0136
G3 X3.115 Y3.7919 I-0.0215 J-0.0174
G2 X3.1137 Y3.7927 I0.033 J0.053
G3 X3.1051 Y3.7966 I-0.016 J-0.0243
G3 X3.0932 Y3.7978 I-0.0101 J-0.038
G3 X3.0817 Y3.7954 I0.0018 J-0.0372
G3 X3.0746 Y3.7912 I0.0087 J-0.0229
G2 X3.0719 Y3.789 I-0.0403 J0.0478
G3 X3.066 Y3.7829 I0.0153 J-0.0203
G3 X3.0611 Y3.7723 I0.0311 J-0.0209
G3 X3.0597 Y3.762 I0.0362 J-0.0103
G3 X3.0597 Y3.7606 I0.0377 J0
G3 X3.0614 Y3.7522 I0.0258 J0.0009
G2 X3.0625 Y3.7492 I-0.0583 J-0.0226
G3 X3.0665 Y3.7416 I0.0244 J0.0081
G3 X3.0749 Y3.7336 I0.0295 J0.0225
G3 X3.0857 Y3.7284 I0.0223 J0.0323
G3 X3.0953 Y3.7271 I0.009 J0.0293
G1 X3.0958 Y3.7271
G3 X3.1042 Y3.7283 I-0.0004 J0.0311
G3 X3.1134 Y3.7324 I-0.0109 J0.0368
G3 X3.1213 Y3.7388 I-0.0205 J0.0334
G3 X3.1254 Y3.7441 I-0.0241 J0.0229
G1 Z-0.14 F25
G1 X3.1302 Y3.7557 F25
G3 X3.1306 Y3.761 I-0.0354 J0.0053
G3 X3.1305 Y3.7633 I-0.0358 J0
G3 X3.1278 Y3.7754 I-0.0414 J-0.0027
G3 X3.1219 Y3.7858 I-0.0356 J-0.0136
G3 X3.115 Y3.7919 I-0.0215 J-0.0174
G2 X3.1137 Y3.7927 I0.033 J0.053
G3 X3.1051 Y3.7966 I-0.016 J-0.0243
G3 X3.0932 Y3.7978 I-0.0101 J-0.038
G3 X3.0817 Y3.7954 I0.0018 J-0.0372
G3 X3.0746 Y3.7912 I0.0087 J-0.0229
G2 X3.0719 Y3.789 I-0.0403 J0.0478
G3 X3.066 Y3.7829 I0.0153 J-0.0203
G3 X3.0611 Y3.7723 I0.0311 J-0.0209
G3 X3.0597 Y3.762 I0.0362 J-0.0103
G3 X3.0597 Y3.7606 I0.0377 J0
G3 X3.0614 Y3.7522 I0.0258 J0.0009
G2 X3.0625 Y3.7492 I-0.0583 J-0.0226
G3 X3.0665 Y3.7416 I0.0244 J0.0081
G3 X3.0749 Y3.7336 I0.0295 J0.0225
G3 X3.0857 Y3.7284 I0.0223 J0.0323
G3 X3.0953 Y3.7271 I0.009 J0.0293
G1 X3.0958 Y3.7271
G3 X3.1042 Y3.7283 I-0.0004 J0.0311
G3 X3.1134 Y3.7324 I-0.0109 J0.0368
G3 X3.1213 Y3.7388 I-0.0205 J0.0334
G3 X3.1254 Y3.7441 I-0.0241 J0.0229
G1 Z-0.16 F25
G1 X3.1302 Y3.7557 F25
G3 X3.1306 Y3.761 I-0.0354 J0.0053
G3 X3.1305 Y3.7633 I-0.0358 J0
G3 X3.1278 Y3.7754 I-0.0414 J-0.0027
G3 X3.1219 Y3.7858 I-0.0356 J-0.0136
G3 X3.115 Y3.7919 I-0.0215 J-0.0174
G2 X3.1137 Y3.7927 I0.033 J0.053
G3 X3.1051 Y3.7966 I-0.016 J-0.0243
G3 X3.0932 Y3.7978 I-0.0101 J-0.038
G3 X3.0817 Y3.7954 I0.0018 J-0.0372
G3 X3.0746 Y3.7912 I0.0087 J-0.0229
G2 X3.0719 Y3.789 I-0.0403 J0.0478
G3 X3.066 Y3.7829 I0.0153 J-0.0203
G3 X3.0611 Y3.7723 I0.0311 J-0.0209
G3 X3.0597 Y3.762 I0.0362 J-0.0103
G3 X3.0597 Y3.7606 I0.0377 J0
G3 X3.0614 Y3.7522 I0.0258 J0.0009
G2 X3.0625 Y3.7492 I-0.0583 J-0.0226
G3 X3.0665 Y3.7416 I0.0244 J0.0081
G3 X3.0749 Y3.7336 I0.0295 J0.0225
G3 X3.0857 Y3.7284 I0.0223 J0.0323
G3 X3.0953 Y3.7271 I0.009 J0.0293
G1 X3.0958 Y3.7271
G3 X3.1042 Y3.7283 I-0.0004 J0.0311
G3 X3.1134 Y3.7324 I-0.0109 J0.0368
G3 X3.1213 Y3.7388 I-0.0205 J0.0334
G3 X3.1254 Y3.7441 I-0.0241 J0.0229
G1 Z-0.18 F25
G1 X3.1302 Y3.7557 F25
G3 X3.1306 Y3.761 I-0.0354 J0.0053
G3 X3.1305 Y3.7633 I-0.0358 J0
G3 X3.1278 Y3.7754 I-0.0414 J-0.0027
G3 X3.1219 Y3.7858 I-0.0356 J-0.0136
G3 X3.115 Y3.7919 I-0.0215 J-0.0174
G2 X3.1137 Y3.7927 I0.033 J0.053
G3 X3.1051 Y3.7966 I-0.016 J-0.0243
G3 X3.0932 Y3.7978 I-0.0101 J-0.038
G3 X3.0817 Y3.7954 I0.0018 J-0.0372
G3 X3.0746 Y3.7912 I0.0087 J-0.0229
G2 X3.0719 Y3.789 I-0.0403 J0.0478
G3 X3.066 Y3.7829 I0.0153 J-0.0203
G3 X3.0611 Y3.7723 I0.0311 J-0.0209
G3 X3.0597 Y3.762 I0.0362 J-0.0103
G3 X3.0597 Y3.7606 I0.0377 J0
G3 X3.0614 Y3.7522 I0.0258 J0.0009
G2 X3.0625 Y3.7492 I-0.0583 J-0.0226
G3 X3.0665 Y3.7416 I0.0244 J0.0081
G3 X3.0749 Y3.7336 I0.0295 J0.0225
G3 X3.0857 Y3.7284 I0.0223 J0.0323
G3 X3.0953 Y3.7271 I0.009 J0.0293
G1 X3.0958 Y3.7271
G3 X3.1042 Y3.7283 I-0.0004 J0.0311
G3 X3.1134 Y3.7324 I-0.0109 J0.0368
G3 X3.1213 Y3.7388 I-0.0205 J0.0334
G3 X3.1254 Y3.7441 I-0.0241 J0.0229
G1 Z-0.2 F25
G1 X3.1302 Y3.7557 F25
G3 X3.1306 Y3.761 I-0.0354 J0.0053
G3 X3.1305 Y3.7633 I-0.0358 J0
G3 X3.1278 Y3.7754 I-0.0414 J-0.0027
G3 X3.1219 Y3.7858 I-0.0356 J-0.0136
G3 X3.115 Y3.7919 I-0.0215 J-0.0174
G2 X3.1137 Y3.7927 I0.033 J0.053
G3 X3.1051 Y3.7966 I-0.016 J-0.0243
G3 X3.0932 Y3.7978 I-0.0101 J-0.038
G3 X3.0817 Y3.7954 I0.0018 J-0.0372
G3 X3.0746 Y3.7912 I0.0087 J-0.0229
G2 X3.0719 Y3.789 I-0.0403 J0.0478
G3 X3.066 Y3.7829 I0.0153 J-0.0203
G3 X3.0611 Y3.7723 I0.0311 J-0.0209
G3 X3.0597 Y3.762 I0.0362 J-0.0103
G3 X3.0597 Y3.7606 I0.0377 J0
G3 X3.0614 Y3.7522 I0.0258 J0.0009
G2 X3.0625 Y3.7492 I-0.0583 J-0.0226
G3 X3.0665 Y3.7416 I0.0244 J0.0081
G3 X3.0749 Y3.7336 I0.0295 J0.0225
G3 X3.0857 Y3.7284 I0.0223 J0.0323
G3 X3.0953 Y3.7271 I0.009 J0.0293
G1 X3.0958 Y3.7271
G3 X3.1042 Y3.7283 I-0.0004 J0.0311
G3 X3.1134 Y3.7324 I-0.0109 J0.0368
G3 X3.1213 Y3.7388 I-0.0205 J0.0334
G3 X3.1254 Y3.7441 I-0.0241 J0.0229
G1 Z-0.22 F25
G1 X3.1302 Y3.7557 F25
G3 X3.1306 Y3.761 I-0.0354 J0.0053
G3 X3.1305 Y3.7633 I-0.0358 J0
G3 X3.1278 Y3.7754 I-0.0414 J-0.0027
G3 X3.1219 Y3.7858 I-0.0356 J-0.0136
G3 X3.115 Y3.7919 I-0.0215 J-0.0174
G2 X3.1137 Y3.7927 I0.033 J0.053
G3 X3.1051 Y3.7966 I-0.016 J-0.0243
G3 X3.0932 Y3.7978 I-0.0101 J-0.038
G3 X3.0817 Y3.7954 I0.0018 J-0.0372
G3 X3.0746 Y3.7912 I0.0087 J-0.0229
G2 X3.0719 Y3.789 I-0.0403 J0.0478
G3 X3.066 Y3.7829 I0.0153 J-0.0203
G3 X3.0611 Y3.7723 I0.0311 J-0.0209
G3 X3.0597 Y3.762 I0.0362 J-0.0103
G3 X3.0597 Y3.7606 I0.0377 J0
G3 X3.0614 Y3.7522 I0.0258 J0.0009
G2 X3.0625 Y3.7492 I-0.0583 J-0.0226
G3 X3.0665 Y3.7416 I0.0244 J0.0081
G3 X3.0749 Y3.7336 I0.0295 J0.0225
G3 X3.0857 Y3.7284 I0.0223 J0.0323
G3 X3.0953 Y3.7271 I0.009 J0.0293
G1 X3.0958 Y3.7271
G3 X3.1042 Y3.7283 I-0.0004 J0.0311
G3 X3.1134 Y3.7324 I-0.0109 J0.0368
G3 X3.1213 Y3.7388 I-0.0205 J0.0334
G3 X3.1254 Y3.7441 I-0.0241 J0.0229
G1 Z-0.24 F25
G1 X3.1302 Y3.7557 F25
G3 X3.1306 Y3.761 I-0.0354 J0.0053
G3 X3.1305 Y3.7633 I-0.0358 J0
G3 X3.1278 Y3.7754 I-0.0414 J-0.0027
G3 X3.1219 Y3.7858 I-0.0356 J-0.0136
G3 X3.115 Y3.7919 I-0.0215 J-0.0174
G2 X3.1137 Y3.7927 I0.033 J0.053
G3 X3.1051 Y3.7966 I-0.016 J-0.0243
G3 X3.0932 Y3.7978 I-0.0101 J-0.038
G3 X3.0817 Y3.7954 I0.0018 J-0.0372
G3 X3.0746 Y3.7912 I0.0087 J-0.0229
G2 X3.0719 Y3.789 I-0.0403 J0.0478
G3 X3.066 Y3.7829 I0.0153 J-0.0203
G3 X3.0611 Y3.7723 I0.0311 J-0.0209
G3 X3.0597 Y3.762 I0.0362 J-0.0103
G3 X3.0597 Y3.7606 I0.0377 J0
G3 X3.0614 Y3.7522 I0.0258 J0.0009
G2 X3.0625 Y3.7492 I-0.0583 J-0.0226
G3 X3.0665 Y3.7416 I0.0244 J0.0081
G3 X3.0749 Y3.7336 I0.0295 J0.0225
G3 X3.0857 Y3.7284 I0.0223 J0.0323
G3 X3.0953 Y3.7271 I0.009 J0.0293
G1 X3.0958 Y3.7271
G3 X3.1042 Y3.7283 I-0.0004 J0.0311
G3 X3.1134 Y3.7324 I-0.0109 J0.0368
G3 X3.1213 Y3.7388 I-0.0205 J0.0334
G3 X3.1254 Y3.7441 I-0.0241 J0.0229
G1 Z-0.26 F25
G1 X3.1302 Y3.7557 F25
G3 X3.1306 Y3.761 I-0.0354 J0.0053
G3 X3.1305 Y3.7633 I-0.0358 J0
G3 X3.1278 Y3.7754 I-0.0414 J-0.0027
G3 X3.1219 Y3.7858 I-0.0356 J-0.0136
G3 X3.115 Y3.7919 I-0.0215 J-0.0174
G2 X3.1137 Y3.7927 I0.033 J0.053
G3 X3.1051 Y3.7966 I-0.016 J-0.0243
G3 X3.0932 Y3.7978 I-0.0101 J-0.038
G3 X3.0817 Y3.7954 I0.0018 J-0.0372
G3 X3.0746 Y3.7912 I0.0087 J-0.0229
G2 X3.0719 Y3.789 I-0.0403 J0.0478
G3 X3.066 Y3.7829 I0.0153 J-0.0203
G3 X3.0611 Y3.7723 I0.0311 J-0.0209
G3 X3.0597 Y3.762 I0.0362 J-0.0103
G3 X3.0597 Y3.7606 I0.0377 J0
G3 X3.0614 Y3.7522 I0.0258 J0.0009
G2 X3.0625 Y3.7492 I-0.0583 J-0.0226
G3 X3.0665 Y3.7416 I0.0244 J0.0081
G3 X3.0749 Y3.7336 I0.0295 J0.0225
G3 X3.0857 Y3.7284 I0.0223 J0.0323
G3 X3.0953 Y3.7271 I0.009 J0.0293
G1 X3.0958 Y3.7271
G3 X3.1042 Y3.7283 I-0.0004 J0.0311
G3 X3.1134 Y3.7324 I-0.0109 J0.0368
G3 X3.1213 Y3.7388 I-0.0205 J0.0334
G3 X3.1254 Y3.7441 I-0.0241 J0.0229
G1 Z-0.28 F25
G1 X3.1302 Y3.7557 F25
G3 X3.1306 Y3.761 I-0.0354 J0.0053
G3 X3.1305 Y3.7633 I-0.0358 J0
G3 X3.1278 Y3.7754 I-0.0414 J-0.0027
G3 X3.1219 Y3.7858 I-0.0356 J-0.0136
G3 X3.115 Y3.7919 I-0.0215 J-0.0174
G2 X3.1137 Y3.7927 I0.033 J0.053
G3 X3.1051 Y3.7966 I-0.016 J-0.0243
G3 X3.0932 Y3.7978 I-0.0101 J-0.038
G3 X3.0817 Y3.7954 I0.0018 J-0.0372
G3 X3.0746 Y3.7912 I0.0087 J-0.0229
G2 X3.0719 Y3.789 I-0.0403 J0.0478
G3 X3.066 Y3.7829 I0.0153 J-0.0203
G3 X3.0611 Y3.7723 I0.0311 J-0.0209
G3 X3.0597 Y3.762 I0.0362 J-0.0103
G3 X3.0597 Y3.7606 I0.0377 J0
G3 X3.0614 Y3.7522 I0.0258 J0.0009
G2 X3.0625 Y3.7492 I-0.0583 J-0.0226
G3 X3.0665 Y3.7416 I0.0244 J0.0081
G3 X3.0749 Y3.7336 I0.0295 J0.0225
G3 X3.0857 Y3.7284 I0.0223 J0.0323
G3 X3.0953 Y3.7271 I0.009 J0.0293
G1 X3.0958 Y3.7271
G3 X3.1042 Y3.7283 I-0.0004 J0.0311
G3 X3.1134 Y3.7324 I-0.0109 J0.0368
G3 X3.1213 Y3.7388 I-0.0205 J0.0334
G3 X3.1254 Y3.7441 I-0.0241 J0.0229
G1 Z-0.3 F25
G1 X3.1302 Y3.7557 F25
G3 X3.1306 Y3.761 I-0.0354 J0.0053
G3 X3.1305 Y3.7633 I-0.0358 J0
G3 X3.1278 Y3.7754 I-0.0414 J-0.0027
G3 X3.1219 Y3.7858 I-0.0356 J-0.0136
G3 X3.115 Y3.7919 I-0.0215 J-0.0174
G2 X3.1137 Y3.7927 I0.033 J0.053
G3 X3.1051 Y3.7966 I-0.016 J-0.0243
G3 X3.0932 Y3.7978 I-0.0101 J-0.038
G3 X3.0817 Y3.7954 I0.0018 J-0.0372
G3 X3.0746 Y3.7912 I0.0087 J-0.0229
G2 X3.0719 Y3.789 I-0.0403 J0.0478
G3 X3.066 Y3.7829 I0.0153 J-0.0203
G3 X3.0611 Y3.7723 I0.0311 J-0.0209
G3 X3.0597 Y3.762 I0.0362 J-0.0103
G3 X3.0597 Y3.7606 I0.0377 J0
G3 X3.0614 Y3.7522 I0.0258 J0.0009
G2 X3.0625 Y3.7492 I-0.0583 J-0.0226
G3 X3.0665 Y3.7416 I0.0244 J0.0081
G3 X3.0749 Y3.7336 I0.0295 J0.0225
G3 X3.0857 Y3.7284 I0.0223 J0.0323
G3 X3.0953 Y3.7271 I0.009 J0.0293
G1 X3.0958 Y3.7271
G3 X3.1042 Y3.7283 I-0.0004 J0.0311
G3 X3.1134 Y3.7324 I-0.0109 J0.0368
G3 X3.1213 Y3.7388 I-0.0205 J0.0334
G3 X3.1254 Y3.7441 I-0.0241 J0.0229
G1 Z-0.32 F25
G1 X3.1302 Y3.7557 F25
G3 X3.1306 Y3.761 I-0.0354 J0.0053
G3 X3.1305 Y3.7633 I-0.0358 J0
G3 X3.1278 Y3.7754 I-0.0414 J-0.0027
G3 X3.1219 Y3.7858 I-0.0356 J-0.0136
G3 X3.115 Y3.7919 I-0.0215 J-0.0174
G2 X3.1137 Y3.7927 I0.033 J0.053
G3 X3.1051 Y3.7966 I-0.016 J-0.0243
G3 X3.0932 Y3.7978 I-0.0101 J-0.038
G3 X3.0817 Y3.7954 I0.0018 J-0.0372
G3 X3.0746 Y3.7912 I0.0087 J-0.0229
G2 X3.0719 Y3.789 I-0.0403 J0.0478
G3 X3.066 Y3.7829 I0.0153 J-0.0203
G3 X3.0611 Y3.7723 I0.0311 J-0.0209
G3 X3.0597 Y3.762 I0.0362 J-0.0103
G3 X3.0597 Y3.7606 I0.0377 J0
G3 X3.0614 Y3.7522 I0.0258 J0.0009
G2 X3.0625 Y3.7492 I-0.0583 J-0.0226
G3 X3.0665 Y3.7416 I0.0244 J0.0081
G3 X3.0749 Y3.7336 I0.0295 J0.0225
G3 X3.0857 Y3.7284 I0.0223 J0.0323
G3 X3.0953 Y3.7271 I0.009 J0.0293
G1 X3.0958 Y3.7271
G3 X3.1042 Y3.7283 I-0.0004 J0.0311
G3 X3.1134 Y3.7324 I-0.0109 J0.0368
G3 X3.1213 Y3.7388 I-0.0205 J0.0334
G3 X3.1254 Y3.7441 I-0.0241 J0.0229
G1 Z-0.34 F25
G1 X3.1302 Y3.7557 F25
G3 X3.1306 Y3.761 I-0.0354 J0.0053
G3 X3.1305 Y3.7633 I-0.0358 J0
G3 X3.1278 Y3.7754 I-0.0414 J-0.0027
G3 X3.1219 Y3.7858 I-0.0356 J-0.0136
G3 X3.115 Y3.7919 I-0.0215 J-0.0174
G2 X3.1137 Y3.7927 I0.033 J0.053
G3 X3.1051 Y3.7966 I-0.016 J-0.0243
G3 X3.0932 Y3.7978 I-0.0101 J-0.038
G3 X3.0817 Y3.7954 I0.0018 J-0.0372
G3 X3.0746 Y3.7912 I0.0087 J-0.0229
G2 X3.0719 Y3.789 I-0.0403 J0.0478
G3 X3.066 Y3.7829 I0.0153 J-0.0203
G3 X3.0611 Y3.7723 I0.0311 J-0.0209
G3 X3.0597 Y3.762 I0.0362 J-0.0103
G3 X3.0597 Y3.7606 I0.0377 J0
G3 X3.0614 Y3.7522 I0.0258 J0.0009
G2 X3.0625 Y3.7492 I-0.0583 J-0.0226
G3 X3.0665 Y3.7416 I0.0244 J0.0081
G3 X3.0749 Y3.7336 I0.0295 J0.0225
G3 X3.0857 Y3.7284 I0.0223 J0.0323
G3 X3.0953 Y3.7271 I0.009 J0.0293
G1 X3.0958 Y3.7271
G3 X3.1042 Y3.7283 I-0.0004 J0.0311
G3 X3.1134 Y3.7324 I-0.0109 J0.0368
G3 X3.1213 Y3.7388 I-0.0205 J0.0334
G3 X3.1254 Y3.7441 I-0.0241 J0.0229
G1 Z-0.36 F25
G1 X3.1302 Y3.7557 F25
G3 X3.1306 Y3.761 I-0.0354 J0.0053
G3 X3.1305 Y3.7633 I-0.0358 J0
G3 X3.1278 Y3.7754 I-0.0414 J-0.0027
G3 X3.1219 Y3.7858 I-0.0356 J-0.0136
G3 X3.115 Y3.7919 I-0.0215 J-0.0174
G2 X3.1137 Y3.7927 I0.033 J0.053
G3 X3.1051 Y3.7966 I-0.016 J-0.0243
G3 X3.0932 Y3.7978 I-0.0101 J-0.038
G3 X3.0817 Y3.7954 I0.0018 J-0.0372
G3 X3.0746 Y3.7912 I0.0087 J-0.0229
G2 X3.0719 Y3.789 I-0.0403 J0.0478
G3 X3.066 Y3.7829 I0.0153 J-0.0203
G3 X3.0611 Y3.7723 I0.0311 J-0.0209
G3 X3.0597 Y3.762 I0.0362 J-0.0103
G3 X3.0597 Y3.7606 I0.0377 J0
G3 X3.0614 Y3.7522 I0.0258 J0.0009
G2 X3.0625 Y3.7492 I-0.0583 J-0.0226
G3 X3.0665 Y3.7416 I0.0244 J0.0081
G3 X3.0749 Y3.7336 I0.0295 J0.0225
G3 X3.0857 Y3.7284 I0.0223 J0.0323
G3 X3.0953 Y3.7271 I0.009 J0.0293
G1 X3.0958 Y3.7271
G3 X3.1042 Y3.7283 I-0.0004 J0.0311
G3 X3.1134 Y3.7324 I-0.0109 J0.0368
G3 X3.1213 Y3.7388 I-0.0205 J0.0334
G3 X3.1254 Y3.7441 I-0.0241 J0.0229
G1 Z-0.38 F25
G1 X3.1302 Y3.7557 F25
G3 X3.1306 Y3.761 I-0.0354 J0.0053
G3 X3.1305 Y3.7633 I-0.0358 J0
G3 X3.1278 Y3.7754 I-0.0414 J-0.0027
G3 X3.1219 Y3.7858 I-0.0356 J-0.0136
G3 X3.115 Y3.7919 I-0.0215 J-0.0174
G2 X3.1137 Y3.7927 I0.033 J0.053
G3 X3.1051 Y3.7966 I-0.016 J-0.0243
G3 X3.0932 Y3.7978 I-0.0101 J-0.038
G3 X3.0817 Y3.7954 I0.0018 J-0.0372
G3 X3.0746 Y3.7912 I0.0087 J-0.0229
G2 X3.0719 Y3.789 I-0.0403 J0.0478
G3 X3.066 Y3.7829 I0.0153 J-0.0203
G3 X3.0611 Y3.7723 I0.0311 J-0.0209
G3 X3.0597 Y3.762 I0.0362 J-0.0103
G3 X3.0597 Y3.7606 I0.0377 J0
G3 X3.0614 Y3.7522 I0.0258 J0.0009
G2 X3.0625 Y3.7492 I-0.0583 J-0.0226
G3 X3.0665 Y3.7416 I0.0244 J0.0081
G3 X3.0749 Y3.7336 I0.0295 J0.0225
G3 X3.0857 Y3.7284 I0.0223 J0.0323
G3 X3.0953 Y3.7271 I0.009 J0.0293
G1 X3.0958 Y3.7271
G3 X3.1042 Y3.7283 I-0.0004 J0.0311
G3 X3.1134 Y3.7324 I-0.0109 J0.0368
G3 X3.1213 Y3.7388 I-0.0205 J0.0334
G3 X3.1254 Y3.7441 I-0.0241 J0.0229
G1 Z-0.4 F25
G1 X3.1302 Y3.7557 F25
G3 X3.1306 Y3.761 I-0.0354 J0.0053
G3 X3.1305 Y3.7633 I-0.0358 J0
G3 X3.1278 Y3.7754 I-0.0414 J-0.0027
G3 X3.1219 Y3.7858 I-0.0356 J-0.0136
G3 X3.115 Y3.7919 I-0.0215 J-0.0174
G2 X3.1137 Y3.7927 I0.033 J0.053
G3 X3.1051 Y3.7966 I-0.016 J-0.0243
G3 X3.0932 Y3.7978 I-0.0101 J-0.038
G3 X3.0817 Y3.7954 I0.0018 J-0.0372
G3 X3.0746 Y3.7912 I0.0087 J-0.0229
G2 X3.0719 Y3.789 I-0.0403 J0.0478
G3 X3.066 Y3.7829 I0.0153 J-0.0203
G3 X3.0611 Y3.7723 I0.0311 J-0.0209
G3 X3.0597 Y3.762 I0.0362 J-0.0103
G3 X3.0597 Y3.7606 I0.0377 J0
G3 X3.0614 Y3.7522 I0.0258 J0.0009
G2 X3.0625 Y3.7492 I-0.0583 J-0.0226
G3 X3.0665 Y3.7416 I0.0244 J0.0081
G3 X3.0749 Y3.7336 I0.0295 J0.0225
G3 X3.0857 Y3.7284 I0.0223 J0.0323
G3 X3.0953 Y3.7271 I0.009 J0.0293
G1 X3.0958 Y3.7271
G3 X3.1042 Y3.7283 I-0.0004 J0.0311
G3 X3.1134 Y3.7324 I-0.0109 J0.0368
G3 X3.1213 Y3.7388 I-0.0205 J0.0334
G3 X3.1254 Y3.7441 I-0.0241 J0.0229
G1 Z-0.42 F25
G1 X3.1302 Y3.7557 F25
G3 X3.1306 Y3.761 I-0.0354 J0.0053
G3 X3.1305 Y3.7633 I-0.0358 J0
G3 X3.1278 Y3.7754 I-0.0414 J-0.0027
G3 X3.1219 Y3.7858 I-0.0356 J-0.0136
G3 X3.115 Y3.7919 I-0.0215 J-0.0174
G2 X3.1137 Y3.7927 I0.033 J0.053
G3 X3.1051 Y3.7966 I-0.016 J-0.0243
G3 X3.0932 Y3.7978 I-0.0101 J-0.038
G3 X3.0817 Y3.7954 I0.0018 J-0.0372
G3 X3.0746 Y3.7912 I0.0087 J-0.0229
G2 X3.0719 Y3.789 I-0.0403 J0.0478
G3 X3.066 Y3.7829 I0.0153 J-0.0203
G3 X3.0611 Y3.7723 I0.0311 J-0.0209
G3 X3.0597 Y3.762 I0.0362 J-0.0103
G3 X3.0597 Y3.7606 I0.0377 J0
G3 X3.0614 Y3.7522 I0.0258 J0.0009
G2 X3.0625 Y3.7492 I-0.0583 J-0.0226
G3 X3.0665 Y3.7416 I0.0244 J0.0081
G3 X3.0749 Y3.7336 I0.0295 J0.0225
G3 X3.0857 Y3.7284 I0.0223 J0.0323
G3 X3.0953 Y3.7271 I0.009 J0.0293
G1 X3.0958 Y3.7271
G3 X3.1042 Y3.7283 I-0.0004 J0.0311
G3 X3.1134 Y3.7324 I-0.0109 J0.0368
G3 X3.1213 Y3.7388 I-0.0205 J0.0334
G3 X3.1254 Y3.7441 I-0.0241 J0.0229
G1 Z-0.44 F25
G1 X3.1302 Y3.7557 F25
G3 X3.1306 Y3.761 I-0.0354 J0.0053
G3 X3.1305 Y3.7633 I-0.0358 J0
G3 X3.1278 Y3.7754 I-0.0414 J-0.0027
G3 X3.1219 Y3.7858 I-0.0356 J-0.0136
G3 X3.115 Y3.7919 I-0.0215 J-0.0174
G2 X3.1137 Y3.7927 I0.033 J0.053
G3 X3.1051 Y3.7966 I-0.016 J-0.0243
G3 X3.0932 Y3.7978 I-0.0101 J-0.038
G3 X3.0817 Y3.7954 I0.0018 J-0.0372
G3 X3.0746 Y3.7912 I0.0087 J-0.0229
G2 X3.0719 Y3.789 I-0.0403 J0.0478
G3 X3.066 Y3.7829 I0.0153 J-0.0203
G3 X3.0611 Y3.7723 I0.0311 J-0.0209
G3 X3.0597 Y3.762 I0.0362 J-0.0103
G3 X3.0597 Y3.7606 I0.0377 J0
G3 X3.0614 Y3.7522 I0.0258 J0.0009
G2 X3.0625 Y3.7492 I-0.0583 J-0.0226
G3 X3.0665 Y3.7416 I0.0244 J0.0081
G3 X3.0749 Y3.7336 I0.0295 J0.0225
G3 X3.0857 Y3.7284 I0.0223 J0.0323
G3 X3.0953 Y3.7271 I0.009 J0.0293
G1 X3.0958 Y3.7271
G3 X3.1042 Y3.7283 I-0.0004 J0.0311
G3 X3.1134 Y3.7324 I-0.0109 J0.0368
G3 X3.1213 Y3.7388 I-0.0205 J0.0334
G3 X3.1254 Y3.7441 I-0.0241 J0.0229
G1 Z-0.46 F25
G1 X3.1302 Y3.7557 F25
G3 X3.1306 Y3.761 I-0.0354 J0.0053
G3 X3.1305 Y3.7633 I-0.0358 J0
G3 X3.1278 Y3.7754 I-0.0414 J-0.0027
G3 X3.1219 Y3.7858 I-0.0356 J-0.0136
G3 X3.115 Y3.7919 I-0.0215 J-0.0174
G2 X3.1137 Y3.7927 I0.033 J0.053
G3 X3.1051 Y3.7966 I-0.016 J-0.0243
G3 X3.0932 Y3.7978 I-0.0101 J-0.038
G3 X3.0817 Y3.7954 I0.0018 J-0.0372
G3 X3.0746 Y3.7912 I0.0087 J-0.0229
G2 X3.0719 Y3.789 I-0.0403 J0.0478
G3 X3.066 Y3.7829 I0.0153 J-0.0203
G3 X3.0611 Y3.7723 I0.0311 J-0.0209
G3 X3.0597 Y3.762 I0.0362 J-0.0103
G3 X3.0597 Y3.7606 I0.0377 J0
G3 X3.0614 Y3.7522 I0.0258 J0.0009
G2 X3.0625 Y3.7492 I-0.0583 J-0.0226
G3 X3.0665 Y3.7416 I0.0244 J0.0081
G3 X3.0749 Y3.7336 I0.0295 J0.0225
G3 X3.0857 Y3.7284 I0.0223 J0.0323
G3 X3.0953 Y3.7271 I0.009 J0.0293
G1 X3.0958 Y3.7271
G3 X3.1042 Y3.7283 I-0.0004 J0.0311
G3 X3.1134 Y3.7324 I-0.0109 J0.0368
G3 X3.1213 Y3.7388 I-0.0205 J0.0334
G3 X3.1254 Y3.7441 I-0.0241 J0.0229
G1 Z-0.48 F25
G1 X3.1302 Y3.7557 F25
G3 X3.1306 Y3.761 I-0.0354 J0.0053
G3 X3.1305 Y3.7633 I-0.0358 J0
G3 X3.1278 Y3.7754 I-0.0414 J-0.0027
G3 X3.1219 Y3.7858 I-0.0356 J-0.0136
G3 X3.115 Y3.7919 I-0.0215 J-0.0174
G2 X3.1137 Y3.7927 I0.033 J0.053
G3 X3.1051 Y3.7966 I-0.016 J-0.0243
G3 X3.0932 Y3.7978 I-0.0101 J-0.038
G3 X3.0817 Y3.7954 I0.0018 J-0.0372
G3 X3.0746 Y3.7912 I0.0087 J-0.0229
G2 X3.0719 Y3.789 I-0.0403 J0.0478
G3 X3.066 Y3.7829 I0.0153 J-0.0203
G3 X3.0611 Y3.7723 I0.0311 J-0.0209
G3 X3.0597 Y3.762 I0.0362 J-0.0103
G3 X3.0597 Y3.7606 I0.0377 J0
G3 X3.0614 Y3.7522 I0.0258 J0.0009
G2 X3.0625 Y3.7492 I-0.0583 J-0.0226
G3 X3.0665 Y3.7416 I0.0244 J0.0081
G3 X3.0749 Y3.7336 I0.0295 J0.0225
G3 X3.0857 Y3.7284 I0.0223 J0.0323
G3 X3.0953 Y3.7271 I0.009 J0.0293
G1 X3.0958 Y3.7271
G3 X3.1042 Y3.7283 I-0.0004 J0.0311
G3 X3.1134 Y3.7324 I-0.0109 J0.0368
G3 X3.1213 Y3.7388 I-0.0205 J0.0334
G3 X3.1254 Y3.7441 I-0.0241 J0.0229
G1 Z-0.5 F25
G1 X3.1302 Y3.7557 F25
G3 X3.1306 Y3.761 I-0.0354 J0.0053
G3 X3.1305 Y3.7633 I-0.0358 J0
G3 X3.1278 Y3.7754 I-0.0414 J-0.0027
G3 X3.1219 Y3.7858 I-0.0356 J-0.0136
G3 X3.115 Y3.7919 I-0.0215 J-0.0174
G2 X3.1137 Y3.7927 I0.033 J0.053
G3 X3.1051 Y3.7966 I-0.016 J-0.0243
G3 X3.0932 Y3.7978 I-0.0101 J-0.038
G3 X3.0817 Y3.7954 I0.0018 J-0.0372
G3 X3.0746 Y3.7912 I0.0087 J-0.0229
G2 X3.0719 Y3.789 I-0.0403 J0.0478
G3 X3.066 Y3.7829 I0.0153 J-0.0203
G3 X3.0611 Y3.7723 I0.0311 J-0.0209
G3 X3.0597 Y3.762 I0.0362 J-0.0103
G3 X3.0597 Y3.7606 I0.0377 J0
G3 X3.0614 Y3.7522 I0.0258 J0.0009
G2 X3.0625 Y3.7492 I-0.0583 J-0.0226
G3 X3.0665 Y3.7416 I0.0244 J0.0081
G3 X3.0749 Y3.7336 I0.0295 J0.0225
G3 X3.0857 Y3.7284 I0.0223 J0.0323
G3 X3.0953 Y3.7271 I0.009 J0.0293
G1 X3.0958 Y3.7271
G3 X3.1042 Y3.7283 I-0.0004 J0.0311
G3 X3.1134 Y3.7324 I-0.0109 J0.0368
G3 X3.1213 Y3.7388 I-0.0205 J0.0334
G3 X3.1254 Y3.7441 I-0.0241 J0.0229
G1 Z-0.52 F25
G1 X3.1302 Y3.7557 F25
G3 X3.1306 Y3.761 I-0.0354 J0.0053
G3 X3.1305 Y3.7633 I-0.0358 J0
G3 X3.1278 Y3.7754 I-0.0414 J-0.0027
G3 X3.1219 Y3.7858 I-0.0356 J-0.0136
G3 X3.115 Y3.7919 I-0.0215 J-0.0174
G2 X3.1137 Y3.7927 I0.033 J0.053
G3 X3.1051 Y3.7966 I-0.016 J-0.0243
G3 X3.0932 Y3.7978 I-0.0101 J-0.038
G3 X3.0817 Y3.7954 I0.0018 J-0.0372
G3 X3.0746 Y3.7912 I0.0087 J-0.0229
G2 X3.0719 Y3.789 I-0.0403 J0.0478
G3 X3.066 Y3.7829 I0.0153 J-0.0203
G3 X3.0611 Y3.7723 I0.0311 J-0.0209
G3 X3.0597 Y3.762 I0.0362 J-0.0103
G3 X3.0597 Y3.7606 I0.0377 J0
G3 X3.0614 Y3.7522 I0.0258 J0.0009
G2 X3.0625 Y3.7492 I-0.0583 J-0.0226
G3 X3.0665 Y3.7416 I0.0244 J0.0081
G3 X3.0749 Y3.7336 I0.0295 J0.0225
G3 X3.0857 Y3.7284 I0.0223 J0.0323
G3 X3.0953 Y3.7271 I0.009 J0.0293
G1 X3.0958 Y3.7271
G3 X3.1042 Y3.7283 I-0.0004 J0.0311
G3 X3.1134 Y3.7324 I-0.0109 J0.0368
G3 X3.1213 Y3.7388 I-0.0205 J0.0334
G3 X3.1254 Y3.7441 I-0.0241 J0.0229

(profile 4-2)
G0 Z0.25
G0 X4.2776 Y4.5086
G1 Z-0.02 F25
G1 X4.2723 Y4.4956 F25
G3 X4.2718 Y4.4893 I0.0399 J-0.0063
G3 X4.2719 Y4.4868 I0.0404 J0
G3 X4.2747 Y4.4735 I0.0456 J0.0029
G3 X4.2812 Y4.4621 I0.0393 J0.0148
G3 X4.2893 Y4.455 I0.0244 J0.0195
G3 X4.2991 Y4.4506 I0.0186 J0.0288
G3 X4.3124 Y4.4492 I0.0115 J0.0435
G3 X4.3251 Y4.4517 I-0.0017 J0.0414
G3 X4.3327 Y4.4562 I-0.0091 J0.0247
G2 X4.3353 Y4.4581 I0.0399 J-0.0481
G3 X4.3418 Y4.465 I-0.017 J0.0227
G3 X4.3473 Y4.4767 I-0.0342 J0.0231
G3 X4.3489 Y4.4883 I-0.0405 J0.0117
G3 X4.3489 Y4.4896 I-0.0422 J0
G3 X4.347 Y4.4994 I-0.0304 J-0.0009
G2 X4.3459 Y4.5024 I0.0585 J0.022
G3 X4.3416 Y4.5108 I-0.0268 J-0.0085
G3 X4.3326 Y4.5194 I-0.0312 J-0.0235
G3 X4.321 Y4.525 I-0.0239 J-0.0346
G3 X4.3098 Y4.5266 I-0.0103 J-0.0336
G3 X4.3001 Y4.5251 I0.0007 J-0.037
G3 X4.2903 Y4.5208 I0.0116 J-0.0397
G3 X4.2819 Y4.5141 I0.0211 J-0.0348
G3 X4.2776 Y4.5086 I0.0252 J-0.0242
G1 Z-0.04 F25
G1 X4.2723 Y4.4956 F25
G3 X4.2718 Y4.4893 I0.0399 J-0.0063
G3 X4.2719 Y4.4868 I0.0404 J0
G3 X4.2747 Y4.4735 I0.0456 J0.0029
G3 X4.2812 Y4.4621 I0.0393 J0.0148
G3 X4.2893 Y4.455 I0.0244 J0.0195
G3 X4.2991 Y4.4506 I0.0186 J0.0288
G3 X4.3124 Y4.4492 I0.0115 J0.0435
G3 X4.3251 Y4.4517 I-0.0017 J0.0414
G3 X4.3327 Y4.4562 I-0.0091 J0.0247
G2 X4.3353 Y4.4581 I0.0399 J-0.0481
G3 X4.3418 Y4.465 I-0.017 J0.0227
G3 X4.3473 Y4.4767 I-0.0342 J0.0231
G3 X4.3489 Y4.4883 I-0.0405 J0.0117
G3 X4.3489 Y4.4896 I-0.0422 J0
G3 X4.347 Y4.4994 I-0.0304 J-0.0009
G2 X4.3459 Y4.5024 I0.0585 J0.022
G3 X4.3416 Y4.5108 I-0.0268 J-0.0085
G3 X4.3326 Y4.5194 I-0.0312 J-0.0235
G3 X4.321 Y4.525 I-0.0239 J-0.0346
G3 X4.3098 Y4.5266 I-0.0103 J-0.0336
G3 X4.3001 Y4.5251 I0.0007 J-0.037
G3 X4.2903 Y4.5208 I0.0116 J-0.0397
G3 X4.2819 Y4.5141 I0.0211 J-0.0348
G3 X4.2776 Y4.5086 I0.0252 J-0.0242
G1 Z-0.06 F25
G1 X4.2723 Y4.4956 F25
G3 X4.2718 Y4.4893 I0.0399 J-0.0063
G3 X4.2719 Y4.4868 I0.0404 J0
G3 X4.2747 Y4.4735 I0.0456 J0.0029
G3 X4.2812 Y4.4621 I0.0393 J0.0148
G3 X4.2893 Y4.455 I0.0244 J0.0195
G3 X4.2991 Y4.4506 I0.0186 J0.0288
G3 X4.3124 Y4.4492 I0.0115 J0.0435
G3 X4.3251 Y4.4517 I-0.0017 J0.0414
G3 X4.3327 Y4.4562 I-0.0091 J0.0247
G2 X4.3353 Y4.4581 I0.0399 J-0.0481
G3 X4.3418 Y4.465 I-0.017 J0.0227
G3 X4.3473 Y4.4767 I-0.0342 J0.0231
G3 X4.3489 Y4.4883 I-0.0405 J0.0117
G3 X4.3489 Y4.4896 I-0.0422 J0
G3 X4.347 Y4.4994 I-0.0304 J-0.0009
G2 X4.3459 Y4.5024 I0.0585 J0.022
G3 X4.3416 Y4.5108 I-0.0268 J-0.0085
G3 X4.3326 Y4.5194 I-0.0312 J-0.0235
G3 X4.321 Y4.525 I-0.0239 J-0.0346
G3 X4.3098 Y4.5266 I-0.0103 J-0.0336
G3 X4.3001 Y4.5251 I0.0007 J-0.037
G3 X4.2903 Y4.5208 I0.0116 J-0.0397
G3 X4.2819 Y4.5141 I0.0211 J-0.0348
G3 X4.2776 Y4.5086 I0.0252 J-0.0242
G1 Z-0.08 F25
G1 X4.2723 Y4.4956 F25
G3 X4.2718 Y4.4893 I0.0399 J-0.0063
G3 X4.2719 Y4.4868 I0.0404 J0
G3 X4.2747 Y4.4735 I0.0456 J0.0029
G3 X4.2812 Y4.4621 I0.0393 J0.0148
G3 X4.2893 Y4.455 I0.0244 J0.0195
G3 X4.2991 Y4.4506 I0.0186 J0.0288
G3 X4.3124 Y4.4492 I0.0115 J0.0435
G3 X4.3251 Y4.4517 I-0.0017 J0.0414
G3 X4.3327 Y4.4562 I-0.0091 J0.0247
G2 X4.3353 Y4.4581 I0.0399 J-0.0481
G3 X4.3418 Y4.465 I-0.017 J0.0227
G3 X4.3473 Y4.4767 I-0.0342 J0.0231
G3 X4.3489 Y4.4883 I-0.0405 J0.0117
G3 X4.3489 Y4.4896 I-0.0422 J0
G3 X4.347 Y4.4994 I-0.0304 J-0.0009
G2 X4.3459 Y4.5024 I0.0585 J0.022
G3 X4.3416 Y4.5108 I-0.0268 J-0.0085
G3 X4.3326 Y4.5194 I-0.0312 J-0.0235
G3 X4.321 Y4.525 I-0.0239 J-0.0346
G3 X4.3098 Y4.5266 I-0.0103 J-0.0336
G3 X4.3001 Y4.5251 I0.0007 J-0.037
G3 X4.2903 Y4.5208 I0.0116 J-0.0397
G3 X4.2819 Y4.5141 I0.0211 J-0.0348
G3 X4.2776 Y4.5086 I0.0252 J-0.0242
G1 Z-0.1 F25
G1 X4.2723 Y4.4956 F25
G3 X4.2718 Y4.4893 I0.0399 J-0.0063
G3 X4.2719 Y4.4868 I0.0404 J0
G3 X4.2747 Y4.4735 I0.0456 J0.0029
G3 X4.2812 Y4.4621 I0.0393 J0.0148
G3 X4.2893 Y4.455 I0.0244 J0.0195
G3 X4.2991 Y4.4506 I0.0186 J0.0288
G3 X4.3124 Y4.4492 I0.0115 J0.0435
G3 X4.3251 Y4.4517 I-0.0017 J0.0414
G3 X4.3327 Y4.4562 I-0.0091 J0.0247
G2 X4.3353 Y4.4581 I0.0399 J-0.0481
G3 X4.3418 Y4.465 I-0.017 J0.0227
G3 X4.3473 Y4.4767 I-0.0342 J0.0231
G3 X4.3489 Y4.4883 I-0.0405 J0.0117
G3 X4.3489 Y4.4896 I-0.0422 J0
G3 X4.347 Y4.4994 I-0.0304 J-0.0009
G2 X4.3459 Y4.5024 I0.0585 J0.022
G3 X4.3416 Y4.5108 I-0.0268 J-0.0085
G3 X4.3326 Y4.5194 I-0.0312 J-0.0235
G3 X4.321 Y4.525 I-0.0239 J-0.0346
G3 X4.3098 Y4.5266 I-0.0103 J-0.0336
G3 X4.3001 Y4.5251 I0.0007 J-0.037
G3 X4.2903 Y4.5208 I0.0116 J-0.0397
G3 X4.2819 Y4.5141 I0.0211 J-0.0348
G3 X4.2776 Y4.5086 I0.0252 J-0.0242
G1 Z-0.12 F25
G1 X4.2723 Y4.4956 F25
G3 X4.2718 Y4.4893 I0.0399 J-0.0063
G3 X4.2719 Y4.4868 I0.0404 J0
G3 X4.2747 Y4.4735 I0.0456 J0.0029
G3 X4.2812 Y4.4621 I0.0393 J0.0148
G3 X4.2893 Y4.455 I0.0244 J0.0195
G3 X4.2991 Y4.4506 I0.0186 J0.0288
G3 X4.3124 Y4.4492 I0.0115 J0.0435
G3 X4.3251 Y4.4517 I-0.0017 J0.0414
G3 X4.3327 Y4.4562 I-0.0091 J0.0247
G2 X4.3353 Y4.4581 I0.0399 J-0.0481
G3 X4.3418 Y4.465 I-0.017 J0.0227
G3 X4.3473 Y4.4767 I-0.0342 J0.0231
G3 X4.3489 Y4.4883 I-0.0405 J0.0117
G3 X4.3489 Y4.4896 I-0.0422 J0
G3 X4.347 Y4.4994 I-0.0304 J-0.0009
G2 X4.3459 Y4.5024 I0.0585 J0.022
G3 X4.3416 Y4.5108 I-0.0268 J-0.0085
G3 X4.3326 Y4.5194 I-0.0312 J-0.0235
G3 X4.321 Y4.525 I-0.0239 J-0.0346
G3 X4.3098 Y4.5266 I-0.0103 J-0.0336
G3 X4.3001 Y4.5251 I0.0007 J-0.037
G3 X4.2903 Y4.5208 I0.0116 J-0.0397
G3 X4.2819 Y4.5141 I0.0211 J-0.0348
G3 X4.2776 Y4.5086 I0.0252 J-0.0242
G1 Z-0.14 F25
G1 X4.2723 Y4.4956 F25
G3 X4.2718 Y4.4893 I0.0399 J-0.0063
G3 X4.2719 Y4.4868 I0.0404 J0
G3 X4.2747 Y4.4735 I0.0456 J0.0029
G3 X4.2812 Y4.4621 I0.0393 J0.0148
G3 X4.2893 Y4.455 I0.0244 J0.0195
G3 X4.2991 Y4.4506 I0.0186 J0.0288
G3 X4.3124 Y4.4492 I0.0115 J0.0435
G3 X4.3251 Y4.4517 I-0.0017 J0.0414
G3 X4.3327 Y4.4562 I-0.0091 J0.0247
G2 X4.3353 Y4.4581 I0.0399 J-0.0481
G3 X4.3418 Y4.465 I-0.017 J0.0227
G3 X4.3473 Y4.4767 I-0.0342 J0.0231
G3 X4.3489 Y4.4883 I-0.0405 J0.0117
G3 X4.3489 Y4.4896 I-0.0422 J0
G3 X4.347 Y4.4994 I-0.0304 J-0.0009
G2 X4.3459 Y4.5024 I0.0585 J0.022
G3 X4.3416 Y4.5108 I-0.0268 J-0.0085
G3 X4.3326 Y4.5194 I-0.0312 J-0.0235
G3 X4.321 Y4.525 I-0.0239 J-0.0346
G3 X4.3098 Y4.5266 I-0.0103 J-0.0336
G3 X4.3001 Y4.5251 I0.0007 J-0.037
G3 X4.2903 Y4.5208 I0.0116 J-0.0397
G3 X4.2819 Y4.5141 I0.0211 J-0.0348
G3 X4.2776 Y4.5086 I0.0252 J-0.0242
G1 Z-0.16 F25
G1 X4.2723 Y4.4956 F25
G3 X4.2718 Y4.4893 I0.0399 J-0.0063
G3 X4.2719 Y4.4868 I0.0404 J0
G3 X4.2747 Y4.4735 I0.0456 J0.0029
G3 X4.2812 Y4.4621 I0.0393 J0.0148
G3 X4.2893 Y4.455 I0.0244 J0.0195
G3 X4.2991 Y4.4506 I0.0186 J0.0288
G3 X4.3124 Y4.4492 I0.0115 J0.0435
G3 X4.3251 Y4.4517 I-0.0017 J0.0414
G3 X4.3327 Y4.4562 I-0.0091 J0.0247
G2 X4.3353 Y4.4581 I0.0399 J-0.0481
G3 X4.3418 Y4.465 I-0.017 J0.0227
G3 X4.3473 Y4.4767 I-0.0342 J0.0231
G3 X4.3489 Y4.4883 I-0.0405 J0.0117
G3 X4.3489 Y4.4896 I-0.0422 J0
G3 X4.347 Y4.4994 I-0.0304 J-0.0009
G2 X4.3459 Y4.5024 I0.0585 J0.022
G3 X4.3416 Y4.5108 I-0.0268 J-0.0085
G3 X4.3326 Y4.5194 I-0.0312 J-0.0235
G3 X4.321 Y4.525 I-0.0239 J-0.0346
G3 X4.3098 Y4.5266 I-0.0103 J-0.0336
G3 X4.3001 Y4.5251 I0.0007 J-0.037
G3 X4.2903 Y4.5208 I0.0116 J-0.0397
G3 X4.2819 Y4.5141 I0.0211 J-0.0348
G3 X4.2776 Y4.5086 I0.0252 J-0.0242
G1 Z-0.18 F25
G1 X4.2723 Y4.4956 F25
G3 X4.2718 Y4.4893 I0.0399 J-0.0063
G3 X4.2719 Y4.4868 I0.0404 J0
G3 X4.2747 Y4.4735 I0.0456 J0.0029
G3 X4.2812 Y4.4621 I0.0393 J0.0148
G3 X4.2893 Y4.455 I0.0244 J0.0195
G3 X4.2991 Y4.4506 I0.0186 J0.0288
G3 X4.3124 Y4.4492 I0.0115 J0.0435
G3 X4.3251 Y4.4517 I-0.0017 J0.0414
G3 X4.3327 Y4.4562 I-0.0091 J0.0247
G2 X4.3353 Y4.4581 I0.0399 J-0.0481
G3 X4.3418 Y4.465 I-0.017 J0.0227
G3 X4.3473 Y4.4767 I-0.0342 J0.0231
G3 X4.3489 Y4.4883 I-0.0405 J0.0117
G3 X4.3489 Y4.4896 I-0.0422 J0
G3 X4.347 Y4.4994 I-0.0304 J-0.0009
G2 X4.3459 Y4.5024 I0.0585 J0.022
G3 X4.3416 Y4.5108 I-0.0268 J-0.0085
G3 X4.3326 Y4.5194 I-0.0312 J-0.0235
G3 X4.321 Y4.525 I-0.0239 J-0.0346
G3 X4.3098 Y4.5266 I-0.0103 J-0.0336
G3 X4.3001 Y4.5251 I0.0007 J-0.037
G3 X4.2903 Y4.5208 I0.0116 J-0.0397
G3 X4.2819 Y4.5141 I0.0211 J-0.0348
G3 X4.2776 Y4.5086 I0.0252 J-0.0242
G1 Z-0.2 F25
G1 X4.2723 Y4.4956 F25
G3 X4.2718 Y4.4893 I0.0399 J-0.0063
G3 X4.2719 Y4.4868 I0.0404 J0
G3 X4.2747 Y4.4735 I0.0456 J0.0029
G3 X4.2812 Y4.4621 I0.0393 J0.0148
G3 X4.2893 Y4.455 I0.0244 J0.0195
G3 X4.2991 Y4.4506 I0.0186 J0.0288
G3 X4.3124 Y4.4492 I0.0115 J0.0435
G3 X4.3251 Y4.4517 I-0.0017 J0.0414
G3 X4.3327 Y4.4562 I-0.0091 J0.0247
G2 X4.3353 Y4.4581 I0.0399 J-0.0481
G3 X4.3418 Y4.465 I-0.017 J0.0227
G3 X4.3473 Y4.4767 I-0.0342 J0.0231
G3 X4.3489 Y4.4883 I-0.0405 J0.0117
G3 X4.3489 Y4.4896 I-0.0422 J0
G3 X4.347 Y4.4994 I-0.0304 J-0.0009
G2 X4.3459 Y4.5024 I0.0585 J0.022
G3 X4.3416 Y4.5108 I-0.0268 J-0.0085
G3 X4.3326 Y4.5194 I-0.0312 J-0.0235
G3 X4.321 Y4.525 I-0.0239 J-0.0346
G3 X4.3098 Y4.5266 I-0.0103 J-0.0336
G3 X4.3001 Y4.5251 I0.0007 J-0.037
G3 X4.2903 Y4.5208 I0.0116 J-0.0397
G3 X4.2819 Y4.5141 I0.0211 J-0.0348
G3 X4.2776 Y4.5086 I0.0252 J-0.0242
G1 Z-0.22 F25
G1 X4.2723 Y4.4956 F25
G3 X4.2718 Y4.4893 I0.0399 J-0.0063
G3 X4.2719 Y4.4868 I0.0404 J0
G3 X4.2747 Y4.4735 I0.0456 J0.0029
G3 X4.2812 Y4.4621 I0.0393 J0.0148
G3 X4.2893 Y4.455 I0.0244 J0.0195
G3 X4.2991 Y4.4506 I0.0186 J0.0288
G3 X4.3124 Y4.4492 I0.0115 J0.0435
G3 X4.3251 Y4.4517 I-0.0017 J0.0414
G3 X4.3327 Y4.4562 I-0.0091 J0.0247
G2 X4.3353 Y4.4581 I0.0399 J-0.0481
G3 X4.3418 Y4.465 I-0.017 J0.0227
G3 X4.3473 Y4.4767 I-0.0342 J0.0231
G3 X4.3489 Y4.4883 I-0.0405 J0.0117
G3 X4.3489 Y4.4896 I-0.0422 J0
G3 X4.347 Y4.4994 I-0.0304 J-0.0009
G2 X4.3459 Y4.5024 I0.0585 J0.022
G3 X4.3416 Y4.5108 I-0.0268 J-0.0085
G3 X4.3326 Y4.5194 I-0.0312 J-0.0235
G3 X4.321 Y4.525 I-0.0239 J-0.0346
G3 X4.3098 Y4.5266 I-0.0103 J-0.0336
G3 X4.3001 Y4.5251 I0.0007 J-0.037
G3 X4.2903 Y4.5208 I0.0116 J-0.0397
G3 X4.2819 Y4.5141 I0.0211 J-0.0348
G3 X4.2776 Y4.5086 I0.0252 J-0.0242
G1 Z-0.24 F25
G1 X4.2723 Y4.4956 F25
G3 X4.2718 Y4.4893 I0.0399 J-0.0063
G3 X4.2719 Y4.4868 I0.0404 J0
G3 X4.2747 Y4.4735 I0.0456 J0.0029
G3 X4.2812 Y4.4621 I0.0393 J0.0148
G3 X4.2893 Y4.455 I0.0244 J0.0195
G3 X4.2991 Y4.4506 I0.0186 J0.0288
G3 X4.3124 Y4.4492 I0.0115 J0.0435
G3 X4.3251 Y4.4517 I-0.0017 J0.0414
G3 X4.3327 Y4.4562 I-0.0091 J0.0247
G2 X4.3353 Y4.4581 I0.0399 J-0.0481
G3 X4.3418 Y4.465 I-0.017 J0.0227
G3 X4.3473 Y4.4767 I-0.0342 J0.0231
G3 X4.3489 Y4.4883 I-0.0405 J0.0117
G3 X4.3489 Y4.4896 I-0.0422 J0
G3 X4.347 Y4.4994 I-0.0304 J-0.0009
G2 X4.3459 Y4.5024 I0.0585 J0.022
G3 X4.3416 Y4.5108 I-0.0268 J-0.0085
G3 X4.3326 Y4.5194 I-0.0312 J-0.0235
G3 X4.321 Y4.525 I-0.0239 J-0.0346
G3 X4.3098 Y4.5266 I-0.0103 J-0.0336
G3 X4.3001 Y4.5251 I0.0007 J-0.037
G3 X4.2903 Y4.5208 I0.0116 J-0.0397
G3 X4.2819 Y4.5141 I0.0211 J-0.0348
G3 X4.2776 Y4.5086 I0.0252 J-0.0242
G1 Z-0.26 F25
G1 X4.2723 Y4.4956 F25
G3 X4.2718 Y4.4893 I0.0399 J-0.0063
G3 X4.2719 Y4.4868 I0.0404 J0
G3 X4.2747 Y4.4735 I0.0456 J0.0029
G3 X4.2812 Y4.4621 I0.0393 J0.0148
G3 X4.2893 Y4.455 I0.0244 J0.0195
G3 X4.2991 Y4.4506 I0.0186 J0.0288
G3 X4.3124 Y4.4492 I0.0115 J0.0435
G3 X4.3251 Y4.4517 I-0.0017 J0.0414
G3 X4.3327 Y4.4562 I-0.0091 J0.0247
G2 X4.3353 Y4.4581 I0.0399 J-0.0481
G3 X4.3418 Y4.465 I-0.017 J0.0227
G3 X4.3473 Y4.4767 I-0.0342 J0.0231
G3 X4.3489 Y4.4883 I-0.0405 J0.0117
G3 X4.3489 Y4.4896 I-0.0422 J0
G3 X4.347 Y4.4994 I-0.0304 J-0.0009
G2 X4.3459 Y4.5024 I0.0585 J0.022
G3 X4.3416 Y4.5108 I-0.0268 J-0.0085
G3 X4.3326 Y4.5194 I-0.0312 J-0.0235
G3 X4.321 Y4.525 I-0.0239 J-0.0346
G3 X4.3098 Y4.5266 I-0.0103 J-0.0336
G3 X4.3001 Y4.5251 I0.0007 J-0.037
G3 X4.2903 Y4.5208 I0.0116 J-0.0397
G3 X4.2819 Y4.5141 I0.0211 J-0.0348
G3 X4.2776 Y4.5086 I0.0252 J-0.0242
G1 Z-0.28 F25
G1 X4.2723 Y4.4956 F25
G3 X4.2718 Y4.4893 I0.0399 J-0.0063
G3 X4.2719 Y4.4868 I0.0404 J0
G3 X4.2747 Y4.4735 I0.0456 J0.0029
G3 X4.2812 Y4.4621 I0.0393 J0.0148
G3 X4.2893 Y4.455 I0.0244 J0.0195
G3 X4.2991 Y4.4506 I0.0186 J0.0288
G3 X4.3124 Y4.4492 I0.0115 J0.0435
G3 X4.3251 Y4.4517 I-0.0017 J0.0414
G3 X4.3327 Y4.4562 I-0.0091 J0.0247
G2 X4.3353 Y4.4581 I0.0399 J-0.0481
G3 X4.3418 Y4.465 I-0.017 J0.0227
G3 X4.3473 Y4.4767 I-0.0342 J0.0231
G3 X4.3489 Y4.4883 I-0.0405 J0.0117
G3 X4.3489 Y4.4896 I-0.0422 J0
G3 X4.347 Y4.4994 I-0.0304 J-0.0009
G2 X4.3459 Y4.5024 I0.0585 J0.022
G3 X4.3416 Y4.5108 I-0.0268 J-0.0085
G3 X4.3326 Y4.5194 I-0.0312 J-0.0235
G3 X4.321 Y4.525 I-0.0239 J-0.0346
G3 X4.3098 Y4.5266 I-0.0103 J-0.0336
G3 X4.3001 Y4.5251 I0.0007 J-0.037
G3 X4.2903 Y4.5208 I0.0116 J-0.0397
G3 X4.2819 Y4.5141 I0.0211 J-0.0348
G3 X4.2776 Y4.5086 I0.0252 J-0.0242
G1 Z-0.3 F25
G1 X4.2723 Y4.4956 F25
G3 X4.2718 Y4.4893 I0.0399 J-0.0063
G3 X4.2719 Y4.4868 I0.0404 J0
G3 X4.2747 Y4.4735 I0.0456 J0.0029
G3 X4.2812 Y4.4621 I0.0393 J0.0148
G3 X4.2893 Y4.455 I0.0244 J0.0195
G3 X4.2991 Y4.4506 I0.0186 J0.0288
G3 X4.3124 Y4.4492 I0.0115 J0.0435
G3 X4.3251 Y4.4517 I-0.0017 J0.0414
G3 X4.3327 Y4.4562 I-0.0091 J0.0247
G2 X4.3353 Y4.4581 I0.0399 J-0.0481
G3 X4.3418 Y4.465 I-0.017 J0.0227
G3 X4.3473 Y4.4767 I-0.0342 J0.0231
G3 X4.3489 Y4.4883 I-0.0405 J0.0117
G3 X4.3489 Y4.4896 I-0.0422 J0
G3 X4.347 Y4.4994 I-0.0304 J-0.0009
G2 X4.3459 Y4.5024 I0.0585 J0.022
G3 X4.3416 Y4.5108 I-0.0268 J-0.0085
G3 X4.3326 Y4.5194 I-0.0312 J-0.0235
G3 X4.321 Y4.525 I-0.0239 J-0.0346
G3 X4.3098 Y4.5266 I-0.0103 J-0.0336
G3 X4.3001 Y4.5251 I0.0007 J-0.037
G3 X4.2903 Y4.5208 I0.0116 J-0.0397
G3 X4.2819 Y4.5141 I0.0211 J-0.0348
G3 X4.2776 Y4.5086 I0.0252 J-0.0242
G1 Z-0.32 F25
G1 X4.2723 Y4.4956 F25
G3 X4.2718 Y4.4893 I0.0399 J-0.0063
G3 X4.2719 Y4.4868 I0.0404 J0
G3 X4.2747 Y4.4735 I0.0456 J0.0029
G3 X4.2812 Y4.4621 I0.0393 J0.0148
G3 X4.2893 Y4.455 I0.0244 J0.0195
G3 X4.2991 Y4.4506 I0.0186 J0.0288
G3 X4.3124 Y4.4492 I0.0115 J0.0435
G3 X4.3251 Y4.4517 I-0.0017 J0.0414
G3 X4.3327 Y4.4562 I-0.0091 J0.0247
G2 X4.3353 Y4.4581 I0.0399 J-0.0481
G3 X4.3418 Y4.465 I-0.017 J0.0227
G3 X4.3473 Y4.4767 I-0.0342 J0.0231
G3 X4.3489 Y4.4883 I-0.0405 J0.0117
G3 X4.3489 Y4.4896 I-0.0422 J0
G3 X4.347 Y4.4994 I-0.0304 J-0.0009
G2 X4.3459 Y4.5024 I0.0585 J0.022
G3 X4.3416 Y4.5108 I-0.0268 J-0.0085
G3 X4.3326 Y4.5194 I-0.0312 J-0.0235
G3 X4.321 Y4.525 I-0.0239 J-0.0346
G3 X4.3098 Y4.5266 I-0.0103 J-0.0336
G3 X4.3001 Y4.5251 I0.0007 J-0.037
G3 X4.2903 Y4.5208 I0.0116 J-0.0397
G3 X4.2819 Y4.5141 I0.0211 J-0.0348
G3 X4.2776 Y4.5086 I0.0252 J-0.0242
G1 Z-0.34 F25
G1 X4.2723 Y4.4956 F25
G3 X4.2718 Y4.4893 I0.0399 J-0.0063
G3 X4.2719 Y4.4868 I0.0404 J0
G3 X4.2747 Y4.4735 I0.0456 J0.0029
G3 X4.2812 Y4.4621 I0.0393 J0.0148
G3 X4.2893 Y4.455 I0.0244 J0.0195
G3 X4.2991 Y4.4506 I0.0186 J0.0288
G3 X4.3124 Y4.4492 I0.0115 J0.0435
G3 X4.3251 Y4.4517 I-0.0017 J0.0414
G3 X4.3327 Y4.4562 I-0.0091 J0.0247
G2 X4.3353 Y4.4581 I0.0399 J-0.0481
G3 X4.3418 Y4.465 I-0.017 J0.0227
G3 X4.3473 Y4.4767 I-0.0342 J0.0231
G3 X4.3489 Y4.4883 I-0.0405 J0.0117
G3 X4.3489 Y4.4896 I-0.0422 J0
G3 X4.347 Y4.4994 I-0.0304 J-0.0009
G2 X4.3459 Y4.5024 I0.0585 J0.022
G3 X4.3416 Y4.5108 I-0.0268 J-0.0085
G3 X4.3326 Y4.5194 I-0.0312 J-0.0235
G3 X4.321 Y4.525 I-0.0239 J-0.0346
G3 X4.3098 Y4.5266 I-0.0103 J-0.0336
G3 X4.3001 Y4.5251 I0.0007 J-0.037
G3 X4.2903 Y4.5208 I0.0116 J-0.0397
G3 X4.2819 Y4.5141 I0.0211 J-0.0348
G3 X4.2776 Y4.5086 I0.0252 J-0.0242
G1 Z-0.36 F25
G1 X4.2723 Y4.4956 F25
G3 X4.2718 Y4.4893 I0.0399 J-0.0063
G3 X4.2719 Y4.4868 I0.0404 J0
G3 X4.2747 Y4.4735 I0.0456 J0.0029
G3 X4.2812 Y4.4621 I0.0393 J0.0148
G3 X4.2893 Y4.455 I0.0244 J0.0195
G3 X4.2991 Y4.4506 I0.0186 J0.0288
G3 X4.3124 Y4.4492 I0.0115 J0.0435
G3 X4.3251 Y4.4517 I-0.0017 J0.0414
G3 X4.3327 Y4.4562 I-0.0091 J0.0247
G2 X4.3353 Y4.4581 I0.0399 J-0.0481
G3 X4.3418 Y4.465 I-0.017 J0.0227
G3 X4.3473 Y4.4767 I-0.0342 J0.0231
G3 X4.3489 Y4.4883 I-0.0405 J0.0117
G3 X4.3489 Y4.4896 I-0.0422 J0
G3 X4.347 Y4.4994 I-0.0304 J-0.0009
G2 X4.3459 Y4.5024 I0.0585 J0.022
G3 X4.3416 Y4.5108 I-0.0268 J-0.0085
G3 X4.3326 Y4.5194 I-0.0312 J-0.0235
G3 X4.321 Y4.525 I-0.0239 J-0.0346
G3 X4.3098 Y4.5266 I-0.0103 J-0.0336
G3 X4.3001 Y4.5251 I0.0007 J-0.037
G3 X4.2903 Y4.5208 I0.0116 J-0.0397
G3 X4.2819 Y4.5141 I0.0211 J-0.0348
G3 X4.2776 Y4.5086 I0.0252 J-0.0242
G1 Z-0.38 F25
G1 X4.2723 Y4.4956 F25
G3 X4.2718 Y4.4893 I0.0399 J-0.0063
G3 X4.2719 Y4.4868 I0.0404 J0
G3 X4.2747 Y4.4735 I0.0456 J0.0029
G3 X4.2812 Y4.4621 I0.0393 J0.0148
G3 X4.2893 Y4.455 I0.0244 J0.0195
G3 X4.2991 Y4.4506 I0.0186 J0.0288
G3 X4.3124 Y4.4492 I0.0115 J0.0435
G3 X4.3251 Y4.4517 I-0.0017 J0.0414
G3 X4.3327 Y4.4562 I-0.0091 J0.0247
G2 X4.3353 Y4.4581 I0.0399 J-0.0481
G3 X4.3418 Y4.465 I-0.017 J0.0227
G3 X4.3473 Y4.4767 I-0.0342 J0.0231
G3 X4.3489 Y4.4883 I-0.0405 J0.0117
G3 X4.3489 Y4.4896 I-0.0422 J0
G3 X4.347 Y4.4994 I-0.0304 J-0.0009
G2 X4.3459 Y4.5024 I0.0585 J0.022
G3 X4.3416 Y4.5108 I-0.0268 J-0.0085
G3 X4.3326 Y4.5194 I-0.0312 J-0.0235
G3 X4.321 Y4.525 I-0.0239 J-0.0346
G3 X4.3098 Y4.5266 I-0.0103 J-0.0336
G3 X4.3001 Y4.5251 I0.0007 J-0.037
G3 X4.2903 Y4.5208 I0.0116 J-0.0397
G3 X4.2819 Y4.5141 I0.0211 J-0.0348
G3 X4.2776 Y4.5086 I0.0252 J-0.0242
G1 Z-0.4 F25
G1 X4.2723 Y4.4956 F25
G3 X4.2718 Y4.4893 I0.0399 J-0.0063
G3 X4.2719 Y4.4868 I0.0404 J0
G3 X4.2747 Y4.4735 I0.0456 J0.0029
G3 X4.2812 Y4.4621 I0.0393 J0.0148
G3 X4.2893 Y4.455 I0.0244 J0.0195
G3 X4.2991 Y4.4506 I0.0186 J0.0288
G3 X4.3124 Y4.4492 I0.0115 J0.0435
G3 X4.3251 Y4.4517 I-0.0017 J0.0414
G3 X4.3327 Y4.4562 I-0.0091 J0.0247
G2 X4.3353 Y4.4581 I0.0399 J-0.0481
G3 X4.3418 Y4.465 I-0.017 J0.0227
G3 X4.3473 Y4.4767 I-0.0342 J0.0231
G3 X4.3489 Y4.4883 I-0.0405 J0.0117
G3 X4.3489 Y4.4896 I-0.0422 J0
G3 X4.347 Y4.4994 I-0.0304 J-0.0009
G2 X4.3459 Y4.5024 I0.0585 J0.022
G3 X4.3416 Y4.5108 I-0.0268 J-0.0085
G3 X4.3326 Y4.5194 I-0.0312 J-0.0235
G3 X4.321 Y4.525 I-0.0239 J-0.0346
G3 X4.3098 Y4.5266 I-0.0103 J-0.0336
G3 X4.3001 Y4.5251 I0.0007 J-0.037
G3 X4.2903 Y4.5208 I0.0116 J-0.0397
G3 X4.2819 Y4.5141 I0.0211 J-0.0348
G3 X4.2776 Y4.5086 I0.0252 J-0.0242
G1 Z-0.42 F25
G1 X4.2723 Y4.4956 F25
G3 X4.2718 Y4.4893 I0.0399 J-0.0063
G3 X4.2719 Y4.4868 I0.0404 J0
G3 X4.2747 Y4.4735 I0.0456 J0.0029
G3 X4.2812 Y4.4621 I0.0393 J0.0148
G3 X4.2893 Y4.455 I0.0244 J0.0195
G3 X4.2991 Y4.4506 I0.0186 J0.0288
G3 X4.3124 Y4.4492 I0.0115 J0.0435
G3 X4.3251 Y4.4517 I-0.0017 J0.0414
G3 X4.3327 Y4.4562 I-0.0091 J0.0247
G2 X4.3353 Y4.4581 I0.0399 J-0.0481
G3 X4.3418 Y4.465 I-0.017 J0.0227
G3 X4.3473 Y4.4767 I-0.0342 J0.0231
G3 X4.3489 Y4.4883 I-0.0405 J0.0117
G3 X4.3489 Y4.4896 I-0.0422 J0
G3 X4.347 Y4.4994 I-0.0304 J-0.0009
G2 X4.3459 Y4.5024 I0.0585 J0.022
G3 X4.3416 Y4.5108 I-0.0268 J-0.0085
G3 X4.3326 Y4.5194 I-0.0312 J-0.0235
G3 X4.321 Y4.525 I-0.0239 J-0.0346
G3 X4.3098 Y4.5266 I-0.0103 J-0.0336
G3 X4.3001 Y4.5251 I0.0007 J-0.037
G3 X4.2903 Y4.5208 I0.0116 J-0.0397
G3 X4.2819 Y4.5141 I0.0211 J-0.0348
G3 X4.2776 Y4.5086 I0.0252 J-0.0242
G1 Z-0.44 F25
G1 X4.2723 Y4.4956 F25
G3 X4.2718 Y4.4893 I0.0399 J-0.0063
G3 X4.2719 Y4.4868 I0.0404 J0
G3 X4.2747 Y4.4735 I0.0456 J0.0029
G3 X4.2812 Y4.4621 I0.0393 J0.0148
G3 X4.2893 Y4.455 I0.0244 J0.0195
G3 X4.2991 Y4.4506 I0.0186 J0.0288
G3 X4.3124 Y4.4492 I0.0115 J0.0435
G3 X4.3251 Y4.4517 I-0.0017 J0.0414
G3 X4.3327 Y4.4562 I-0.0091 J0.0247
G2 X4.3353 Y4.4581 I0.0399 J-0.0481
G3 X4.3418 Y4.465 I-0.017 J0.0227
G3 X4.3473 Y4.4767 I-0.0342 J0.0231
G3 X4.3489 Y4.4883 I-0.0405 J0.0117
G3 X4.3489 Y4.4896 I-0.0422 J0
G3 X4.347 Y4.4994 I-0.0304 J-0.0009
G2 X4.3459 Y4.5024 I0.0585 J0.022
G3 X4.3416 Y4.5108 I-0.0268 J-0.0085
G3 X4.3326 Y4.5194 I-0.0312 J-0.0235
G3 X4.321 Y4.525 I-0.0239 J-0.0346
G3 X4.3098 Y4.5266 I-0.0103 J-0.0336
G3 X4.3001 Y4.5251 I0.0007 J-0.037
G3 X4.2903 Y4.5208 I0.0116 J-0.0397
G3 X4.2819 Y4.5141 I0.0211 J-0.0348
G3 X4.2776 Y4.5086 I0.0252 J-0.0242
G1 Z-0.46 F25
G1 X4.2723 Y4.4956 F25
G3 X4.2718 Y4.4893 I0.0399 J-0.0063
G3 X4.2719 Y4.4868 I0.0404 J0
G3 X4.2747 Y4.4735 I0.0456 J0.0029
G3 X4.2812 Y4.4621 I0.0393 J0.0148
G3 X4.2893 Y4.455 I0.0244 J0.0195
G3 X4.2991 Y4.4506 I0.0186 J0.0288
G3 X4.3124 Y4.4492 I0.0115 J0.0435
G3 X4.3251 Y4.4517 I-0.0017 J0.0414
G3 X4.3327 Y4.4562 I-0.0091 J0.0247
G2 X4.3353 Y4.4581 I0.0399 J-0.0481
G3 X4.3418 Y4.465 I-0.017 J0.0227
G3 X4.3473 Y4.4767 I-0.0342 J0.0231
G3 X4.3489 Y4.4883 I-0.0405 J0.0117
G3 X4.3489 Y4.4896 I-0.0422 J0
G3 X4.347 Y4.4994 I-0.0304 J-0.0009
G2 X4.3459 Y4.5024 I0.0585 J0.022
G3 X4.3416 Y4.5108 I-0.0268 J-0.0085
G3 X4.3326 Y4.5194 I-0.0312 J-0.0235
G3 X4.321 Y4.525 I-0.0239 J-0.0346
G3 X4.3098 Y4.5266 I-0.0103 J-0.0336
G3 X4.3001 Y4.5251 I0.0007 J-0.037
G3 X4.2903 Y4.5208 I0.0116 J-0.0397
G3 X4.2819 Y4.5141 I0.0211 J-0.0348
G3 X4.2776 Y4.5086 I0.0252 J-0.0242
G1 Z-0.48 F25
G1 X4.2723 Y4.4956 F25
G3 X4.2718 Y4.4893 I0.0399 J-0.0063
G3 X4.2719 Y4.4868 I0.0404 J0
G3 X4.2747 Y4.4735 I0.0456 J0.0029
G3 X4.2812 Y4.4621 I0.0393 J0.0148
G3 X4.2893 Y4.455 I0.0244 J0.0195
G3 X4.2991 Y4.4506 I0.0186 J0.0288
G3 X4.3124 Y4.4492 I0.0115 J0.0435
G3 X4.3251 Y4.4517 I-0.0017 J0.0414
G3 X4.3327 Y4.4562 I-0.0091 J0.0247
G2 X4.3353 Y4.4581 I0.0399 J-0.0481
G3 X4.3418 Y4.465 I-0.017 J0.0227
G3 X4.3473 Y4.4767 I-0.0342 J0.0231
G3 X4.3489 Y4.4883 I-0.0405 J0.0117
G3 X4.3489 Y4.4896 I-0.0422 J0
G3 X4.347 Y4.4994 I-0.0304 J-0.0009
G2 X4.3459 Y4.5024 I0.0585 J0.022
G3 X4.3416 Y4.5108 I-0.0268 J-0.0085
G3 X4.3326 Y4.5194 I-0.0312 J-0.0235
G3 X4.321 Y4.525 I-0.0239 J-0.0346
G3 X4.3098 Y4.5266 I-0.0103 J-0.0336
G3 X4.3001 Y4.5251 I0.0007 J-0.037
G3 X4.2903 Y4.5208 I0.0116 J-0.0397
G3 X4.2819 Y4.5141 I0.0211 J-0.0348
G3 X4.2776 Y4.5086 I0.0252 J-0.0242
G1 Z-0.5 F25
G1 X4.2723 Y4.4956 F25
G3 X4.2718 Y4.4893 I0.0399 J-0.0063
G3 X4.2719 Y4.4868 I0.0404 J0
G3 X4.2747 Y4.4735 I0.0456 J0.0029
G3 X4.2812 Y4.4621 I0.0393 J0.0148
G3 X4.2893 Y4.455 I0.0244 J0.0195
G3 X4.2991 Y4.4506 I0.0186 J0.0288
G3 X4.3124 Y4.4492 I0.0115 J0.0435
G3 X4.3251 Y4.4517 I-0.0017 J0.0414
G3 X4.3327 Y4.4562 I-0.0091 J0.0247
G2 X4.3353 Y4.4581 I0.0399 J-0.0481
G3 X4.3418 Y4.465 I-0.017 J0.0227
G3 X4.3473 Y4.4767 I-0.0342 J0.0231
G3 X4.3489 Y4.4883 I-0.0405 J0.0117
G3 X4.3489 Y4.4896 I-0.0422 J0
G3 X4.347 Y4.4994 I-0.0304 J-0.0009
G2 X4.3459 Y4.5024 I0.0585 J0.022
G3 X4.3416 Y4.5108 I-0.0268 J-0.0085
G3 X4.3326 Y4.5194 I-0.0312 J-0.0235
G3 X4.321 Y4.525 I-0.0239 J-0.0346
G3 X4.3098 Y4.5266 I-0.0103 J-0.0336
G3 X4.3001 Y4.5251 I0.0007 J-0.037
G3 X4.2903 Y4.5208 I0.0116 J-0.0397
G3 X4.2819 Y4.5141 I0.0211 J-0.0348
G3 X4.2776 Y4.5086 I0.0252 J-0.0242
G1 Z-0.52 F25
G1 X4.2723 Y4.4956 F25
G3 X4.2718 Y4.4893 I0.0399 J-0.0063
G3 X4.2719 Y4.4868 I0.0404 J0
G3 X4.2747 Y4.4735 I0.0456 J0.0029
G3 X4.2812 Y4.4621 I0.0393 J0.0148
G3 X4.2893 Y4.455 I0.0244 J0.0195
G3 X4.2991 Y4.4506 I0.0186 J0.0288
G3 X4.3124 Y4.4492 I0.0115 J0.0435
G3 X4.3251 Y4.4517 I-0.0017 J0.0414
G3 X4.3327 Y4.4562 I-0.0091 J0.0247
G2 X4.3353 Y4.4581 I0.0399 J-0.0481
G3 X4.3418 Y4.465 I-0.017 J0.0227
G3 X4.3473 Y4.4767 I-0.0342 J0.0231
G3 X4.3489 Y4.4883 I-0.0405 J0.0117
G3 X4.3489 Y4.4896 I-0.0422 J0
G3 X4.347 Y4.4994 I-0.0304 J-0.0009
G2 X4.3459 Y4.5024 I0.0585 J0.022
G3 X4.3416 Y4.5108 I-0.0268 J-0.0085
G3 X4.3326 Y4.5194 I-0.0312 J-0.0235
G3 X4.321 Y4.525 I-0.0239 J-0.0346
G3 X4.3098 Y4.5266 I-0.0103 J-0.0336
G3 X4.3001 Y4.5251 I0.0007 J-0.037
G3 X4.2903 Y4.5208 I0.0116 J-0.0397
G3 X4.2819 Y4.5141 I0.0211 J-0.0348
G3 X4.2776 Y4.5086 I0.0252 J-0.0242

(profile 4-3)
G0 Z0.25
G0 X4.2776 Y3.7212
G1 Z-0.02 F25
G1 X4.2723 Y3.7082 F25
G3 X4.2718 Y3.7019 I0.0399 J-0.0063
G3 X4.2719 Y3.6994 I0.0404 J0
G3 X4.2747 Y3.6861 I0.0456 J0.0029
G3 X4.2812 Y3.6747 I0.0393 J0.0148
G3 X4.2893 Y3.6676 I0.0244 J0.0195
G3 X4.2991 Y3.6632 I0.0186 J0.0288
G3 X4.3124 Y3.6618 I0.0115 J0.0435
G3 X4.3251 Y3.6643 I-0.0017 J0.0414
G3 X4.3327 Y3.6687 I-0.0091 J0.0247
G2 X4.3353 Y3.6707 I0.0399 J-0.0481
G3 X4.3418 Y3.6776 I-0.017 J0.0227
G3 X4.3473 Y3.6893 I-0.0342 J0.0231
G3 X4.3489 Y3.7009 I-0.0405 J0.0117
G3 X4.3489 Y3.7022 I-0.0422 J0
G3 X4.347 Y3.712 I-0.0304 J-0.0009
G2 X4.3459 Y3.715 I0.0585 J0.022
G3 X4.3416 Y3.7234 I-0.0268 J-0.0085
G3 X4.3326 Y3.732 I-0.0312 J-0.0235
G3 X4.321 Y3.7376 I-0.0239 J-0.0345
G3 X4.3098 Y3.7392 I-0.0102 J-0.0335
G3 X4.3001 Y3.7377 I0.0006 J-0.0369
G3 X4.2903 Y3.7334 I0.0116 J-0.0397
G3 X4.2819 Y3.7267 I0.0211 J-0.0348
G3 X4.2776 Y3.7212 I0.0252 J-0.0242
G1 Z-0.04 F25
G1 X4.2723 Y3.7082 F25
G3 X4.2718 Y3.7019 I0.0399 J-0.0063
G3 X4.2719 Y3.6994 I0.0404 J0
G3 X4.2747 Y3.6861 I0.0456 J0.0029
G3 X4.2812 Y3.6747 I0.0393 J0.0148
G3 X4.2893 Y3.6676 I0.0244 J0.0195
G3 X4.2991 Y3.6632 I0.0186 J0.0288
G3 X4.3124 Y3.6618 I0.0115 J0.0435
G3 X4.3251 Y3.6643 I-0.0017 J0.0414
G3 X4.3327 Y3.6687 I-0.0091 J0.0247
G2 X4.3353 Y3.6707 I0.0399 J-0.0481
G3 X4.3418 Y3.6776 I-0.017 J0.0227
G3 X4.3473 Y3.6893 I-0.0342 J0.0231
G3 X4.3489 Y3.7009 I-0.0405 J0.0117
G3 X4.3489 Y3.7022 I-0.0422 J0
G3 X4.347 Y3.712 I-0.0304 J-0.0009
G2 X4.3459 Y3.715 I0.0585 J0.022
G3 X4.3416 Y3.7234 I-0.0268 J-0.0085
G3 X4.3326 Y3.732 I-0.0312 J-0.0235
G3 X4.321 Y3.7376 I-0.0239 J-0.0345
G3 X4.3098 Y3.7392 I-0.0102 J-0.0335
G3 X4.3001 Y3.7377 I0.0006 J-0.0369
G3 X4.2903 Y3.7334 I0.0116 J-0.0397
G3 X4.2819 Y3.7267 I0.0211 J-0.0348
G3 X4.2776 Y3.7212 I0.0252 J-0.0242
G1 Z-0.06 F25
G1 X4.2723 Y3.7082 F25
G3 X4.2718 Y3.7019 I0.0399 J-0.0063
G3 X4.2719 Y3.6994 I0.0404 J0
G3 X4.2747 Y3.6861 I0.0456 J0.0029
G3 X4.2812 Y3.6747 I0.0393 J0.0148
G3 X4.2893 Y3.6676 I0.0244 J0.0195
G3 X4.2991 Y3.6632 I0.0186 J0.0288
G3 X4.3124 Y3.6618 I0.0115 J0.0435
G3 X4.3251 Y3.6643 I-0.0017 J0.0414
G3 X4.3327 Y3.6687 I-0.0091 J0.0247
G2 X4.3353 Y3.6707 I0.0399 J-0.0481
G3 X4.3418 Y3.6776 I-0.017 J0.0227
G3 X4.3473 Y3.6893 I-0.0342 J0.0231
G3 X4.3489 Y3.7009 I-0.0405 J0.0117
G3 X4.3489 Y3.7022 I-0.0422 J0
G3 X4.347 Y3.712 I-0.0304 J-0.0009
G2 X4.3459 Y3.715 I0.0585 J0.022
G3 X4.3416 Y3.7234 I-0.0268 J-0.0085
G3 X4.3326 Y3.732 I-0.0312 J-0.0235
G3 X4.321 Y3.7376 I-0.0239 J-0.0345
G3 X4.3098 Y3.7392 I-0.0102 J-0.0335
G3 X4.3001 Y3.7377 I0.0006 J-0.0369
G3 X4.2903 Y3.7334 I0.0116 J-0.0397
G3 X4.2819 Y3.7267 I0.0211 J-0.0348
G3 X4.2776 Y3.7212 I0.0252 J-0.0242
G1 Z-0.08 F25
G1 X4.2723 Y3.7082 F25
G3 X4.2718 Y3.7019 I0.0399 J-0.0063
G3 X4.2719 Y3.6994 I0.0404 J0
G3 X4.2747 Y3.6861 I0.0456 J0.0029
G3 X4.2812 Y3.6747 I0.0393 J0.0148
G3 X4.2893 Y3.6676 I0.0244 J0.0195
G3 X4.2991 Y3.6632 I0.0186 J0.0288
G3 X4.3124 Y3.6618 I0.0115 J0.0435
G3 X4.3251 Y3.6643 I-0.0017 J0.0414
G3 X4.3327 Y3.6687 I-0.0091 J0.0247
G2 X4.3353 Y3.6707 I0.0399 J-0.0481
G3 X4.3418 Y3.6776 I-0.017 J0.0227
G3 X4.3473 Y3.6893 I-0.0342 J0.0231
G3 X4.3489 Y3.7009 I-0.0405 J0.0117
G3 X4.3489 Y3.7022 I-0.0422 J0
G3 X4.347 Y3.712 I-0.0304 J-0.0009
G2 X4.3459 Y3.715 I0.0585 J0.022
G3 X4.3416 Y3.7234 I-0.0268 J-0.0085
G3 X4.3326 Y3.732 I-0.0312 J-0.0235
G3 X4.321 Y3.7376 I-0.0239 J-0.0345
G3 X4.3098 Y3.7392 I-0.0102 J-0.0335
G3 X4.3001 Y3.7377 I0.0006 J-0.0369
G3 X4.2903 Y3.7334 I0.0116 J-0.0397
G3 X4.2819 Y3.7267 I0.0211 J-0.0348
G3 X4.2776 Y3.7212 I0.0252 J-0.0242
G1 Z-0.1 F25
G1 X4.2723 Y3.7082 F25
G3 X4.2718 Y3.7019 I0.0399 J-0.0063
G3 X4.2719 Y3.6994 I0.0404 J0
G3 X4.2747 Y3.6861 I0.0456 J0.0029
G3 X4.2812 Y3.6747 I0.0393 J0.0148
G3 X4.2893 Y3.6676 I0.0244 J0.0195
G3 X4.2991 Y3.6632 I0.0186 J0.0288
G3 X4.3124 Y3.6618 I0.0115 J0.0435
G3 X4.3251 Y3.6643 I-0.0017 J0.0414
G3 X4.3327 Y3.6687 I-0.0091 J0.0247
G2 X4.3353 Y3.6707 I0.0399 J-0.0481
G3 X4.3418 Y3.6776 I-0.017 J0.0227
G3 X4.3473 Y3.6893 I-0.0342 J0.0231
G3 X4.3489 Y3.7009 I-0.0405 J0.0117
G3 X4.3489 Y3.7022 I-0.0422 J0
G3 X4.347 Y3.712 I-0.0304 J-0.0009
G2 X4.3459 Y3.715 I0.0585 J0.022
G3 X4.3416 Y3.7234 I-0.0268 J-0.0085
G3 X4.3326 Y3.732 I-0.0312 J-0.0235
G3 X4.321 Y3.7376 I-0.0239 J-0.0345
G3 X4.3098 Y3.7392 I-0.0102 J-0.0335
G3 X4.3001 Y3.7377 I0.0006 J-0.0369
G3 X4.2903 Y3.7334 I0.0116 J-0.0397
G3 X4.2819 Y3.7267 I0.0211 J-0.0348
G3 X4.2776 Y3.7212 I0.0252 J-0.0242
G1 Z-0.12 F25
G1 X4.2723 Y3.7082 F25
G3 X4.2718 Y3.7019 I0.0399 J-0.0063
G3 X4.2719 Y3.6994 I0.0404 J0
G3 X4.2747 Y3.6861 I0.0456 J0.0029
G3 X4.2812 Y3.6747 I0.0393 J0.0148
G3 X4.2893 Y3.6676 I0.0244 J0.0195
G3 X4.2991 Y3.6632 I0.0186 J0.0288
G3 X4.3124 Y3.6618 I0.0115 J0.0435
G3 X4.3251 Y3.6643 I-0.0017 J0.0414
G3 X4.3327 Y3.6687 I-0.0091 J0.0247
G2 X4.3353 Y3.6707 I0.0399 J-0.0481
G3 X4.3418 Y3.6776 I-0.017 J0.0227
G3 X4.3473 Y3.6893 I-0.0342 J0.0231
G3 X4.3489 Y3.7009 I-0.0405 J0.0117
G3 X4.3489 Y3.7022 I-0.0422 J0
G3 X4.347 Y3.712 I-0.0304 J-0.0009
G2 X4.3459 Y3.715 I0.0585 J0.022
G3 X4.3416 Y3.7234 I-0.0268 J-0.0085
G3 X4.3326 Y3.732 I-0.0312 J-0.0235
G3 X4.321 Y3.7376 I-0.0239 J-0.0345
G3 X4.3098 Y3.7392 I-0.0102 J-0.0335
G3 X4.3001 Y3.7377 I0.0006 J-0.0369
G3 X4.2903 Y3.7334 I0.0116 J-0.0397
G3 X4.2819 Y3.7267 I0.0211 J-0.0348
G3 X4.2776 Y3.7212 I0.0252 J-0.0242
G1 Z-0.14 F25
G1 X4.2723 Y3.7082 F25
G3 X4.2718 Y3.7019 I0.0399 J-0.0063
G3 X4.2719 Y3.6994 I0.0404 J0
G3 X4.2747 Y3.6861 I0.0456 J0.0029
G3 X4.2812 Y3.6747 I0.0393 J0.0148
G3 X4.2893 Y3.6676 I0.0244 J0.0195
G3 X4.2991 Y3.6632 I0.0186 J0.0288
G3 X4.3124 Y3.6618 I0.0115 J0.0435
G3 X4.3251 Y3.6643 I-0.0017 J0.0414
G3 X4.3327 Y3.6687 I-0.0091 J0.0247
G2 X4.3353 Y3.6707 I0.0399 J-0.0481
G3 X4.3418 Y3.6776 I-0.017 J0.0227
G3 X4.3473 Y3.6893 I-0.0342 J0.0231
G3 X4.3489 Y3.7009 I-0.0405 J0.0117
G3 X4.3489 Y3.7022 I-0.0422 J0
G3 X4.347 Y3.712 I-0.0304 J-0.0009
G2 X4.3459 Y3.715 I0.0585 J0.022
G3 X4.3416 Y3.7234 I-0.0268 J-0.0085
G3 X4.3326 Y3.732 I-0.0312 J-0.0235
G3 X4.321 Y3.7376 I-0.0239 J-0.0345
G3 X4.3098 Y3.7392 I-0.0102 J-0.0335
G3 X4.3001 Y3.7377 I0.0006 J-0.0369
G3 X4.2903 Y3.7334 I0.0116 J-0.0397
G3 X4.2819 Y3.7267 I0.0211 J-0.0348
G3 X4.2776 Y3.7212 I0.0252 J-0.0242
G1 Z-0.16 F25
G1 X4.2723 Y3.7082 F25
G3 X4.2718 Y3.7019 I0.0399 J-0.0063
G3 X4.2719 Y3.6994 I0.0404 J0
G3 X4.2747 Y3.6861 I0.0456 J0.0029
G3 X4.2812 Y3.6747 I0.0393 J0.0148
G3 X4.2893 Y3.6676 I0.0244 J0.0195
G3 X4.2991 Y3.6632 I0.0186 J0.0288
G3 X4.3124 Y3.6618 I0.0115 J0.0435
G3 X4.3251 Y3.6643 I-0.0017 J0.0414
G3 X4.3327 Y3.6687 I-0.0091 J0.0247
G2 X4.3353 Y3.6707 I0.0399 J-0.0481
G3 X4.3418 Y3.6776 I-0.017 J0.0227
G3 X4.3473 Y3.6893 I-0.0342 J0.0231
G3 X4.3489 Y3.7009 I-0.0405 J0.0117
G3 X4.3489 Y3.7022 I-0.0422 J0
G3 X4.347 Y3.712 I-0.0304 J-0.0009
G2 X4.3459 Y3.715 I0.0585 J0.022
G3 X4.3416 Y3.7234 I-0.0268 J-0.0085
G3 X4.3326 Y3.732 I-0.0312 J-0.0235
G3 X4.321 Y3.7376 I-0.0239 J-0.0345
G3 X4.3098 Y3.7392 I-0.0102 J-0.0335
G3 X4.3001 Y3.7377 I0.0006 J-0.0369
G3 X4.2903 Y3.7334 I0.0116 J-0.0397
G3 X4.2819 Y3.7267 I0.0211 J-0.0348
G3 X4.2776 Y3.7212 I0.0252 J-0.0242
G1 Z-0.18 F25
G1 X4.2723 Y3.7082 F25
G3 X4.2718 Y3.7019 I0.0399 J-0.0063
G3 X4.2719 Y3.6994 I0.0404 J0
G3 X4.2747 Y3.6861 I0.0456 J0.0029
G3 X4.2812 Y3.6747 I0.0393 J0.0148
G3 X4.2893 Y3.6676 I0.0244 J0.0195
G3 X4.2991 Y3.6632 I0.0186 J0.0288
G3 X4.3124 Y3.6618 I0.0115 J0.0435
G3 X4.3251 Y3.6643 I-0.0017 J0.0414
G3 X4.3327 Y3.6687 I-0.0091 J0.0247
G2 X4.3353 Y3.6707 I0.0399 J-0.0481
G3 X4.3418 Y3.6776 I-0.017 J0.0227
G3 X4.3473 Y3.6893 I-0.0342 J0.0231
G3 X4.3489 Y3.7009 I-0.0405 J0.0117
G3 X4.3489 Y3.7022 I-0.0422 J0
G3 X4.347 Y3.712 I-0.0304 J-0.0009
G2 X4.3459 Y3.715 I0.0585 J0.022
G3 X4.3416 Y3.7234 I-0.0268 J-0.0085
G3 X4.3326 Y3.732 I-0.0312 J-0.0235
G3 X4.321 Y3.7376 I-0.0239 J-0.0345
G3 X4.3098 Y3.7392 I-0.0102 J-0.0335
G3 X4.3001 Y3.7377 I0.0006 J-0.0369
G3 X4.2903 Y3.7334 I0.0116 J-0.0397
G3 X4.2819 Y3.7267 I0.0211 J-0.0348
G3 X4.2776 Y3.7212 I0.0252 J-0.0242
G1 Z-0.2 F25
G1 X4.2723 Y3.7082 F25
G3 X4.2718 Y3.7019 I0.0399 J-0.0063
G3 X4.2719 Y3.6994 I0.0404 J0
G3 X4.2747 Y3.6861 I0.0456 J0.0029
G3 X4.2812 Y3.6747 I0.0393 J0.0148
G3 X4.2893 Y3.6676 I0.0244 J0.0195
G3 X4.2991 Y3.6632 I0.0186 J0.0288
G3 X4.3124 Y3.6618 I0.0115 J0.0435
G3 X4.3251 Y3.6643 I-0.0017 J0.0414
G3 X4.3327 Y3.6687 I-0.0091 J0.0247
G2 X4.3353 Y3.6707 I0.0399 J-0.0481
G3 X4.3418 Y3.6776 I-0.017 J0.0227
G3 X4.3473 Y3.6893 I-0.0342 J0.0231
G3 X4.3489 Y3.7009 I-0.0405 J0.0117
G3 X4.3489 Y3.7022 I-0.0422 J0
G3 X4.347 Y3.712 I-0.0304 J-0.0009
G2 X4.3459 Y3.715 I0.0585 J0.022
G3 X4.3416 Y3.7234 I-0.0268 J-0.0085
G3 X4.3326 Y3.732 I-0.0312 J-0.0235
G3 X4.321 Y3.7376 I-0.0239 J-0.0345
G3 X4.3098 Y3.7392 I-0.0102 J-0.0335
G3 X4.3001 Y3.7377 I0.0006 J-0.0369
G3 X4.2903 Y3.7334 I0.0116 J-0.0397
G3 X4.2819 Y3.7267 I0.0211 J-0.0348
G3 X4.2776 Y3.7212 I0.0252 J-0.0242
G1 Z-0.22 F25
G1 X4.2723 Y3.7082 F25
G3 X4.2718 Y3.7019 I0.0399 J-0.0063
G3 X4.2719 Y3.6994 I0.0404 J0
G3 X4.2747 Y3.6861 I0.0456 J0.0029
G3 X4.2812 Y3.6747 I0.0393 J0.0148
G3 X4.2893 Y3.6676 I0.0244 J0.0195
G3 X4.2991 Y3.6632 I0.0186 J0.0288
G3 X4.3124 Y3.6618 I0.0115 J0.0435
G3 X4.3251 Y3.6643 I-0.0017 J0.0414
G3 X4.3327 Y3.6687 I-0.0091 J0.0247
G2 X4.3353 Y3.6707 I0.0399 J-0.0481
G3 X4.3418 Y3.6776 I-0.017 J0.0227
G3 X4.3473 Y3.6893 I-0.0342 J0.0231
G3 X4.3489 Y3.7009 I-0.0405 J0.0117
G3 X4.3489 Y3.7022 I-0.0422 J0
G3 X4.347 Y3.712 I-0.0304 J-0.0009
G2 X4.3459 Y3.715 I0.0585 J0.022
G3 X4.3416 Y3.7234 I-0.0268 J-0.0085
G3 X4.3326 Y3.732 I-0.0312 J-0.0235
G3 X4.321 Y3.7376 I-0.0239 J-0.0345
G3 X4.3098 Y3.7392 I-0.0102 J-0.0335
G3 X4.3001 Y3.7377 I0.0006 J-0.0369
G3 X4.2903 Y3.7334 I0.0116 J-0.0397
G3 X4.2819 Y3.7267 I0.0211 J-0.0348
G3 X4.2776 Y3.7212 I0.0252 J-0.0242
G1 Z-0.24 F25
G1 X4.2723 Y3.7082 F25
G3 X4.2718 Y3.7019 I0.0399 J-0.0063
G3 X4.2719 Y3.6994 I0.0404 J0
G3 X4.2747 Y3.6861 I0.0456 J0.0029
G3 X4.2812 Y3.6747 I0.0393 J0.0148
G3 X4.2893 Y3.6676 I0.0244 J0.0195
G3 X4.2991 Y3.6632 I0.0186 J0.0288
G3 X4.3124 Y3.6618 I0.0115 J0.0435
G3 X4.3251 Y3.6643 I-0.0017 J0.0414
G3 X4.3327 Y3.6687 I-0.0091 J0.0247
G2 X4.3353 Y3.6707 I0.0399 J-0.0481
G3 X4.3418 Y3.6776 I-0.017 J0.0227
G3 X4.3473 Y3.6893 I-0.0342 J0.0231
G3 X4.3489 Y3.7009 I-0.0405 J0.0117
G3 X4.3489 Y3.7022 I-0.0422 J0
G3 X4.347 Y3.712 I-0.0304 J-0.0009
G2 X4.3459 Y3.715 I0.0585 J0.022
G3 X4.3416 Y3.7234 I-0.0268 J-0.0085
G3 X4.3326 Y3.732 I-0.0312 J-0.0235
G3 X4.321 Y3.7376 I-0.0239 J-0.0345
G3 X4.3098 Y3.7392 I-0.0102 J-0.0335
G3 X4.3001 Y3.7377 I0.0006 J-0.0369
G3 X4.2903 Y3.7334 I0.0116 J-0.0397
G3 X4.2819 Y3.7267 I0.0211 J-0.0348
G3 X4.2776 Y3.7212 I0.0252 J-0.0242
G1 Z-0.26 F25
G1 X4.2723 Y3.7082 F25
G3 X4.2718 Y3.7019 I0.0399 J-0.0063
G3 X4.2719 Y3.6994 I0.0404 J0
G3 X4.2747 Y3.6861 I0.0456 J0.0029
G3 X4.2812 Y3.6747 I0.0393 J0.0148
G3 X4.2893 Y3.6676 I0.0244 J0.0195
G3 X4.2991 Y3.6632 I0.0186 J0.0288
G3 X4.3124 Y3.6618 I0.0115 J0.0435
G3 X4.3251 Y3.6643 I-0.0017 J0.0414
G3 X4.3327 Y3.6687 I-0.0091 J0.0247
G2 X4.3353 Y3.6707 I0.0399 J-0.0481
G3 X4.3418 Y3.6776 I-0.017 J0.0227
G3 X4.3473 Y3.6893 I-0.0342 J0.0231
G3 X4.3489 Y3.7009 I-0.0405 J0.0117
G3 X4.3489 Y3.7022 I-0.0422 J0
G3 X4.347 Y3.712 I-0.0304 J-0.0009
G2 X4.3459 Y3.715 I0.0585 J0.022
G3 X4.3416 Y3.7234 I-0.0268 J-0.0085
G3 X4.3326 Y3.732 I-0.0312 J-0.0235
G3 X4.321 Y3.7376 I-0.0239 J-0.0345
G3 X4.3098 Y3.7392 I-0.0102 J-0.0335
G3 X4.3001 Y3.7377 I0.0006 J-0.0369
G3 X4.2903 Y3.7334 I0.0116 J-0.0397
G3 X4.2819 Y3.7267 I0.0211 J-0.0348
G3 X4.2776 Y3.7212 I0.0252 J-0.0242
G1 Z-0.28 F25
G1 X4.2723 Y3.7082 F25
G3 X4.2718 Y3.7019 I0.0399 J-0.0063
G3 X4.2719 Y3.6994 I0.0404 J0
G3 X4.2747 Y3.6861 I0.0456 J0.0029
G3 X4.2812 Y3.6747 I0.0393 J0.0148
G3 X4.2893 Y3.6676 I0.0244 J0.0195
G3 X4.2991 Y3.6632 I0.0186 J0.0288
G3 X4.3124 Y3.6618 I0.0115 J0.0435
G3 X4.3251 Y3.6643 I-0.0017 J0.0414
G3 X4.3327 Y3.6687 I-0.0091 J0.0247
G2 X4.3353 Y3.6707 I0.0399 J-0.0481
G3 X4.3418 Y3.6776 I-0.017 J0.0227
G3 X4.3473 Y3.6893 I-0.0342 J0.0231
G3 X4.3489 Y3.7009 I-0.0405 J0.0117
G3 X4.3489 Y3.7022 I-0.0422 J0
G3 X4.347 Y3.712 I-0.0304 J-0.0009
G2 X4.3459 Y3.715 I0.0585 J0.022
G3 X4.3416 Y3.7234 I-0.0268 J-0.0085
G3 X4.3326 Y3.732 I-0.0312 J-0.0235
G3 X4.321 Y3.7376 I-0.0239 J-0.0345
G3 X4.3098 Y3.7392 I-0.0102 J-0.0335
G3 X4.3001 Y3.7377 I0.0006 J-0.0369
G3 X4.2903 Y3.7334 I0.0116 J-0.0397
G3 X4.2819 Y3.7267 I0.0211 J-0.0348
G3 X4.2776 Y3.7212 I0.0252 J-0.0242
G1 Z-0.3 F25
G1 X4.2723 Y3.7082 F25
G3 X4.2718 Y3.7019 I0.0399 J-0.0063
G3 X4.2719 Y3.6994 I0.0404 J0
G3 X4.2747 Y3.6861 I0.0456 J0.0029
G3 X4.2812 Y3.6747 I0.0393 J0.0148
G3 X4.2893 Y3.6676 I0.0244 J0.0195
G3 X4.2991 Y3.6632 I0.0186 J0.0288
G3 X4.3124 Y3.6618 I0.0115 J0.0435
G3 X4.3251 Y3.6643 I-0.0017 J0.0414
G3 X4.3327 Y3.6687 I-0.0091 J0.0247
G2 X4.3353 Y3.6707 I0.0399 J-0.0481
G3 X4.3418 Y3.6776 I-0.017 J0.0227
G3 X4.3473 Y3.6893 I-0.0342 J0.0231
G3 X4.3489 Y3.7009 I-0.0405 J0.0117
G3 X4.3489 Y3.7022 I-0.0422 J0
G3 X4.347 Y3.712 I-0.0304 J-0.0009
G2 X4.3459 Y3.715 I0.0585 J0.022
G3 X4.3416 Y3.7234 I-0.0268 J-0.0085
G3 X4.3326 Y3.732 I-0.0312 J-0.0235
G3 X4.321 Y3.7376 I-0.0239 J-0.0345
G3 X4.3098 Y3.7392 I-0.0102 J-0.0335
G3 X4.3001 Y3.7377 I0.0006 J-0.0369
G3 X4.2903 Y3.7334 I0.0116 J-0.0397
G3 X4.2819 Y3.7267 I0.0211 J-0.0348
G3 X4.2776 Y3.7212 I0.0252 J-0.0242
G1 Z-0.32 F25
G1 X4.2723 Y3.7082 F25
G3 X4.2718 Y3.7019 I0.0399 J-0.0063
G3 X4.2719 Y3.6994 I0.0404 J0
G3 X4.2747 Y3.6861 I0.0456 J0.0029
G3 X4.2812 Y3.6747 I0.0393 J0.0148
G3 X4.2893 Y3.6676 I0.0244 J0.0195
G3 X4.2991 Y3.6632 I0.0186 J0.0288
G3 X4.3124 Y3.6618 I0.0115 J0.0435
G3 X4.3251 Y3.6643 I-0.0017 J0.0414
G3 X4.3327 Y3.6687 I-0.0091 J0.0247
G2 X4.3353 Y3.6707 I0.0399 J-0.0481
G3 X4.3418 Y3.6776 I-0.017 J0.0227
G3 X4.3473 Y3.6893 I-0.0342 J0.0231
G3 X4.3489 Y3.7009 I-0.0405 J0.0117
G3 X4.3489 Y3.7022 I-0.0422 J0
G3 X4.347 Y3.712 I-0.0304 J-0.0009
G2 X4.3459 Y3.715 I0.0585 J0.022
G3 X4.3416 Y3.7234 I-0.0268 J-0.0085
G3 X4.3326 Y3.732 I-0.0312 J-0.0235
G3 X4.321 Y3.7376 I-0.0239 J-0.0345
G3 X4.3098 Y3.7392 I-0.0102 J-0.0335
G3 X4.3001 Y3.7377 I0.0006 J-0.0369
G3 X4.2903 Y3.7334 I0.0116 J-0.0397
G3 X4.2819 Y3.7267 I0.0211 J-0.0348
G3 X4.2776 Y3.7212 I0.0252 J-0.0242
G1 Z-0.34 F25
G1 X4.2723 Y3.7082 F25
G3 X4.2718 Y3.7019 I0.0399 J-0.0063
G3 X4.2719 Y3.6994 I0.0404 J0
G3 X4.2747 Y3.6861 I0.0456 J0.0029
G3 X4.2812 Y3.6747 I0.0393 J0.0148
G3 X4.2893 Y3.6676 I0.0244 J0.0195
G3 X4.2991 Y3.6632 I0.0186 J0.0288
G3 X4.3124 Y3.6618 I0.0115 J0.0435
G3 X4.3251 Y3.6643 I-0.0017 J0.0414
G3 X4.3327 Y3.6687 I-0.0091 J0.0247
G2 X4.3353 Y3.6707 I0.0399 J-0.0481
G3 X4.3418 Y3.6776 I-0.017 J0.0227
G3 X4.3473 Y3.6893 I-0.0342 J0.0231
G3 X4.3489 Y3.7009 I-0.0405 J0.0117
G3 X4.3489 Y3.7022 I-0.0422 J0
G3 X4.347 Y3.712 I-0.0304 J-0.0009
G2 X4.3459 Y3.715 I0.0585 J0.022
G3 X4.3416 Y3.7234 I-0.0268 J-0.0085
G3 X4.3326 Y3.732 I-0.0312 J-0.0235
G3 X4.321 Y3.7376 I-0.0239 J-0.0345
G3 X4.3098 Y3.7392 I-0.0102 J-0.0335
G3 X4.3001 Y3.7377 I0.0006 J-0.0369
G3 X4.2903 Y3.7334 I0.0116 J-0.0397
G3 X4.2819 Y3.7267 I0.0211 J-0.0348
G3 X4.2776 Y3.7212 I0.0252 J-0.0242
G1 Z-0.36 F25
G1 X4.2723 Y3.7082 F25
G3 X4.2718 Y3.7019 I0.0399 J-0.0063
G3 X4.2719 Y3.6994 I0.0404 J0
G3 X4.2747 Y3.6861 I0.0456 J0.0029
G3 X4.2812 Y3.6747 I0.0393 J0.0148
G3 X4.2893 Y3.6676 I0.0244 J0.0195
G3 X4.2991 Y3.6632 I0.0186 J0.0288
G3 X4.3124 Y3.6618 I0.0115 J0.0435
G3 X4.3251 Y3.6643 I-0.0017 J0.0414
G3 X4.3327 Y3.6687 I-0.0091 J0.0247
G2 X4.3353 Y3.6707 I0.0399 J-0.0481
G3 X4.3418 Y3.6776 I-0.017 J0.0227
G3 X4.3473 Y3.6893 I-0.0342 J0.0231
G3 X4.3489 Y3.7009 I-0.0405 J0.0117
G3 X4.3489 Y3.7022 I-0.0422 J0
G3 X4.347 Y3.712 I-0.0304 J-0.0009
G2 X4.3459 Y3.715 I0.0585 J0.022
G3 X4.3416 Y3.7234 I-0.0268 J-0.0085
G3 X4.3326 Y3.732 I-0.0312 J-0.0235
G3 X4.321 Y3.7376 I-0.0239 J-0.0345
G3 X4.3098 Y3.7392 I-0.0102 J-0.0335
G3 X4.3001 Y3.7377 I0.0006 J-0.0369
G3 X4.2903 Y3.7334 I0.0116 J-0.0397
G3 X4.2819 Y3.7267 I0.0211 J-0.0348
G3 X4.2776 Y3.7212 I0.0252 J-0.0242
G1 Z-0.38 F25
G1 X4.2723 Y3.7082 F25
G3 X4.2718 Y3.7019 I0.0399 J-0.0063
G3 X4.2719 Y3.6994 I0.0404 J0
G3 X4.2747 Y3.6861 I0.0456 J0.0029
G3 X4.2812 Y3.6747 I0.0393 J0.0148
G3 X4.2893 Y3.6676 I0.0244 J0.0195
G3 X4.2991 Y3.6632 I0.0186 J0.0288
G3 X4.3124 Y3.6618 I0.0115 J0.0435
G3 X4.3251 Y3.6643 I-0.0017 J0.0414
G3 X4.3327 Y3.6687 I-0.0091 J0.0247
G2 X4.3353 Y3.6707 I0.0399 J-0.0481
G3 X4.3418 Y3.6776 I-0.017 J0.0227
G3 X4.3473 Y3.6893 I-0.0342 J0.0231
G3 X4.3489 Y3.7009 I-0.0405 J0.0117
G3 X4.3489 Y3.7022 I-0.0422 J0
G3 X4.347 Y3.712 I-0.0304 J-0.0009
G2 X4.3459 Y3.715 I0.0585 J0.022
G3 X4.3416 Y3.7234 I-0.0268 J-0.0085
G3 X4.3326 Y3.732 I-0.0312 J-0.0235
G3 X4.321 Y3.7376 I-0.0239 J-0.0345
G3 X4.3098 Y3.7392 I-0.0102 J-0.0335
G3 X4.3001 Y3.7377 I0.0006 J-0.0369
G3 X4.2903 Y3.7334 I0.0116 J-0.0397
G3 X4.2819 Y3.7267 I0.0211 J-0.0348
G3 X4.2776 Y3.7212 I0.0252 J-0.0242
G1 Z-0.4 F25
G1 X4.2723 Y3.7082 F25
G3 X4.2718 Y3.7019 I0.0399 J-0.0063
G3 X4.2719 Y3.6994 I0.0404 J0
G3 X4.2747 Y3.6861 I0.0456 J0.0029
G3 X4.2812 Y3.6747 I0.0393 J0.0148
G3 X4.2893 Y3.6676 I0.0244 J0.0195
G3 X4.2991 Y3.6632 I0.0186 J0.0288
G3 X4.3124 Y3.6618 I0.0115 J0.0435
G3 X4.3251 Y3.6643 I-0.0017 J0.0414
G3 X4.3327 Y3.6687 I-0.0091 J0.0247
G2 X4.3353 Y3.6707 I0.0399 J-0.0481
G3 X4.3418 Y3.6776 I-0.017 J0.0227
G3 X4.3473 Y3.6893 I-0.0342 J0.0231
G3 X4.3489 Y3.7009 I-0.0405 J0.0117
G3 X4.3489 Y3.7022 I-0.0422 J0
G3 X4.347 Y3.712 I-0.0304 J-0.0009
G2 X4.3459 Y3.715 I0.0585 J0.022
G3 X4.3416 Y3.7234 I-0.0268 J-0.0085
G3 X4.3326 Y3.732 I-0.0312 J-0.0235
G3 X4.321 Y3.7376 I-0.0239 J-0.0345
G3 X4.3098 Y3.7392 I-0.0102 J-0.0335
G3 X4.3001 Y3.7377 I0.0006 J-0.0369
G3 X4.2903 Y3.7334 I0.0116 J-0.0397
G3 X4.2819 Y3.7267 I0.0211 J-0.0348
G3 X4.2776 Y3.7212 I0.0252 J-0.0242
G1 Z-0.42 F25
G1 X4.2723 Y3.7082 F25
G3 X4.2718 Y3.7019 I0.0399 J-0.0063
G3 X4.2719 Y3.6994 I0.0404 J0
G3 X4.2747 Y3.6861 I0.0456 J0.0029
G3 X4.2812 Y3.6747 I0.0393 J0.0148
G3 X4.2893 Y3.6676 I0.0244 J0.0195
G3 X4.2991 Y3.6632 I0.0186 J0.0288
G3 X4.3124 Y3.6618 I0.0115 J0.0435
G3 X4.3251 Y3.6643 I-0.0017 J0.0414
G3 X4.3327 Y3.6687 I-0.0091 J0.0247
G2 X4.3353 Y3.6707 I0.0399 J-0.0481
G3 X4.3418 Y3.6776 I-0.017 J0.0227
G3 X4.3473 Y3.6893 I-0.0342 J0.0231
G3 X4.3489 Y3.7009 I-0.0405 J0.0117
G3 X4.3489 Y3.7022 I-0.0422 J0
G3 X4.347 Y3.712 I-0.0304 J-0.0009
G2 X4.3459 Y3.715 I0.0585 J0.022
G3 X4.3416 Y3.7234 I-0.0268 J-0.0085
G3 X4.3326 Y3.732 I-0.0312 J-0.0235
G3 X4.321 Y3.7376 I-0.0239 J-0.0345
G3 X4.3098 Y3.7392 I-0.0102 J-0.0335
G3 X4.3001 Y3.7377 I0.0006 J-0.0369
G3 X4.2903 Y3.7334 I0.0116 J-0.0397
G3 X4.2819 Y3.7267 I0.0211 J-0.0348
G3 X4.2776 Y3.7212 I0.0252 J-0.0242
G1 Z-0.44 F25
G1 X4.2723 Y3.7082 F25
G3 X4.2718 Y3.7019 I0.0399 J-0.0063
G3 X4.2719 Y3.6994 I0.0404 J0
G3 X4.2747 Y3.6861 I0.0456 J0.0029
G3 X4.2812 Y3.6747 I0.0393 J0.0148
G3 X4.2893 Y3.6676 I0.0244 J0.0195
G3 X4.2991 Y3.6632 I0.0186 J0.0288
G3 X4.3124 Y3.6618 I0.0115 J0.0435
G3 X4.3251 Y3.6643 I-0.0017 J0.0414
G3 X4.3327 Y3.6687 I-0.0091 J0.0247
G2 X4.3353 Y3.6707 I0.0399 J-0.0481
G3 X4.3418 Y3.6776 I-0.017 J0.0227
G3 X4.3473 Y3.6893 I-0.0342 J0.0231
G3 X4.3489 Y3.7009 I-0.0405 J0.0117
G3 X4.3489 Y3.7022 I-0.0422 J0
G3 X4.347 Y3.712 I-0.0304 J-0.0009
G2 X4.3459 Y3.715 I0.0585 J0.022
G3 X4.3416 Y3.7234 I-0.0268 J-0.0085
G3 X4.3326 Y3.732 I-0.0312 J-0.0235
G3 X4.321 Y3.7376 I-0.0239 J-0.0345
G3 X4.3098 Y3.7392 I-0.0102 J-0.0335
G3 X4.3001 Y3.7377 I0.0006 J-0.0369
G3 X4.2903 Y3.7334 I0.0116 J-0.0397
G3 X4.2819 Y3.7267 I0.0211 J-0.0348
G3 X4.2776 Y3.7212 I0.0252 J-0.0242
G1 Z-0.46 F25
G1 X4.2723 Y3.7082 F25
G3 X4.2718 Y3.7019 I0.0399 J-0.0063
G3 X4.2719 Y3.6994 I0.0404 J0
G3 X4.2747 Y3.6861 I0.0456 J0.0029
G3 X4.2812 Y3.6747 I0.0393 J0.0148
G3 X4.2893 Y3.6676 I0.0244 J0.0195
G3 X4.2991 Y3.6632 I0.0186 J0.0288
G3 X4.3124 Y3.6618 I0.0115 J0.0435
G3 X4.3251 Y3.6643 I-0.0017 J0.0414
G3 X4.3327 Y3.6687 I-0.0091 J0.0247
G2 X4.3353 Y3.6707 I0.0399 J-0.0481
G3 X4.3418 Y3.6776 I-0.017 J0.0227
G3 X4.3473 Y3.6893 I-0.0342 J0.0231
G3 X4.3489 Y3.7009 I-0.0405 J0.0117
G3 X4.3489 Y3.7022 I-0.0422 J0
G3 X4.347 Y3.712 I-0.0304 J-0.0009
G2 X4.3459 Y3.715 I0.0585 J0.022
G3 X4.3416 Y3.7234 I-0.0268 J-0.0085
G3 X4.3326 Y3.732 I-0.0312 J-0.0235
G3 X4.321 Y3.7376 I-0.0239 J-0.0345
G3 X4.3098 Y3.7392 I-0.0102 J-0.0335
G3 X4.3001 Y3.7377 I0.0006 J-0.0369
G3 X4.2903 Y3.7334 I0.0116 J-0.0397
G3 X4.2819 Y3.7267 I0.0211 J-0.0348
G3 X4.2776 Y3.7212 I0.0252 J-0.0242
G1 Z-0.48 F25
G1 X4.2723 Y3.7082 F25
G3 X4.2718 Y3.7019 I0.0399 J-0.0063
G3 X4.2719 Y3.6994 I0.0404 J0
G3 X4.2747 Y3.6861 I0.0456 J0.0029
G3 X4.2812 Y3.6747 I0.0393 J0.0148
G3 X4.2893 Y3.6676 I0.0244 J0.0195
G3 X4.2991 Y3.6632 I0.0186 J0.0288
G3 X4.3124 Y3.6618 I0.0115 J0.0435
G3 X4.3251 Y3.6643 I-0.0017 J0.0414
G3 X4.3327 Y3.6687 I-0.0091 J0.0247
G2 X4.3353 Y3.6707 I0.0399 J-0.0481
G3 X4.3418 Y3.6776 I-0.017 J0.0227
G3 X4.3473 Y3.6893 I-0.0342 J0.0231
G3 X4.3489 Y3.7009 I-0.0405 J0.0117
G3 X4.3489 Y3.7022 I-0.0422 J0
G3 X4.347 Y3.712 I-0.0304 J-0.0009
G2 X4.3459 Y3.715 I0.0585 J0.022
G3 X4.3416 Y3.7234 I-0.0268 J-0.0085
G3 X4.3326 Y3.732 I-0.0312 J-0.0235
G3 X4.321 Y3.7376 I-0.0239 J-0.0345
G3 X4.3098 Y3.7392 I-0.0102 J-0.0335
G3 X4.3001 Y3.7377 I0.0006 J-0.0369
G3 X4.2903 Y3.7334 I0.0116 J-0.0397
G3 X4.2819 Y3.7267 I0.0211 J-0.0348
G3 X4.2776 Y3.7212 I0.0252 J-0.0242
G1 Z-0.5 F25
G1 X4.2723 Y3.7082 F25
G3 X4.2718 Y3.7019 I0.0399 J-0.0063
G3 X4.2719 Y3.6994 I0.0404 J0
G3 X4.2747 Y3.6861 I0.0456 J0.0029
G3 X4.2812 Y3.6747 I0.0393 J0.0148
G3 X4.2893 Y3.6676 I0.0244 J0.0195
G3 X4.2991 Y3.6632 I0.0186 J0.0288
G3 X4.3124 Y3.6618 I0.0115 J0.0435
G3 X4.3251 Y3.6643 I-0.0017 J0.0414
G3 X4.3327 Y3.6687 I-0.0091 J0.0247
G2 X4.3353 Y3.6707 I0.0399 J-0.0481
G3 X4.3418 Y3.6776 I-0.017 J0.0227
G3 X4.3473 Y3.6893 I-0.0342 J0.0231
G3 X4.3489 Y3.7009 I-0.0405 J0.0117
G3 X4.3489 Y3.7022 I-0.0422 J0
G3 X4.347 Y3.712 I-0.0304 J-0.0009
G2 X4.3459 Y3.715 I0.0585 J0.022
G3 X4.3416 Y3.7234 I-0.0268 J-0.0085
G3 X4.3326 Y3.732 I-0.0312 J-0.0235
G3 X4.321 Y3.7376 I-0.0239 J-0.0345
G3 X4.3098 Y3.7392 I-0.0102 J-0.0335
G3 X4.3001 Y3.7377 I0.0006 J-0.0369
G3 X4.2903 Y3.7334 I0.0116 J-0.0397
G3 X4.2819 Y3.7267 I0.0211 J-0.0348
G3 X4.2776 Y3.7212 I0.0252 J-0.0242
G1 Z-0.52 F25
G1 X4.2723 Y3.7082 F25
G3 X4.2718 Y3.7019 I0.0399 J-0.0063
G3 X4.2719 Y3.6994 I0.0404 J0
G3 X4.2747 Y3.6861 I0.0456 J0.0029
G3 X4.2812 Y3.6747 I0.0393 J0.0148
G3 X4.2893 Y3.6676 I0.0244 J0.0195
G3 X4.2991 Y3.6632 I0.0186 J0.0288
G3 X4.3124 Y3.6618 I0.0115 J0.0435
G3 X4.3251 Y3.6643 I-0.0017 J0.0414
G3 X4.3327 Y3.6687 I-0.0091 J0.0247
G2 X4.3353 Y3.6707 I0.0399 J-0.0481
G3 X4.3418 Y3.6776 I-0.017 J0.0227
G3 X4.3473 Y3.6893 I-0.0342 J0.0231
G3 X4.3489 Y3.7009 I-0.0405 J0.0117
G3 X4.3489 Y3.7022 I-0.0422 J0
G3 X4.347 Y3.712 I-0.0304 J-0.0009
G2 X4.3459 Y3.715 I0.0585 J0.022
G3 X4.3416 Y3.7234 I-0.0268 J-0.0085
G3 X4.3326 Y3.732 I-0.0312 J-0.0235
G3 X4.321 Y3.7376 I-0.0239 J-0.0345
G3 X4.3098 Y3.7392 I-0.0102 J-0.0335
G3 X4.3001 Y3.7377 I0.0006 J-0.0369
G3 X4.2903 Y3.7334 I0.0116 J-0.0397
G3 X4.2819 Y3.7267 I0.0211 J-0.0348
G3 X4.2776 Y3.7212 I0.0252 J-0.0242

(profile 8-0)
G0 Z0.25
G0 X4.164 Y3.6997
G1 Z-0.02 F25
G3 X4.1732 Y3.6503 I0.1533 J0.003 F25
G3 X4.1979 Y3.6066 I0.1441 J0.0524
G3 X4.2315 Y3.5772 I0.0998 J0.0804
G2 X4.2336 Y3.5759 I-0.0323 J-0.0535
G3 X4.2558 Y3.5643 I0.0675 J0.1026
G3 X4.2821 Y3.5567 I0.0524 J0.1319
G3 X4.3091 Y3.5541 I0.0281 J0.1509
G3 X4.3368 Y3.5562 I0.0013 J0.167
G3 X4.3634 Y3.564 I-0.0296 J0.1516
G3 X4.3885 Y3.5766 I-0.055 J0.1405
G3 X4.4109 Y3.5939 I-0.0754 J0.1204
G3 X4.4276 Y3.6135 I-0.0843 J0.0888
G2 X4.4295 Y3.6162 I0.0515 J-0.0354
G1 X4.439 Y3.6285
G3 X4.4485 Y3.6522 I-0.1801 J0.086
G3 X4.4549 Y3.6793 I-0.1608 J0.0528
G3 X4.4567 Y3.7022 I-0.1489 J0.0229
G3 X4.4566 Y3.7079 I-0.1507 J0
G3 X4.4531 Y3.7329 I-0.1244 J-0.0047
G2 X4.4527 Y3.7345 I0.0607 J0.0149
G3 X4.4356 Y3.7762 I-0.1279 J-0.028
G3 X4.4024 Y3.8138 I-0.1305 J-0.0821
G3 X4.3588 Y3.8385 I-0.0961 J-0.1182
G3 X4.315 Y3.8463 I-0.0438 J-0.1193
G2 X4.3124 Y3.8464 I0 J0.0625
G3 X4.2692 Y3.8408 I-0.0054 J-0.1285
G3 X4.2256 Y3.8193 I0.0448 J-0.1458
G3 X4.191 Y3.7852 I0.0883 J-0.1241
G3 X4.1717 Y3.7463 I0.1034 J-0.0757
G2 X4.1709 Y3.7439 I-0.0599 J0.0179
G3 X4.164 Y3.7022 I0.1213 J-0.0417
G3 X4.164 Y3.6997 I0.1283 J0
G1 Z-0.04 F25
G3 X4.1732 Y3.6503 I0.1533 J0.003 F25
G3 X4.1979 Y3.6066 I0.1441 J0.0524
G3 X4.2315 Y3.5772 I0.0998 J0.0804
G2 X4.2336 Y3.5759 I-0.0323 J-0.0535
G3 X4.2558 Y3.5643 I0.0675 J0.1026
G3 X4.2821 Y3.5567 I0.0524 J0.1319
G3 X4.3091 Y3.5541 I0.0281 J0.1509
G3 X4.3368 Y3.5562 I0.0013 J0.167
G3 X4.3634 Y3.564 I-0.0296 J0.1516
G3 X4.3885 Y3.5766 I-0.055 J0.1405
G3 X4.4109 Y3.5939 I-0.0754 J0.1204
G3 X4.4276 Y3.6135 I-0.0843 J0.0888
G2 X4.4295 Y3.6162 I0.0515 J-0.0354
G1 X4.439 Y3.6285
G3 X4.4485 Y3.6522 I-0.1801 J0.086
G3 X4.4549 Y3.6793 I-0.1608 J0.0528
G3 X4.4567 Y3.7022 I-0.1489 J0.0229
G3 X4.4566 Y3.7079 I-0.1507 J0
G3 X4.4531 Y3.7329 I-0.1244 J-0.0047
G2 X4.4527 Y3.7345 I0.0607 J0.0149
G3 X4.4356 Y3.7762 I-0.1279 J-0.028
G3 X4.4024 Y3.8138 I-0.1305 J-0.0821
G3 X4.3588 Y3.8385 I-0.0961 J-0.1182
G3 X4.315 Y3.8463 I-0.0438 J-0.1193
G2 X4.3124 Y3.8464 I0 J0.0625
G3 X4.2692 Y3.8408 I-0.0054 J-0.1285
G3 X4.2256 Y3.8193 I0.0448 J-0.1458
G3 X4.191 Y3.7852 I0.0883 J-0.1241
G3 X4.1717 Y3.7463 I0.1034 J-0.0757
G2 X4.1709 Y3.7439 I-0.0599 J0.0179
G3 X4.164 Y3.7022 I0.1213 J-0.0417
G3 X4.164 Y3.6997 I0.1283 J0
G1 Z-0.06 F25
G3 X4.1732 Y3.6503 I0.1533 J0.003 F25
G3 X4.1979 Y3.6066 I0.1441 J0.0524
G3 X4.2315 Y3.5772 I0.0998 J0.0804
G2 X4.2336 Y3.5759 I-0.0323 J-0.0535
G3 X4.2558 Y3.5643 I0.0675 J0.1026
G3 X4.2821 Y3.5567 I0.0524 J0.1319
G3 X4.3091 Y3.5541 I0.0281 J0.1509
G3 X4.3368 Y3.5562 I0.0013 J0.167
G3 X4.3634 Y3.564 I-0.0296 J0.1516
G3 X4.3885 Y3.5766 I-0.055 J0.1405
G3 X4.4109 Y3.5939 I-0.0754 J0.1204
G3 X4.4276 Y3.6135 I-0.0843 J0.0888
G2 X4.4295 Y3.6162 I0.0515 J-0.0354
G1 X4.439 Y3.6285
G3 X4.4485 Y3.6522 I-0.1801 J0.086
G3 X4.4549 Y3.6793 I-0.1608 J0.0528
G3 X4.4567 Y3.7022 I-0.1489 J0.0229
G3 X4.4566 Y3.7079 I-0.1507 J0
G3 X4.4531 Y3.7329 I-0.1244 J-0.0047
G2 X4.4527 Y3.7345 I0.0607 J0.0149
G3 X4.4356 Y3.7762 I-0.1279 J-0.028
G3 X4.4024 Y3.8138 I-0.1305 J-0.0821
G3 X4.3588 Y3.8385 I-0.0961 J-0.1182
G3 X4.315 Y3.8463 I-0.0438 J-0.1193
G2 X4.3124 Y3.8464 I0 J0.0625
G3 X4.2692 Y3.8408 I-0.0054 J-0.1285
G3 X4.2256 Y3.8193 I0.0448 J-0.1458
G3 X4.191 Y3.7852 I0.0883 J-0.1241
G3 X4.1717 Y3.7463 I0.1034 J-0.0757
G2 X4.1709 Y3.7439 I-0.0599 J0.0179
G3 X4.164 Y3.7022 I0.1213 J-0.0417
G3 X4.164 Y3.6997 I0.1283 J0
G1 Z-0.08 F25
G3 X4.1732 Y3.6503 I0.1533 J0.003 F25
G3 X4.1979 Y3.6066 I0.1441 J0.0524
G3 X4.2315 Y3.5772 I0.0998 J0.0804
G2 X4.2336 Y3.5759 I-0.0323 J-0.0535
G3 X4.2558 Y3.5643 I0.0675 J0.1026
G3 X4.2821 Y3.5567 I0.0524 J0.1319
G3 X4.3091 Y3.5541 I0.0281 J0.1509
G3 X4.3368 Y3.5562 I0.0013 J0.167
G3 X4.3634 Y3.564 I-0.0296 J0.1516
G3 X4.3885 Y3.5766 I-0.055 J0.1405
G3 X4.4109 Y3.5939 I-0.0754 J0.1204
G3 X4.4276 Y3.6135 I-0.0843 J0.0888
