(Generated by PartKam Version 0.05)

G20 G90 G40

(drill 1-0)
G0 Z0.25
T0 M6
G17
M3
G0 X4.1685 Y0.8484
G1 Z-0.05 F25
G1 Z0 F25
G1 Z-0.1 F25
G1 Z0 F25
G1 Z-0.15 F25
G1 Z0 F25
G1 Z-0.2 F25
G1 Z0 F25
G1 Z-0.25 F25
G1 Z0 F25
G1 Z-0.3 F25
G1 Z0 F25
G1 Z-0.35 F25
G1 Z0 F25
G1 Z-0.4 F25
G1 Z0 F25
G1 Z-0.45 F25
G1 Z0 F25
G1 Z-0.5 F25
G1 Z0 F25
G1 Z-0.52 F25
G1 Z0 F25

(drill 1-1)
G0 Z0.25
G0 X6.7816 Y0.849
G1 Z-0.05 F25
G1 Z0 F25
G1 Z-0.1 F25
G1 Z0 F25
G1 Z-0.15 F25
G1 Z0 F25
G1 Z-0.2 F25
G1 Z0 F25
G1 Z-0.25 F25
G1 Z0 F25
G1 Z-0.3 F25
G1 Z0 F25
G1 Z-0.35 F25
G1 Z0 F25
G1 Z-0.4 F25
G1 Z0 F25
G1 Z-0.45 F25
G1 Z0 F25
G1 Z-0.5 F25
G1 Z0 F25
G1 Z-0.52 F25
G1 Z0 F25

(drill 1-2)
G0 Z0.25
G0 X5.4829 Y0.8493
G1 Z-0.05 F25
G1 Z0 F25
G1 Z-0.1 F25
G1 Z0 F25
G1 Z-0.15 F25
G1 Z0 F25
G1 Z-0.2 F25
G1 Z0 F25
G1 Z-0.25 F25
G1 Z0 F25
G1 Z-0.3 F25
G1 Z0 F25
G1 Z-0.35 F25
G1 Z0 F25
G1 Z-0.4 F25
G1 Z0 F25
G1 Z-0.45 F25
G1 Z0 F25
G1 Z-0.5 F25
G1 Z0 F25
G1 Z-0.52 F25
G1 Z0 F25

(profile 4-0)
G0 Z0.25
G0 X6.3038 Y1.9851
G1 Z-0.025 F25
G1 X6.3021 Y1.9978 F25
G3 X6.2997 Y2.0035 I-0.029 J-0.0089
G3 X6.2937 Y2.0118 I-0.034 J-0.0187
G3 X6.2855 Y2.0184 I-0.0302 J-0.029
G3 X6.2777 Y2.0221 I-0.0208 J-0.0337
G3 X6.2677 Y2.0229 I-0.0081 J-0.038
G3 X6.2557 Y2.0206 I0.002 J-0.0419
G3 X6.2458 Y2.0151 I0.012 J-0.0339
G3 X6.2403 Y2.0092 I0.0147 J-0.0191
G2 X6.2383 Y2.0062 I-0.0524 J0.034
G3 X6.2344 Y1.9986 I0.0207 J-0.0151
G3 X6.2328 Y1.9876 I0.036 J-0.011
G1 X6.2328 Y1.987
G3 X6.2348 Y1.9755 I0.0375 J0.0006
G3 X6.2388 Y1.968 I0.0241 J0.0082
G2 X6.241 Y1.9651 I-0.0492 J-0.0385
G3 X6.2467 Y1.9592 I0.0201 J0.0139
G3 X6.2571 Y1.954 I0.0214 J0.0298
G3 X6.2691 Y1.9522 I0.012 J0.0379
G3 X6.2789 Y1.9538 I0 J0.0315
G1 X6.2797 Y1.954
G3 X6.288 Y1.9582 I-0.0086 J0.0274
G3 X6.2965 Y1.9667 I-0.0228 J0.0312
G3 X6.3022 Y1.9778 I-0.0335 J0.0243
G3 X6.3038 Y1.9851 I-0.0336 J0.0113
G1 Z-0.05 F25
G1 X6.3021 Y1.9978 F25
G3 X6.2997 Y2.0035 I-0.029 J-0.0089
G3 X6.2937 Y2.0118 I-0.034 J-0.0187
G3 X6.2855 Y2.0184 I-0.0302 J-0.029
G3 X6.2777 Y2.0221 I-0.0208 J-0.0337
G3 X6.2677 Y2.0229 I-0.0081 J-0.038
G3 X6.2557 Y2.0206 I0.002 J-0.0419
G3 X6.2458 Y2.0151 I0.012 J-0.0339
G3 X6.2403 Y2.0092 I0.0147 J-0.0191
G2 X6.2383 Y2.0062 I-0.0524 J0.034
G3 X6.2344 Y1.9986 I0.0207 J-0.0151
G3 X6.2328 Y1.9876 I0.036 J-0.011
G1 X6.2328 Y1.987
G3 X6.2348 Y1.9755 I0.0375 J0.0006
G3 X6.2388 Y1.968 I0.0241 J0.0082
G2 X6.241 Y1.9651 I-0.0492 J-0.0385
G3 X6.2467 Y1.9592 I0.0201 J0.0139
G3 X6.2571 Y1.954 I0.0214 J0.0298
G3 X6.2691 Y1.9522 I0.012 J0.0379
G3 X6.2789 Y1.9538 I0 J0.0315
G1 X6.2797 Y1.954
G3 X6.288 Y1.9582 I-0.0086 J0.0274
G3 X6.2965 Y1.9667 I-0.0228 J0.0312
G3 X6.3022 Y1.9778 I-0.0335 J0.0243
G3 X6.3038 Y1.9851 I-0.0336 J0.0113
G1 Z-0.075 F25
G1 X6.3021 Y1.9978 F25
G3 X6.2997 Y2.0035 I-0.029 J-0.0089
G3 X6.2937 Y2.0118 I-0.034 J-0.0187
G3 X6.2855 Y2.0184 I-0.0302 J-0.029
G3 X6.2777 Y2.0221 I-0.0208 J-0.0337
G3 X6.2677 Y2.0229 I-0.0081 J-0.038
G3 X6.2557 Y2.0206 I0.002 J-0.0419
G3 X6.2458 Y2.0151 I0.012 J-0.0339
G3 X6.2403 Y2.0092 I0.0147 J-0.0191
G2 X6.2383 Y2.0062 I-0.0524 J0.034
G3 X6.2344 Y1.9986 I0.0207 J-0.0151
G3 X6.2328 Y1.9876 I0.036 J-0.011
G1 X6.2328 Y1.987
G3 X6.2348 Y1.9755 I0.0375 J0.0006
G3 X6.2388 Y1.968 I0.0241 J0.0082
G2 X6.241 Y1.9651 I-0.0492 J-0.0385
G3 X6.2467 Y1.9592 I0.0201 J0.0139
G3 X6.2571 Y1.954 I0.0214 J0.0298
G3 X6.2691 Y1.9522 I0.012 J0.0379
G3 X6.2789 Y1.9538 I0 J0.0315
G1 X6.2797 Y1.954
G3 X6.288 Y1.9582 I-0.0086 J0.0274
G3 X6.2965 Y1.9667 I-0.0228 J0.0312
G3 X6.3022 Y1.9778 I-0.0335 J0.0243
G3 X6.3038 Y1.9851 I-0.0336 J0.0113
G1 Z-0.1 F25
G1 X6.3021 Y1.9978 F25
G3 X6.2997 Y2.0035 I-0.029 J-0.0089
G3 X6.2937 Y2.0118 I-0.034 J-0.0187
G3 X6.2855 Y2.0184 I-0.0302 J-0.029
G3 X6.2777 Y2.0221 I-0.0208 J-0.0337
G3 X6.2677 Y2.0229 I-0.0081 J-0.038
G3 X6.2557 Y2.0206 I0.002 J-0.0419
G3 X6.2458 Y2.0151 I0.012 J-0.0339
G3 X6.2403 Y2.0092 I0.0147 J-0.0191
G2 X6.2383 Y2.0062 I-0.0524 J0.034
G3 X6.2344 Y1.9986 I0.0207 J-0.0151
G3 X6.2328 Y1.9876 I0.036 J-0.011
G1 X6.2328 Y1.987
G3 X6.2348 Y1.9755 I0.0375 J0.0006
G3 X6.2388 Y1.968 I0.0241 J0.0082
G2 X6.241 Y1.9651 I-0.0492 J-0.0385
G3 X6.2467 Y1.9592 I0.0201 J0.0139
G3 X6.2571 Y1.954 I0.0214 J0.0298
G3 X6.2691 Y1.9522 I0.012 J0.0379
G3 X6.2789 Y1.9538 I0 J0.0315
G1 X6.2797 Y1.954
G3 X6.288 Y1.9582 I-0.0086 J0.0274
G3 X6.2965 Y1.9667 I-0.0228 J0.0312
G3 X6.3022 Y1.9778 I-0.0335 J0.0243
G3 X6.3038 Y1.9851 I-0.0336 J0.0113
G1 Z-0.125 F25
G1 X6.3021 Y1.9978 F25
G3 X6.2997 Y2.0035 I-0.029 J-0.0089
G3 X6.2937 Y2.0118 I-0.034 J-0.0187
G3 X6.2855 Y2.0184 I-0.0302 J-0.029
G3 X6.2777 Y2.0221 I-0.0208 J-0.0337
G3 X6.2677 Y2.0229 I-0.0081 J-0.038
G3 X6.2557 Y2.0206 I0.002 J-0.0419
G3 X6.2458 Y2.0151 I0.012 J-0.0339
G3 X6.2403 Y2.0092 I0.0147 J-0.0191
G2 X6.2383 Y2.0062 I-0.0524 J0.034
G3 X6.2344 Y1.9986 I0.0207 J-0.0151
G3 X6.2328 Y1.9876 I0.036 J-0.011
G1 X6.2328 Y1.987
G3 X6.2348 Y1.9755 I0.0375 J0.0006
G3 X6.2388 Y1.968 I0.0241 J0.0082
G2 X6.241 Y1.9651 I-0.0492 J-0.0385
G3 X6.2467 Y1.9592 I0.0201 J0.0139
G3 X6.2571 Y1.954 I0.0214 J0.0298
G3 X6.2691 Y1.9522 I0.012 J0.0379
G3 X6.2789 Y1.9538 I0 J0.0315
G1 X6.2797 Y1.954
G3 X6.288 Y1.9582 I-0.0086 J0.0274
G3 X6.2965 Y1.9667 I-0.0228 J0.0312
G3 X6.3022 Y1.9778 I-0.0335 J0.0243
G3 X6.3038 Y1.9851 I-0.0336 J0.0113
G1 Z-0.15 F25
G1 X6.3021 Y1.9978 F25
G3 X6.2997 Y2.0035 I-0.029 J-0.0089
G3 X6.2937 Y2.0118 I-0.034 J-0.0187
G3 X6.2855 Y2.0184 I-0.0302 J-0.029
G3 X6.2777 Y2.0221 I-0.0208 J-0.0337
G3 X6.2677 Y2.0229 I-0.0081 J-0.038
G3 X6.2557 Y2.0206 I0.002 J-0.0419
G3 X6.2458 Y2.0151 I0.012 J-0.0339
G3 X6.2403 Y2.0092 I0.0147 J-0.0191
G2 X6.2383 Y2.0062 I-0.0524 J0.034
G3 X6.2344 Y1.9986 I0.0207 J-0.0151
G3 X6.2328 Y1.9876 I0.036 J-0.011
G1 X6.2328 Y1.987
G3 X6.2348 Y1.9755 I0.0375 J0.0006
G3 X6.2388 Y1.968 I0.0241 J0.0082
G2 X6.241 Y1.9651 I-0.0492 J-0.0385
G3 X6.2467 Y1.9592 I0.0201 J0.0139
G3 X6.2571 Y1.954 I0.0214 J0.0298
G3 X6.2691 Y1.9522 I0.012 J0.0379
G3 X6.2789 Y1.9538 I0 J0.0315
G1 X6.2797 Y1.954
G3 X6.288 Y1.9582 I-0.0086 J0.0274
G3 X6.2965 Y1.9667 I-0.0228 J0.0312
G3 X6.3022 Y1.9778 I-0.0335 J0.0243
G3 X6.3038 Y1.9851 I-0.0336 J0.0113
G1 Z-0.175 F25
G1 X6.3021 Y1.9978 F25
G3 X6.2997 Y2.0035 I-0.029 J-0.0089
G3 X6.2937 Y2.0118 I-0.034 J-0.0187
G3 X6.2855 Y2.0184 I-0.0302 J-0.029
G3 X6.2777 Y2.0221 I-0.0208 J-0.0337
G3 X6.2677 Y2.0229 I-0.0081 J-0.038
G3 X6.2557 Y2.0206 I0.002 J-0.0419
G3 X6.2458 Y2.0151 I0.012 J-0.0339
G3 X6.2403 Y2.0092 I0.0147 J-0.0191
G2 X6.2383 Y2.0062 I-0.0524 J0.034
G3 X6.2344 Y1.9986 I0.0207 J-0.0151
G3 X6.2328 Y1.9876 I0.036 J-0.011
G1 X6.2328 Y1.987
G3 X6.2348 Y1.9755 I0.0375 J0.0006
G3 X6.2388 Y1.968 I0.0241 J0.0082
G2 X6.241 Y1.9651 I-0.0492 J-0.0385
G3 X6.2467 Y1.9592 I0.0201 J0.0139
G3 X6.2571 Y1.954 I0.0214 J0.0298
G3 X6.2691 Y1.9522 I0.012 J0.0379
G3 X6.2789 Y1.9538 I0 J0.0315
G1 X6.2797 Y1.954
G3 X6.288 Y1.9582 I-0.0086 J0.0274
G3 X6.2965 Y1.9667 I-0.0228 J0.0312
G3 X6.3022 Y1.9778 I-0.0335 J0.0243
G3 X6.3038 Y1.9851 I-0.0336 J0.0113
G1 Z-0.2 F25
G1 X6.3021 Y1.9978 F25
G3 X6.2997 Y2.0035 I-0.029 J-0.0089
G3 X6.2937 Y2.0118 I-0.034 J-0.0187
G3 X6.2855 Y2.0184 I-0.0302 J-0.029
G3 X6.2777 Y2.0221 I-0.0208 J-0.0337
G3 X6.2677 Y2.0229 I-0.0081 J-0.038
G3 X6.2557 Y2.0206 I0.002 J-0.0419
G3 X6.2458 Y2.0151 I0.012 J-0.0339
G3 X6.2403 Y2.0092 I0.0147 J-0.0191
G2 X6.2383 Y2.0062 I-0.0524 J0.034
G3 X6.2344 Y1.9986 I0.0207 J-0.0151
G3 X6.2328 Y1.9876 I0.036 J-0.011
G1 X6.2328 Y1.987
G3 X6.2348 Y1.9755 I0.0375 J0.0006
G3 X6.2388 Y1.968 I0.0241 J0.0082
G2 X6.241 Y1.9651 I-0.0492 J-0.0385
G3 X6.2467 Y1.9592 I0.0201 J0.0139
G3 X6.2571 Y1.954 I0.0214 J0.0298
G3 X6.2691 Y1.9522 I0.012 J0.0379
G3 X6.2789 Y1.9538 I0 J0.0315
G1 X6.2797 Y1.954
G3 X6.288 Y1.9582 I-0.0086 J0.0274
G3 X6.2965 Y1.9667 I-0.0228 J0.0312
G3 X6.3022 Y1.9778 I-0.0335 J0.0243
G3 X6.3038 Y1.9851 I-0.0336 J0.0113
G1 Z-0.225 F25
G1 X6.3021 Y1.9978 F25
G3 X6.2997 Y2.0035 I-0.029 J-0.0089
G3 X6.2937 Y2.0118 I-0.034 J-0.0187
G3 X6.2855 Y2.0184 I-0.0302 J-0.029
G3 X6.2777 Y2.0221 I-0.0208 J-0.0337
G3 X6.2677 Y2.0229 I-0.0081 J-0.038
G3 X6.2557 Y2.0206 I0.002 J-0.0419
G3 X6.2458 Y2.0151 I0.012 J-0.0339
G3 X6.2403 Y2.0092 I0.0147 J-0.0191
G2 X6.2383 Y2.0062 I-0.0524 J0.034
G3 X6.2344 Y1.9986 I0.0207 J-0.0151
G3 X6.2328 Y1.9876 I0.036 J-0.011
G1 X6.2328 Y1.987
G3 X6.2348 Y1.9755 I0.0375 J0.0006
G3 X6.2388 Y1.968 I0.0241 J0.0082
G2 X6.241 Y1.9651 I-0.0492 J-0.0385
G3 X6.2467 Y1.9592 I0.0201 J0.0139
G3 X6.2571 Y1.954 I0.0214 J0.0298
G3 X6.2691 Y1.9522 I0.012 J0.0379
G3 X6.2789 Y1.9538 I0 J0.0315
G1 X6.2797 Y1.954
G3 X6.288 Y1.9582 I-0.0086 J0.0274
G3 X6.2965 Y1.9667 I-0.0228 J0.0312
G3 X6.3022 Y1.9778 I-0.0335 J0.0243
G3 X6.3038 Y1.9851 I-0.0336 J0.0113
G1 Z-0.25 F25
G1 X6.3021 Y1.9978 F25
G3 X6.2997 Y2.0035 I-0.029 J-0.0089
G3 X6.2937 Y2.0118 I-0.034 J-0.0187
G3 X6.2855 Y2.0184 I-0.0302 J-0.029
G3 X6.2777 Y2.0221 I-0.0208 J-0.0337
G3 X6.2677 Y2.0229 I-0.0081 J-0.038
G3 X6.2557 Y2.0206 I0.002 J-0.0419
G3 X6.2458 Y2.0151 I0.012 J-0.0339
G3 X6.2403 Y2.0092 I0.0147 J-0.0191
G2 X6.2383 Y2.0062 I-0.0524 J0.034
G3 X6.2344 Y1.9986 I0.0207 J-0.0151
G3 X6.2328 Y1.9876 I0.036 J-0.011
G1 X6.2328 Y1.987
G3 X6.2348 Y1.9755 I0.0375 J0.0006
G3 X6.2388 Y1.968 I0.0241 J0.0082
G2 X6.241 Y1.9651 I-0.0492 J-0.0385
G3 X6.2467 Y1.9592 I0.0201 J0.0139
G3 X6.2571 Y1.954 I0.0214 J0.0298
G3 X6.2691 Y1.9522 I0.012 J0.0379
G3 X6.2789 Y1.9538 I0 J0.0315
G1 X6.2797 Y1.954
G3 X6.288 Y1.9582 I-0.0086 J0.0274
G3 X6.2965 Y1.9667 I-0.0228 J0.0312
G3 X6.3022 Y1.9778 I-0.0335 J0.0243
G3 X6.3038 Y1.9851 I-0.0336 J0.0113
G1 Z-0.275 F25
G1 X6.3021 Y1.9978 F25
G3 X6.2997 Y2.0035 I-0.029 J-0.0089
G3 X6.2937 Y2.0118 I-0.034 J-0.0187
G3 X6.2855 Y2.0184 I-0.0302 J-0.029
G3 X6.2777 Y2.0221 I-0.0208 J-0.0337
G3 X6.2677 Y2.0229 I-0.0081 J-0.038
G3 X6.2557 Y2.0206 I0.002 J-0.0419
G3 X6.2458 Y2.0151 I0.012 J-0.0339
G3 X6.2403 Y2.0092 I0.0147 J-0.0191
G2 X6.2383 Y2.0062 I-0.0524 J0.034
G3 X6.2344 Y1.9986 I0.0207 J-0.0151
G3 X6.2328 Y1.9876 I0.036 J-0.011
G1 X6.2328 Y1.987
G3 X6.2348 Y1.9755 I0.0375 J0.0006
G3 X6.2388 Y1.968 I0.0241 J0.0082
G2 X6.241 Y1.9651 I-0.0492 J-0.0385
G3 X6.2467 Y1.9592 I0.0201 J0.0139
G3 X6.2571 Y1.954 I0.0214 J0.0298
G3 X6.2691 Y1.9522 I0.012 J0.0379
G3 X6.2789 Y1.9538 I0 J0.0315
G1 X6.2797 Y1.954
G3 X6.288 Y1.9582 I-0.0086 J0.0274
G3 X6.2965 Y1.9667 I-0.0228 J0.0312
G3 X6.3022 Y1.9778 I-0.0335 J0.0243
G3 X6.3038 Y1.9851 I-0.0336 J0.0113
G1 Z-0.3 F25
G1 X6.3021 Y1.9978 F25
G3 X6.2997 Y2.0035 I-0.029 J-0.0089
G3 X6.2937 Y2.0118 I-0.034 J-0.0187
G3 X6.2855 Y2.0184 I-0.0302 J-0.029
G3 X6.2777 Y2.0221 I-0.0208 J-0.0337
G3 X6.2677 Y2.0229 I-0.0081 J-0.038
G3 X6.2557 Y2.0206 I0.002 J-0.0419
G3 X6.2458 Y2.0151 I0.012 J-0.0339
G3 X6.2403 Y2.0092 I0.0147 J-0.0191
G2 X6.2383 Y2.0062 I-0.0524 J0.034
G3 X6.2344 Y1.9986 I0.0207 J-0.0151
G3 X6.2328 Y1.9876 I0.036 J-0.011
G1 X6.2328 Y1.987
G3 X6.2348 Y1.9755 I0.0375 J0.0006
G3 X6.2388 Y1.968 I0.0241 J0.0082
G2 X6.241 Y1.9651 I-0.0492 J-0.0385
G3 X6.2467 Y1.9592 I0.0201 J0.0139
G3 X6.2571 Y1.954 I0.0214 J0.0298
G3 X6.2691 Y1.9522 I0.012 J0.0379
G3 X6.2789 Y1.9538 I0 J0.0315
G1 X6.2797 Y1.954
G3 X6.288 Y1.9582 I-0.0086 J0.0274
G3 X6.2965 Y1.9667 I-0.0228 J0.0312
G3 X6.3022 Y1.9778 I-0.0335 J0.0243
G3 X6.3038 Y1.9851 I-0.0336 J0.0113
G1 Z-0.325 F25
G1 X6.3021 Y1.9978 F25
G3 X6.2997 Y2.0035 I-0.029 J-0.0089
G3 X6.2937 Y2.0118 I-0.034 J-0.0187
G3 X6.2855 Y2.0184 I-0.0302 J-0.029
G3 X6.2777 Y2.0221 I-0.0208 J-0.0337
G3 X6.2677 Y2.0229 I-0.0081 J-0.038
G3 X6.2557 Y2.0206 I0.002 J-0.0419
G3 X6.2458 Y2.0151 I0.012 J-0.0339
G3 X6.2403 Y2.0092 I0.0147 J-0.0191
G2 X6.2383 Y2.0062 I-0.0524 J0.034
G3 X6.2344 Y1.9986 I0.0207 J-0.0151
G3 X6.2328 Y1.9876 I0.036 J-0.011
G1 X6.2328 Y1.987
G3 X6.2348 Y1.9755 I0.0375 J0.0006
G3 X6.2388 Y1.968 I0.0241 J0.0082
G2 X6.241 Y1.9651 I-0.0492 J-0.0385
G3 X6.2467 Y1.9592 I0.0201 J0.0139
G3 X6.2571 Y1.954 I0.0214 J0.0298
G3 X6.2691 Y1.9522 I0.012 J0.0379
G3 X6.2789 Y1.9538 I0 J0.0315
G1 X6.2797 Y1.954
G3 X6.288 Y1.9582 I-0.0086 J0.0274
G3 X6.2965 Y1.9667 I-0.0228 J0.0312
G3 X6.3022 Y1.9778 I-0.0335 J0.0243
G3 X6.3038 Y1.9851 I-0.0336 J0.0113
G1 Z-0.35 F25
G1 X6.3021 Y1.9978 F25
G3 X6.2997 Y2.0035 I-0.029 J-0.0089
G3 X6.2937 Y2.0118 I-0.034 J-0.0187
G3 X6.2855 Y2.0184 I-0.0302 J-0.029
G3 X6.2777 Y2.0221 I-0.0208 J-0.0337
G3 X6.2677 Y2.0229 I-0.0081 J-0.038
G3 X6.2557 Y2.0206 I0.002 J-0.0419
G3 X6.2458 Y2.0151 I0.012 J-0.0339
G3 X6.2403 Y2.0092 I0.0147 J-0.0191
G2 X6.2383 Y2.0062 I-0.0524 J0.034
G3 X6.2344 Y1.9986 I0.0207 J-0.0151
G3 X6.2328 Y1.9876 I0.036 J-0.011
G1 X6.2328 Y1.987
G3 X6.2348 Y1.9755 I0.0375 J0.0006
G3 X6.2388 Y1.968 I0.0241 J0.0082
G2 X6.241 Y1.9651 I-0.0492 J-0.0385
G3 X6.2467 Y1.9592 I0.0201 J0.0139
G3 X6.2571 Y1.954 I0.0214 J0.0298
G3 X6.2691 Y1.9522 I0.012 J0.0379
G3 X6.2789 Y1.9538 I0 J0.0315
G1 X6.2797 Y1.954
G3 X6.288 Y1.9582 I-0.0086 J0.0274
G3 X6.2965 Y1.9667 I-0.0228 J0.0312
G3 X6.3022 Y1.9778 I-0.0335 J0.0243
G3 X6.3038 Y1.9851 I-0.0336 J0.0113
G1 Z-0.375 F25
G1 X6.3021 Y1.9978 F25
G3 X6.2997 Y2.0035 I-0.029 J-0.0089
G3 X6.2937 Y2.0118 I-0.034 J-0.0187
G3 X6.2855 Y2.0184 I-0.0302 J-0.029
G3 X6.2777 Y2.0221 I-0.0208 J-0.0337
G3 X6.2677 Y2.0229 I-0.0081 J-0.038
G3 X6.2557 Y2.0206 I0.002 J-0.0419
G3 X6.2458 Y2.0151 I0.012 J-0.0339
G3 X6.2403 Y2.0092 I0.0147 J-0.0191
G2 X6.2383 Y2.0062 I-0.0524 J0.034
G3 X6.2344 Y1.9986 I0.0207 J-0.0151
G3 X6.2328 Y1.9876 I0.036 J-0.011
G1 X6.2328 Y1.987
G3 X6.2348 Y1.9755 I0.0375 J0.0006
G3 X6.2388 Y1.968 I0.0241 J0.0082
G2 X6.241 Y1.9651 I-0.0492 J-0.0385
G3 X6.2467 Y1.9592 I0.0201 J0.0139
G3 X6.2571 Y1.954 I0.0214 J0.0298
G3 X6.2691 Y1.9522 I0.012 J0.0379
G3 X6.2789 Y1.9538 I0 J0.0315
G1 X6.2797 Y1.954
G3 X6.288 Y1.9582 I-0.0086 J0.0274
G3 X6.2965 Y1.9667 I-0.0228 J0.0312
G3 X6.3022 Y1.9778 I-0.0335 J0.0243
G3 X6.3038 Y1.9851 I-0.0336 J0.0113
G1 Z-0.4 F25
G1 X6.3021 Y1.9978 F25
G3 X6.2997 Y2.0035 I-0.029 J-0.0089
G3 X6.2937 Y2.0118 I-0.034 J-0.0187
G3 X6.2855 Y2.0184 I-0.0302 J-0.029
G3 X6.2777 Y2.0221 I-0.0208 J-0.0337
G3 X6.2677 Y2.0229 I-0.0081 J-0.038
G3 X6.2557 Y2.0206 I0.002 J-0.0419
G3 X6.2458 Y2.0151 I0.012 J-0.0339
G3 X6.2403 Y2.0092 I0.0147 J-0.0191
G2 X6.2383 Y2.0062 I-0.0524 J0.034
G3 X6.2344 Y1.9986 I0.0207 J-0.0151
G3 X6.2328 Y1.9876 I0.036 J-0.011
G1 X6.2328 Y1.987
G3 X6.2348 Y1.9755 I0.0375 J0.0006
G3 X6.2388 Y1.968 I0.0241 J0.0082
G2 X6.241 Y1.9651 I-0.0492 J-0.0385
G3 X6.2467 Y1.9592 I0.0201 J0.0139
G3 X6.2571 Y1.954 I0.0214 J0.0298
G3 X6.2691 Y1.9522 I0.012 J0.0379
G3 X6.2789 Y1.9538 I0 J0.0315
G1 X6.2797 Y1.954
G3 X6.288 Y1.9582 I-0.0086 J0.0274
G3 X6.2965 Y1.9667 I-0.0228 J0.0312
G3 X6.3022 Y1.9778 I-0.0335 J0.0243
G3 X6.3038 Y1.9851 I-0.0336 J0.0113
G1 Z-0.425 F25
G1 X6.3021 Y1.9978 F25
G3 X6.2997 Y2.0035 I-0.029 J-0.0089
G3 X6.2937 Y2.0118 I-0.034 J-0.0187
G3 X6.2855 Y2.0184 I-0.0302 J-0.029
G3 X6.2777 Y2.0221 I-0.0208 J-0.0337
G3 X6.2677 Y2.0229 I-0.0081 J-0.038
G3 X6.2557 Y2.0206 I0.002 J-0.0419
G3 X6.2458 Y2.0151 I0.012 J-0.0339
G3 X6.2403 Y2.0092 I0.0147 J-0.0191
G2 X6.2383 Y2.0062 I-0.0524 J0.034
G3 X6.2344 Y1.9986 I0.0207 J-0.0151
G3 X6.2328 Y1.9876 I0.036 J-0.011
G1 X6.2328 Y1.987
G3 X6.2348 Y1.9755 I0.0375 J0.0006
G3 X6.2388 Y1.968 I0.0241 J0.0082
G2 X6.241 Y1.9651 I-0.0492 J-0.0385
G3 X6.2467 Y1.9592 I0.0201 J0.0139
G3 X6.2571 Y1.954 I0.0214 J0.0298
G3 X6.2691 Y1.9522 I0.012 J0.0379
G3 X6.2789 Y1.9538 I0 J0.0315
G1 X6.2797 Y1.954
G3 X6.288 Y1.9582 I-0.0086 J0.0274
G3 X6.2965 Y1.9667 I-0.0228 J0.0312
G3 X6.3022 Y1.9778 I-0.0335 J0.0243
G3 X6.3038 Y1.9851 I-0.0336 J0.0113
G1 Z-0.45 F25
G1 X6.3021 Y1.9978 F25
G3 X6.2997 Y2.0035 I-0.029 J-0.0089
G3 X6.2937 Y2.0118 I-0.034 J-0.0187
G3 X6.2855 Y2.0184 I-0.0302 J-0.029
G3 X6.2777 Y2.0221 I-0.0208 J-0.0337
G3 X6.2677 Y2.0229 I-0.0081 J-0.038
G3 X6.2557 Y2.0206 I0.002 J-0.0419
G3 X6.2458 Y2.0151 I0.012 J-0.0339
G3 X6.2403 Y2.0092 I0.0147 J-0.0191
G2 X6.2383 Y2.0062 I-0.0524 J0.034
G3 X6.2344 Y1.9986 I0.0207 J-0.0151
G3 X6.2328 Y1.9876 I0.036 J-0.011
G1 X6.2328 Y1.987
G3 X6.2348 Y1.9755 I0.0375 J0.0006
G3 X6.2388 Y1.968 I0.0241 J0.0082
G2 X6.241 Y1.9651 I-0.0492 J-0.0385
G3 X6.2467 Y1.9592 I0.0201 J0.0139
G3 X6.2571 Y1.954 I0.0214 J0.0298
G3 X6.2691 Y1.9522 I0.012 J0.0379
G3 X6.2789 Y1.9538 I0 J0.0315
G1 X6.2797 Y1.954
G3 X6.288 Y1.9582 I-0.0086 J0.0274
G3 X6.2965 Y1.9667 I-0.0228 J0.0312
G3 X6.3022 Y1.9778 I-0.0335 J0.0243
G3 X6.3038 Y1.9851 I-0.0336 J0.0113
G1 Z-0.475 F25
G1 X6.3021 Y1.9978 F25
G3 X6.2997 Y2.0035 I-0.029 J-0.0089
G3 X6.2937 Y2.0118 I-0.034 J-0.0187
G3 X6.2855 Y2.0184 I-0.0302 J-0.029
G3 X6.2777 Y2.0221 I-0.0208 J-0.0337
G3 X6.2677 Y2.0229 I-0.0081 J-0.038
G3 X6.2557 Y2.0206 I0.002 J-0.0419
G3 X6.2458 Y2.0151 I0.012 J-0.0339
G3 X6.2403 Y2.0092 I0.0147 J-0.0191
G2 X6.2383 Y2.0062 I-0.0524 J0.034
G3 X6.2344 Y1.9986 I0.0207 J-0.0151
G3 X6.2328 Y1.9876 I0.036 J-0.011
G1 X6.2328 Y1.987
G3 X6.2348 Y1.9755 I0.0375 J0.0006
G3 X6.2388 Y1.968 I0.0241 J0.0082
G2 X6.241 Y1.9651 I-0.0492 J-0.0385
G3 X6.2467 Y1.9592 I0.0201 J0.0139
G3 X6.2571 Y1.954 I0.0214 J0.0298
G3 X6.2691 Y1.9522 I0.012 J0.0379
G3 X6.2789 Y1.9538 I0 J0.0315
G1 X6.2797 Y1.954
G3 X6.288 Y1.9582 I-0.0086 J0.0274
G3 X6.2965 Y1.9667 I-0.0228 J0.0312
G3 X6.3022 Y1.9778 I-0.0335 J0.0243
G3 X6.3038 Y1.9851 I-0.0336 J0.0113
G1 Z-0.5 F25
G1 X6.3021 Y1.9978 F25
G3 X6.2997 Y2.0035 I-0.029 J-0.0089
G3 X6.2937 Y2.0118 I-0.034 J-0.0187
G3 X6.2855 Y2.0184 I-0.0302 J-0.029
G3 X6.2777 Y2.0221 I-0.0208 J-0.0337
G3 X6.2677 Y2.0229 I-0.0081 J-0.038
G3 X6.2557 Y2.0206 I0.002 J-0.0419
G3 X6.2458 Y2.0151 I0.012 J-0.0339
G3 X6.2403 Y2.0092 I0.0147 J-0.0191
G2 X6.2383 Y2.0062 I-0.0524 J0.034
G3 X6.2344 Y1.9986 I0.0207 J-0.0151
G3 X6.2328 Y1.9876 I0.036 J-0.011
G1 X6.2328 Y1.987
G3 X6.2348 Y1.9755 I0.0375 J0.0006
G3 X6.2388 Y1.968 I0.0241 J0.0082
G2 X6.241 Y1.9651 I-0.0492 J-0.0385
G3 X6.2467 Y1.9592 I0.0201 J0.0139
G3 X6.2571 Y1.954 I0.0214 J0.0298
G3 X6.2691 Y1.9522 I0.012 J0.0379
G3 X6.2789 Y1.9538 I0 J0.0315
G1 X6.2797 Y1.954
G3 X6.288 Y1.9582 I-0.0086 J0.0274
G3 X6.2965 Y1.9667 I-0.0228 J0.0312
G3 X6.3022 Y1.9778 I-0.0335 J0.0243
G3 X6.3038 Y1.9851 I-0.0336 J0.0113
G1 Z-0.52 F25
G1 X6.3021 Y1.9978 F25
G3 X6.2997 Y2.0035 I-0.029 J-0.0089
G3 X6.2937 Y2.0118 I-0.034 J-0.0187
G3 X6.2855 Y2.0184 I-0.0302 J-0.029
G3 X6.2777 Y2.0221 I-0.0208 J-0.0337
G3 X6.2677 Y2.0229 I-0.0081 J-0.038
G3 X6.2557 Y2.0206 I0.002 J-0.0419
G3 X6.2458 Y2.0151 I0.012 J-0.0339
G3 X6.2403 Y2.0092 I0.0147 J-0.0191
G2 X6.2383 Y2.0062 I-0.0524 J0.034
G3 X6.2344 Y1.9986 I0.0207 J-0.0151
G3 X6.2328 Y1.9876 I0.036 J-0.011
G1 X6.2328 Y1.987
G3 X6.2348 Y1.9755 I0.0375 J0.0006
G3 X6.2388 Y1.968 I0.0241 J0.0082
G2 X6.241 Y1.9651 I-0.0492 J-0.0385
G3 X6.2467 Y1.9592 I0.0201 J0.0139
G3 X6.2571 Y1.954 I0.0214 J0.0298
G3 X6.2691 Y1.9522 I0.012 J0.0379
G3 X6.2789 Y1.9538 I0 J0.0315
G1 X6.2797 Y1.954
G3 X6.288 Y1.9582 I-0.0086 J0.0274
G3 X6.2965 Y1.9667 I-0.0228 J0.0312
G3 X6.3022 Y1.9778 I-0.0335 J0.0243
G3 X6.3038 Y1.9851 I-0.0336 J0.0113

(profile 4-1)
G0 Z0.25
G0 X4.6066 Y3.7557
G1 Z-0.025 F25
G1 X4.6114 Y3.7441 F25
G3 X4.6155 Y3.7388 I0.0282 J0.0177
G3 X4.6234 Y3.7324 I0.0284 J0.027
G3 X4.6326 Y3.7283 I0.0201 J0.0327
G3 X4.641 Y3.7271 I0.0088 J0.0298
G1 X4.6415 Y3.7271
G3 X4.6511 Y3.7284 I0.0007 J0.0306
G3 X4.6619 Y3.7336 I-0.0115 J0.0375
G3 X4.6703 Y3.7416 I-0.0211 J0.0306
G3 X4.6743 Y3.7492 I-0.0204 J0.0156
G2 X4.6754 Y3.7522 I0.0594 J-0.0196
G3 X4.6771 Y3.7606 I-0.024 J0.0093
G3 X4.6771 Y3.762 I-0.0376 J0.0014
G3 X4.6757 Y3.7723 I-0.0377 J0
G3 X4.6708 Y3.7829 I-0.0361 J-0.0103
G3 X4.6649 Y3.789 I-0.0211 J-0.0142
G2 X4.6622 Y3.7912 I0.0376 J0.05
G3 X4.6551 Y3.7954 I-0.0158 J-0.0188
G3 X4.6436 Y3.7978 I-0.0132 J-0.0348
G3 X4.6317 Y3.7966 I-0.0019 J-0.0392
G3 X4.6231 Y3.7927 I0.0075 J-0.0282
G2 X4.6218 Y3.7919 I-0.0344 J0.0522
G3 X4.6149 Y3.7858 I0.0146 J-0.0235
G3 X4.6089 Y3.7754 I0.0296 J-0.024
G3 X4.6063 Y3.7633 I0.0388 J-0.0149
G3 X4.6062 Y3.761 I0.0357 J-0.0023
G3 X4.6066 Y3.7557 I0.0358 J0
G1 Z-0.05 F25
G1 X4.6114 Y3.7441 F25
G3 X4.6155 Y3.7388 I0.0282 J0.0177
G3 X4.6234 Y3.7324 I0.0284 J0.027
G3 X4.6326 Y3.7283 I0.0201 J0.0327
G3 X4.641 Y3.7271 I0.0088 J0.0298
G1 X4.6415 Y3.7271
G3 X4.6511 Y3.7284 I0.0007 J0.0306
G3 X4.6619 Y3.7336 I-0.0115 J0.0375
G3 X4.6703 Y3.7416 I-0.0211 J0.0306
G3 X4.6743 Y3.7492 I-0.0204 J0.0156
G2 X4.6754 Y3.7522 I0.0594 J-0.0196
G3 X4.6771 Y3.7606 I-0.024 J0.0093
G3 X4.6771 Y3.762 I-0.0376 J0.0014
G3 X4.6757 Y3.7723 I-0.0377 J0
G3 X4.6708 Y3.7829 I-0.0361 J-0.0103
G3 X4.6649 Y3.789 I-0.0211 J-0.0142
G2 X4.6622 Y3.7912 I0.0376 J0.05
G3 X4.6551 Y3.7954 I-0.0158 J-0.0188
G3 X4.6436 Y3.7978 I-0.0132 J-0.0348
G3 X4.6317 Y3.7966 I-0.0019 J-0.0392
G3 X4.6231 Y3.7927 I0.0075 J-0.0282
G2 X4.6218 Y3.7919 I-0.0344 J0.0522
G3 X4.6149 Y3.7858 I0.0146 J-0.0235
G3 X4.6089 Y3.7754 I0.0296 J-0.024
G3 X4.6063 Y3.7633 I0.0388 J-0.0149
G3 X4.6062 Y3.761 I0.0357 J-0.0023
G3 X4.6066 Y3.7557 I0.0358 J0
G1 Z-0.075 F25
G1 X4.6114 Y3.7441 F25
G3 X4.6155 Y3.7388 I0.0282 J0.0177
G3 X4.6234 Y3.7324 I0.0284 J0.027
G3 X4.6326 Y3.7283 I0.0201 J0.0327
G3 X4.641 Y3.7271 I0.0088 J0.0298
G1 X4.6415 Y3.7271
G3 X4.6511 Y3.7284 I0.0007 J0.0306
G3 X4.6619 Y3.7336 I-0.0115 J0.0375
G3 X4.6703 Y3.7416 I-0.0211 J0.0306
G3 X4.6743 Y3.7492 I-0.0204 J0.0156
G2 X4.6754 Y3.7522 I0.0594 J-0.0196
G3 X4.6771 Y3.7606 I-0.024 J0.0093
G3 X4.6771 Y3.762 I-0.0376 J0.0014
G3 X4.6757 Y3.7723 I-0.0377 J0
G3 X4.6708 Y3.7829 I-0.0361 J-0.0103
G3 X4.6649 Y3.789 I-0.0211 J-0.0142
G2 X4.6622 Y3.7912 I0.0376 J0.05
G3 X4.6551 Y3.7954 I-0.0158 J-0.0188
G3 X4.6436 Y3.7978 I-0.0132 J-0.0348
G3 X4.6317 Y3.7966 I-0.0019 J-0.0392
G3 X4.6231 Y3.7927 I0.0075 J-0.0282
G2 X4.6218 Y3.7919 I-0.0344 J0.0522
G3 X4.6149 Y3.7858 I0.0146 J-0.0235
G3 X4.6089 Y3.7754 I0.0296 J-0.024
G3 X4.6063 Y3.7633 I0.0388 J-0.0149
G3 X4.6062 Y3.761 I0.0357 J-0.0023
G3 X4.6066 Y3.7557 I0.0358 J0
G1 Z-0.1 F25
G1 X4.6114 Y3.7441 F25
G3 X4.6155 Y3.7388 I0.0282 J0.0177
G3 X4.6234 Y3.7324 I0.0284 J0.027
G3 X4.6326 Y3.7283 I0.0201 J0.0327
G3 X4.641 Y3.7271 I0.0088 J0.0298
G1 X4.6415 Y3.7271
G3 X4.6511 Y3.7284 I0.0007 J0.0306
G3 X4.6619 Y3.7336 I-0.0115 J0.0375
G3 X4.6703 Y3.7416 I-0.0211 J0.0306
G3 X4.6743 Y3.7492 I-0.0204 J0.0156
G2 X4.6754 Y3.7522 I0.0594 J-0.0196
G3 X4.6771 Y3.7606 I-0.024 J0.0093
G3 X4.6771 Y3.762 I-0.0376 J0.0014
G3 X4.6757 Y3.7723 I-0.0377 J0
G3 X4.6708 Y3.7829 I-0.0361 J-0.0103
G3 X4.6649 Y3.789 I-0.0211 J-0.0142
G2 X4.6622 Y3.7912 I0.0376 J0.05
G3 X4.6551 Y3.7954 I-0.0158 J-0.0188
G3 X4.6436 Y3.7978 I-0.0132 J-0.0348
G3 X4.6317 Y3.7966 I-0.0019 J-0.0392
G3 X4.6231 Y3.7927 I0.0075 J-0.0282
G2 X4.6218 Y3.7919 I-0.0344 J0.0522
G3 X4.6149 Y3.7858 I0.0146 J-0.0235
G3 X4.6089 Y3.7754 I0.0296 J-0.024
G3 X4.6063 Y3.7633 I0.0388 J-0.0149
G3 X4.6062 Y3.761 I0.0357 J-0.0023
G3 X4.6066 Y3.7557 I0.0358 J0
G1 Z-0.125 F25
G1 X4.6114 Y3.7441 F25
G3 X4.6155 Y3.7388 I0.0282 J0.0177
G3 X4.6234 Y3.7324 I0.0284 J0.027
G3 X4.6326 Y3.7283 I0.0201 J0.0327
G3 X4.641 Y3.7271 I0.0088 J0.0298
G1 X4.6415 Y3.7271
G3 X4.6511 Y3.7284 I0.0007 J0.0306
G3 X4.6619 Y3.7336 I-0.0115 J0.0375
G3 X4.6703 Y3.7416 I-0.0211 J0.0306
G3 X4.6743 Y3.7492 I-0.0204 J0.0156
G2 X4.6754 Y3.7522 I0.0594 J-0.0196
G3 X4.6771 Y3.7606 I-0.024 J0.0093
G3 X4.6771 Y3.762 I-0.0376 J0.0014
G3 X4.6757 Y3.7723 I-0.0377 J0
G3 X4.6708 Y3.7829 I-0.0361 J-0.0103
G3 X4.6649 Y3.789 I-0.0211 J-0.0142
G2 X4.6622 Y3.7912 I0.0376 J0.05
G3 X4.6551 Y3.7954 I-0.0158 J-0.0188
G3 X4.6436 Y3.7978 I-0.0132 J-0.0348
G3 X4.6317 Y3.7966 I-0.0019 J-0.0392
G3 X4.6231 Y3.7927 I0.0075 J-0.0282
G2 X4.6218 Y3.7919 I-0.0344 J0.0522
G3 X4.6149 Y3.7858 I0.0146 J-0.0235
G3 X4.6089 Y3.7754 I0.0296 J-0.024
G3 X4.6063 Y3.7633 I0.0388 J-0.0149
G3 X4.6062 Y3.761 I0.0357 J-0.0023
G3 X4.6066 Y3.7557 I0.0358 J0
G1 Z-0.15 F25
G1 X4.6114 Y3.7441 F25
G3 X4.6155 Y3.7388 I0.0282 J0.0177
G3 X4.6234 Y3.7324 I0.0284 J0.027
G3 X4.6326 Y3.7283 I0.0201 J0.0327
G3 X4.641 Y3.7271 I0.0088 J0.0298
G1 X4.6415 Y3.7271
G3 X4.6511 Y3.7284 I0.0007 J0.0306
G3 X4.6619 Y3.7336 I-0.0115 J0.0375
G3 X4.6703 Y3.7416 I-0.0211 J0.0306
G3 X4.6743 Y3.7492 I-0.0204 J0.0156
G2 X4.6754 Y3.7522 I0.0594 J-0.0196
G3 X4.6771 Y3.7606 I-0.024 J0.0093
G3 X4.6771 Y3.762 I-0.0376 J0.0014
G3 X4.6757 Y3.7723 I-0.0377 J0
G3 X4.6708 Y3.7829 I-0.0361 J-0.0103
G3 X4.6649 Y3.789 I-0.0211 J-0.0142
G2 X4.6622 Y3.7912 I0.0376 J0.05
G3 X4.6551 Y3.7954 I-0.0158 J-0.0188
G3 X4.6436 Y3.7978 I-0.0132 J-0.0348
G3 X4.6317 Y3.7966 I-0.0019 J-0.0392
G3 X4.6231 Y3.7927 I0.0075 J-0.0282
G2 X4.6218 Y3.7919 I-0.0344 J0.0522
G3 X4.6149 Y3.7858 I0.0146 J-0.0235
G3 X4.6089 Y3.7754 I0.0296 J-0.024
G3 X4.6063 Y3.7633 I0.0388 J-0.0149
G3 X4.6062 Y3.761 I0.0357 J-0.0023
G3 X4.6066 Y3.7557 I0.0358 J0
G1 Z-0.175 F25
G1 X4.6114 Y3.7441 F25
G3 X4.6155 Y3.7388 I0.0282 J0.0177
G3 X4.6234 Y3.7324 I0.0284 J0.027
G3 X4.6326 Y3.7283 I0.0201 J0.0327
G3 X4.641 Y3.7271 I0.0088 J0.0298
G1 X4.6415 Y3.7271
G3 X4.6511 Y3.7284 I0.0007 J0.0306
G3 X4.6619 Y3.7336 I-0.0115 J0.0375
G3 X4.6703 Y3.7416 I-0.0211 J0.0306
G3 X4.6743 Y3.7492 I-0.0204 J0.0156
G2 X4.6754 Y3.7522 I0.0594 J-0.0196
G3 X4.6771 Y3.7606 I-0.024 J0.0093
G3 X4.6771 Y3.762 I-0.0376 J0.0014
G3 X4.6757 Y3.7723 I-0.0377 J0
G3 X4.6708 Y3.7829 I-0.0361 J-0.0103
G3 X4.6649 Y3.789 I-0.0211 J-0.0142
G2 X4.6622 Y3.7912 I0.0376 J0.05
G3 X4.6551 Y3.7954 I-0.0158 J-0.0188
G3 X4.6436 Y3.7978 I-0.0132 J-0.0348
G3 X4.6317 Y3.7966 I-0.0019 J-0.0392
G3 X4.6231 Y3.7927 I0.0075 J-0.0282
G2 X4.6218 Y3.7919 I-0.0344 J0.0522
G3 X4.6149 Y3.7858 I0.0146 J-0.0235
G3 X4.6089 Y3.7754 I0.0296 J-0.024
G3 X4.6063 Y3.7633 I0.0388 J-0.0149
G3 X4.6062 Y3.761 I0.0357 J-0.0023
G3 X4.6066 Y3.7557 I0.0358 J0
G1 Z-0.2 F25
G1 X4.6114 Y3.7441 F25
G3 X4.6155 Y3.7388 I0.0282 J0.0177
G3 X4.6234 Y3.7324 I0.0284 J0.027
G3 X4.6326 Y3.7283 I0.0201 J0.0327
G3 X4.641 Y3.7271 I0.0088 J0.0298
G1 X4.6415 Y3.7271
G3 X4.6511 Y3.7284 I0.0007 J0.0306
G3 X4.6619 Y3.7336 I-0.0115 J0.0375
G3 X4.6703 Y3.7416 I-0.0211 J0.0306
G3 X4.6743 Y3.7492 I-0.0204 J0.0156
G2 X4.6754 Y3.7522 I0.0594 J-0.0196
G3 X4.6771 Y3.7606 I-0.024 J0.0093
G3 X4.6771 Y3.762 I-0.0376 J0.0014
G3 X4.6757 Y3.7723 I-0.0377 J0
G3 X4.6708 Y3.7829 I-0.0361 J-0.0103
G3 X4.6649 Y3.789 I-0.0211 J-0.0142
G2 X4.6622 Y3.7912 I0.0376 J0.05
G3 X4.6551 Y3.7954 I-0.0158 J-0.0188
G3 X4.6436 Y3.7978 I-0.0132 J-0.0348
G3 X4.6317 Y3.7966 I-0.0019 J-0.0392
G3 X4.6231 Y3.7927 I0.0075 J-0.0282
G2 X4.6218 Y3.7919 I-0.0344 J0.0522
G3 X4.6149 Y3.7858 I0.0146 J-0.0235
G3 X4.6089 Y3.7754 I0.0296 J-0.024
G3 X4.6063 Y3.7633 I0.0388 J-0.0149
G3 X4.6062 Y3.761 I0.0357 J-0.0023
G3 X4.6066 Y3.7557 I0.0358 J0
G1 Z-0.225 F25
G1 X4.6114 Y3.7441 F25
G3 X4.6155 Y3.7388 I0.0282 J0.0177
G3 X4.6234 Y3.7324 I0.0284 J0.027
G3 X4.6326 Y3.7283 I0.0201 J0.0327
G3 X4.641 Y3.7271 I0.0088 J0.0298
G1 X4.6415 Y3.7271
G3 X4.6511 Y3.7284 I0.0007 J0.0306
G3 X4.6619 Y3.7336 I-0.0115 J0.0375
G3 X4.6703 Y3.7416 I-0.0211 J0.0306
G3 X4.6743 Y3.7492 I-0.0204 J0.0156
G2 X4.6754 Y3.7522 I0.0594 J-0.0196
G3 X4.6771 Y3.7606 I-0.024 J0.0093
G3 X4.6771 Y3.762 I-0.0376 J0.0014
G3 X4.6757 Y3.7723 I-0.0377 J0
G3 X4.6708 Y3.7829 I-0.0361 J-0.0103
G3 X4.6649 Y3.789 I-0.0211 J-0.0142
G2 X4.6622 Y3.7912 I0.0376 J0.05
G3 X4.6551 Y3.7954 I-0.0158 J-0.0188
G3 X4.6436 Y3.7978 I-0.0132 J-0.0348
G3 X4.6317 Y3.7966 I-0.0019 J-0.0392
G3 X4.6231 Y3.7927 I0.0075 J-0.0282
G2 X4.6218 Y3.7919 I-0.0344 J0.0522
G3 X4.6149 Y3.7858 I0.0146 J-0.0235
G3 X4.6089 Y3.7754 I0.0296 J-0.024
G3 X4.6063 Y3.7633 I0.0388 J-0.0149
G3 X4.6062 Y3.761 I0.0357 J-0.0023
G3 X4.6066 Y3.7557 I0.0358 J0
G1 Z-0.25 F25
G1 X4.6114 Y3.7441 F25
G3 X4.6155 Y3.7388 I0.0282 J0.0177
G3 X4.6234 Y3.7324 I0.0284 J0.027
G3 X4.6326 Y3.7283 I0.0201 J0.0327
G3 X4.641 Y3.7271 I0.0088 J0.0298
G1 X4.6415 Y3.7271
G3 X4.6511 Y3.7284 I0.0007 J0.0306
G3 X4.6619 Y3.7336 I-0.0115 J0.0375
G3 X4.6703 Y3.7416 I-0.0211 J0.0306
G3 X4.6743 Y3.7492 I-0.0204 J0.0156
G2 X4.6754 Y3.7522 I0.0594 J-0.0196
G3 X4.6771 Y3.7606 I-0.024 J0.0093
G3 X4.6771 Y3.762 I-0.0376 J0.0014
G3 X4.6757 Y3.7723 I-0.0377 J0
G3 X4.6708 Y3.7829 I-0.0361 J-0.0103
G3 X4.6649 Y3.789 I-0.0211 J-0.0142
G2 X4.6622 Y3.7912 I0.0376 J0.05
G3 X4.6551 Y3.7954 I-0.0158 J-0.0188
G3 X4.6436 Y3.7978 I-0.0132 J-0.0348
G3 X4.6317 Y3.7966 I-0.0019 J-0.0392
G3 X4.6231 Y3.7927 I0.0075 J-0.0282
G2 X4.6218 Y3.7919 I-0.0344 J0.0522
G3 X4.6149 Y3.7858 I0.0146 J-0.0235
G3 X4.6089 Y3.7754 I0.0296 J-0.024
G3 X4.6063 Y3.7633 I0.0388 J-0.0149
G3 X4.6062 Y3.761 I0.0357 J-0.0023
G3 X4.6066 Y3.7557 I0.0358 J0
G1 Z-0.275 F25
G1 X4.6114 Y3.7441 F25
G3 X4.6155 Y3.7388 I0.0282 J0.0177
G3 X4.6234 Y3.7324 I0.0284 J0.027
G3 X4.6326 Y3.7283 I0.0201 J0.0327
G3 X4.641 Y3.7271 I0.0088 J0.0298
G1 X4.6415 Y3.7271
G3 X4.6511 Y3.7284 I0.0007 J0.0306
G3 X4.6619 Y3.7336 I-0.0115 J0.0375
G3 X4.6703 Y3.7416 I-0.0211 J0.0306
G3 X4.6743 Y3.7492 I-0.0204 J0.0156
G2 X4.6754 Y3.7522 I0.0594 J-0.0196
G3 X4.6771 Y3.7606 I-0.024 J0.0093
G3 X4.6771 Y3.762 I-0.0376 J0.0014
G3 X4.6757 Y3.7723 I-0.0377 J0
G3 X4.6708 Y3.7829 I-0.0361 J-0.0103
G3 X4.6649 Y3.789 I-0.0211 J-0.0142
G2 X4.6622 Y3.7912 I0.0376 J0.05
G3 X4.6551 Y3.7954 I-0.0158 J-0.0188
G3 X4.6436 Y3.7978 I-0.0132 J-0.0348
G3 X4.6317 Y3.7966 I-0.0019 J-0.0392
G3 X4.6231 Y3.7927 I0.0075 J-0.0282
G2 X4.6218 Y3.7919 I-0.0344 J0.0522
G3 X4.6149 Y3.7858 I0.0146 J-0.0235
G3 X4.6089 Y3.7754 I0.0296 J-0.024
G3 X4.6063 Y3.7633 I0.0388 J-0.0149
G3 X4.6062 Y3.761 I0.0357 J-0.0023
G3 X4.6066 Y3.7557 I0.0358 J0
G1 Z-0.3 F25
G1 X4.6114 Y3.7441 F25
G3 X4.6155 Y3.7388 I0.0282 J0.0177
G3 X4.6234 Y3.7324 I0.0284 J0.027
G3 X4.6326 Y3.7283 I0.0201 J0.0327
G3 X4.641 Y3.7271 I0.0088 J0.0298
G1 X4.6415 Y3.7271
G3 X4.6511 Y3.7284 I0.0007 J0.0306
G3 X4.6619 Y3.7336 I-0.0115 J0.0375
G3 X4.6703 Y3.7416 I-0.0211 J0.0306
G3 X4.6743 Y3.7492 I-0.0204 J0.0156
G2 X4.6754 Y3.7522 I0.0594 J-0.0196
G3 X4.6771 Y3.7606 I-0.024 J0.0093
G3 X4.6771 Y3.762 I-0.0376 J0.0014
G3 X4.6757 Y3.7723 I-0.0377 J0
G3 X4.6708 Y3.7829 I-0.0361 J-0.0103
G3 X4.6649 Y3.789 I-0.0211 J-0.0142
G2 X4.6622 Y3.7912 I0.0376 J0.05
G3 X4.6551 Y3.7954 I-0.0158 J-0.0188
G3 X4.6436 Y3.7978 I-0.0132 J-0.0348
G3 X4.6317 Y3.7966 I-0.0019 J-0.0392
G3 X4.6231 Y3.7927 I0.0075 J-0.0282
G2 X4.6218 Y3.7919 I-0.0344 J0.0522
G3 X4.6149 Y3.7858 I0.0146 J-0.0235
G3 X4.6089 Y3.7754 I0.0296 J-0.024
G3 X4.6063 Y3.7633 I0.0388 J-0.0149
G3 X4.6062 Y3.761 I0.0357 J-0.0023
G3 X4.6066 Y3.7557 I0.0358 J0
G1 Z-0.325 F25
G1 X4.6114 Y3.7441 F25
G3 X4.6155 Y3.7388 I0.0282 J0.0177
G3 X4.6234 Y3.7324 I0.0284 J0.027
G3 X4.6326 Y3.7283 I0.0201 J0.0327
G3 X4.641 Y3.7271 I0.0088 J0.0298
G1 X4.6415 Y3.7271
G3 X4.6511 Y3.7284 I0.0007 J0.0306
G3 X4.6619 Y3.7336 I-0.0115 J0.0375
G3 X4.6703 Y3.7416 I-0.0211 J0.0306
G3 X4.6743 Y3.7492 I-0.0204 J0.0156
G2 X4.6754 Y3.7522 I0.0594 J-0.0196
G3 X4.6771 Y3.7606 I-0.024 J0.0093
G3 X4.6771 Y3.762 I-0.0376 J0.0014
G3 X4.6757 Y3.7723 I-0.0377 J0
G3 X4.6708 Y3.7829 I-0.0361 J-0.0103
G3 X4.6649 Y3.789 I-0.0211 J-0.0142
G2 X4.6622 Y3.7912 I0.0376 J0.05
G3 X4.6551 Y3.7954 I-0.0158 J-0.0188
G3 X4.6436 Y3.7978 I-0.0132 J-0.0348
G3 X4.6317 Y3.7966 I-0.0019 J-0.0392
G3 X4.6231 Y3.7927 I0.0075 J-0.0282
G2 X4.6218 Y3.7919 I-0.0344 J0.0522
G3 X4.6149 Y3.7858 I0.0146 J-0.0235
G3 X4.6089 Y3.7754 I0.0296 J-0.024
G3 X4.6063 Y3.7633 I0.0388 J-0.0149
G3 X4.6062 Y3.761 I0.0357 J-0.0023
G3 X4.6066 Y3.7557 I0.0358 J0
G1 Z-0.35 F25
G1 X4.6114 Y3.7441 F25
G3 X4.6155 Y3.7388 I0.0282 J0.0177
G3 X4.6234 Y3.7324 I0.0284 J0.027
G3 X4.6326 Y3.7283 I0.0201 J0.0327
G3 X4.641 Y3.7271 I0.0088 J0.0298
G1 X4.6415 Y3.7271
G3 X4.6511 Y3.7284 I0.0007 J0.0306
G3 X4.6619 Y3.7336 I-0.0115 J0.0375
G3 X4.6703 Y3.7416 I-0.0211 J0.0306
G3 X4.6743 Y3.7492 I-0.0204 J0.0156
G2 X4.6754 Y3.7522 I0.0594 J-0.0196
G3 X4.6771 Y3.7606 I-0.024 J0.0093
G3 X4.6771 Y3.762 I-0.0376 J0.0014
G3 X4.6757 Y3.7723 I-0.0377 J0
G3 X4.6708 Y3.7829 I-0.0361 J-0.0103
G3 X4.6649 Y3.789 I-0.0211 J-0.0142
G2 X4.6622 Y3.7912 I0.0376 J0.05
G3 X4.6551 Y3.7954 I-0.0158 J-0.0188
G3 X4.6436 Y3.7978 I-0.0132 J-0.0348
G3 X4.6317 Y3.7966 I-0.0019 J-0.0392
G3 X4.6231 Y3.7927 I0.0075 J-0.0282
G2 X4.6218 Y3.7919 I-0.0344 J0.0522
G3 X4.6149 Y3.7858 I0.0146 J-0.0235
G3 X4.6089 Y3.7754 I0.0296 J-0.024
G3 X4.6063 Y3.7633 I0.0388 J-0.0149
G3 X4.6062 Y3.761 I0.0357 J-0.0023
G3 X4.6066 Y3.7557 I0.0358 J0
G1 Z-0.375 F25
G1 X4.6114 Y3.7441 F25
G3 X4.6155 Y3.7388 I0.0282 J0.0177
G3 X4.6234 Y3.7324 I0.0284 J0.027
G3 X4.6326 Y3.7283 I0.0201 J0.0327
G3 X4.641 Y3.7271 I0.0088 J0.0298
G1 X4.6415 Y3.7271
G3 X4.6511 Y3.7284 I0.0007 J0.0306
G3 X4.6619 Y3.7336 I-0.0115 J0.0375
G3 X4.6703 Y3.7416 I-0.0211 J0.0306
G3 X4.6743 Y3.7492 I-0.0204 J0.0156
G2 X4.6754 Y3.7522 I0.0594 J-0.0196
G3 X4.6771 Y3.7606 I-0.024 J0.0093
G3 X4.6771 Y3.762 I-0.0376 J0.0014
G3 X4.6757 Y3.7723 I-0.0377 J0
G3 X4.6708 Y3.7829 I-0.0361 J-0.0103
G3 X4.6649 Y3.789 I-0.0211 J-0.0142
G2 X4.6622 Y3.7912 I0.0376 J0.05
G3 X4.6551 Y3.7954 I-0.0158 J-0.0188
G3 X4.6436 Y3.7978 I-0.0132 J-0.0348
G3 X4.6317 Y3.7966 I-0.0019 J-0.0392
G3 X4.6231 Y3.7927 I0.0075 J-0.0282
G2 X4.6218 Y3.7919 I-0.0344 J0.0522
G3 X4.6149 Y3.7858 I0.0146 J-0.0235
G3 X4.6089 Y3.7754 I0.0296 J-0.024
G3 X4.6063 Y3.7633 I0.0388 J-0.0149
G3 X4.6062 Y3.761 I0.0357 J-0.0023
G3 X4.6066 Y3.7557 I0.0358 J0
G1 Z-0.4 F25
G1 X4.6114 Y3.7441 F25
G3 X4.6155 Y3.7388 I0.0282 J0.0177
G3 X4.6234 Y3.7324 I0.0284 J0.027
G3 X4.6326 Y3.7283 I0.0201 J0.0327
G3 X4.641 Y3.7271 I0.0088 J0.0298
G1 X4.6415 Y3.7271
G3 X4.6511 Y3.7284 I0.0007 J0.0306
G3 X4.6619 Y3.7336 I-0.0115 J0.0375
G3 X4.6703 Y3.7416 I-0.0211 J0.0306
G3 X4.6743 Y3.7492 I-0.0204 J0.0156
G2 X4.6754 Y3.7522 I0.0594 J-0.0196
G3 X4.6771 Y3.7606 I-0.024 J0.0093
G3 X4.6771 Y3.762 I-0.0376 J0.0014
G3 X4.6757 Y3.7723 I-0.0377 J0
G3 X4.6708 Y3.7829 I-0.0361 J-0.0103
G3 X4.6649 Y3.789 I-0.0211 J-0.0142
G2 X4.6622 Y3.7912 I0.0376 J0.05
G3 X4.6551 Y3.7954 I-0.0158 J-0.0188
G3 X4.6436 Y3.7978 I-0.0132 J-0.0348
G3 X4.6317 Y3.7966 I-0.0019 J-0.0392
G3 X4.6231 Y3.7927 I0.0075 J-0.0282
G2 X4.6218 Y3.7919 I-0.0344 J0.0522
G3 X4.6149 Y3.7858 I0.0146 J-0.0235
G3 X4.6089 Y3.7754 I0.0296 J-0.024
G3 X4.6063 Y3.7633 I0.0388 J-0.0149
G3 X4.6062 Y3.761 I0.0357 J-0.0023
G3 X4.6066 Y3.7557 I0.0358 J0
G1 Z-0.425 F25
G1 X4.6114 Y3.7441 F25
G3 X4.6155 Y3.7388 I0.0282 J0.0177
G3 X4.6234 Y3.7324 I0.0284 J0.027
G3 X4.6326 Y3.7283 I0.0201 J0.0327
G3 X4.641 Y3.7271 I0.0088 J0.0298
G1 X4.6415 Y3.7271
G3 X4.6511 Y3.7284 I0.0007 J0.0306
G3 X4.6619 Y3.7336 I-0.0115 J0.0375
G3 X4.6703 Y3.7416 I-0.0211 J0.0306
G3 X4.6743 Y3.7492 I-0.0204 J0.0156
G2 X4.6754 Y3.7522 I0.0594 J-0.0196
G3 X4.6771 Y3.7606 I-0.024 J0.0093
G3 X4.6771 Y3.762 I-0.0376 J0.0014
G3 X4.6757 Y3.7723 I-0.0377 J0
G3 X4.6708 Y3.7829 I-0.0361 J-0.0103
G3 X4.6649 Y3.789 I-0.0211 J-0.0142
G2 X4.6622 Y3.7912 I0.0376 J0.05
G3 X4.6551 Y3.7954 I-0.0158 J-0.0188
G3 X4.6436 Y3.7978 I-0.0132 J-0.0348
G3 X4.6317 Y3.7966 I-0.0019 J-0.0392
G3 X4.6231 Y3.7927 I0.0075 J-0.0282
G2 X4.6218 Y3.7919 I-0.0344 J0.0522
G3 X4.6149 Y3.7858 I0.0146 J-0.0235
G3 X4.6089 Y3.7754 I0.0296 J-0.024
G3 X4.6063 Y3.7633 I0.0388 J-0.0149
G3 X4.6062 Y3.761 I0.0357 J-0.0023
G3 X4.6066 Y3.7557 I0.0358 J0
G1 Z-0.45 F25
G1 X4.6114 Y3.7441 F25
G3 X4.6155 Y3.7388 I0.0282 J0.0177
G3 X4.6234 Y3.7324 I0.0284 J0.027
G3 X4.6326 Y3.7283 I0.0201 J0.0327
G3 X4.641 Y3.7271 I0.0088 J0.0298
G1 X4.6415 Y3.7271
G3 X4.6511 Y3.7284 I0.0007 J0.0306
G3 X4.6619 Y3.7336 I-0.0115 J0.0375
G3 X4.6703 Y3.7416 I-0.0211 J0.0306
G3 X4.6743 Y3.7492 I-0.0204 J0.0156
G2 X4.6754 Y3.7522 I0.0594 J-0.0196
G3 X4.6771 Y3.7606 I-0.024 J0.0093
G3 X4.6771 Y3.762 I-0.0376 J0.0014
G3 X4.6757 Y3.7723 I-0.0377 J0
G3 X4.6708 Y3.7829 I-0.0361 J-0.0103
G3 X4.6649 Y3.789 I-0.0211 J-0.0142
G2 X4.6622 Y3.7912 I0.0376 J0.05
G3 X4.6551 Y3.7954 I-0.0158 J-0.0188
G3 X4.6436 Y3.7978 I-0.0132 J-0.0348
G3 X4.6317 Y3.7966 I-0.0019 J-0.0392
G3 X4.6231 Y3.7927 I0.0075 J-0.0282
G2 X4.6218 Y3.7919 I-0.0344 J0.0522
G3 X4.6149 Y3.7858 I0.0146 J-0.0235
G3 X4.6089 Y3.7754 I0.0296 J-0.024
G3 X4.6063 Y3.7633 I0.0388 J-0.0149
G3 X4.6062 Y3.761 I0.0357 J-0.0023
G3 X4.6066 Y3.7557 I0.0358 J0
G1 Z-0.475 F25
G1 X4.6114 Y3.7441 F25
G3 X4.6155 Y3.7388 I0.0282 J0.0177
G3 X4.6234 Y3.7324 I0.0284 J0.027
G3 X4.6326 Y3.7283 I0.0201 J0.0327
G3 X4.641 Y3.7271 I0.0088 J0.0298
G1 X4.6415 Y3.7271
G3 X4.6511 Y3.7284 I0.0007 J0.0306
G3 X4.6619 Y3.7336 I-0.0115 J0.0375
G3 X4.6703 Y3.7416 I-0.0211 J0.0306
G3 X4.6743 Y3.7492 I-0.0204 J0.0156
G2 X4.6754 Y3.7522 I0.0594 J-0.0196
G3 X4.6771 Y3.7606 I-0.024 J0.0093
G3 X4.6771 Y3.762 I-0.0376 J0.0014
G3 X4.6757 Y3.7723 I-0.0377 J0
G3 X4.6708 Y3.7829 I-0.0361 J-0.0103
G3 X4.6649 Y3.789 I-0.0211 J-0.0142
G2 X4.6622 Y3.7912 I0.0376 J0.05
G3 X4.6551 Y3.7954 I-0.0158 J-0.0188
G3 X4.6436 Y3.7978 I-0.0132 J-0.0348
G3 X4.6317 Y3.7966 I-0.0019 J-0.0392
G3 X4.6231 Y3.7927 I0.0075 J-0.0282
G2 X4.6218 Y3.7919 I-0.0344 J0.0522
G3 X4.6149 Y3.7858 I0.0146 J-0.0235
G3 X4.6089 Y3.7754 I0.0296 J-0.024
G3 X4.6063 Y3.7633 I0.0388 J-0.0149
G3 X4.6062 Y3.761 I0.0357 J-0.0023
G3 X4.6066 Y3.7557 I0.0358 J0
G1 Z-0.5 F25
G1 X4.6114 Y3.7441 F25
G3 X4.6155 Y3.7388 I0.0282 J0.0177
G3 X4.6234 Y3.7324 I0.0284 J0.027
G3 X4.6326 Y3.7283 I0.0201 J0.0327
G3 X4.641 Y3.7271 I0.0088 J0.0298
G1 X4.6415 Y3.7271
G3 X4.6511 Y3.7284 I0.0007 J0.0306
G3 X4.6619 Y3.7336 I-0.0115 J0.0375
G3 X4.6703 Y3.7416 I-0.0211 J0.0306
G3 X4.6743 Y3.7492 I-0.0204 J0.0156
G2 X4.6754 Y3.7522 I0.0594 J-0.0196
G3 X4.6771 Y3.7606 I-0.024 J0.0093
G3 X4.6771 Y3.762 I-0.0376 J0.0014
G3 X4.6757 Y3.7723 I-0.0377 J0
G3 X4.6708 Y3.7829 I-0.0361 J-0.0103
G3 X4.6649 Y3.789 I-0.0211 J-0.0142
G2 X4.6622 Y3.7912 I0.0376 J0.05
G3 X4.6551 Y3.7954 I-0.0158 J-0.0188
G3 X4.6436 Y3.7978 I-0.0132 J-0.0348
G3 X4.6317 Y3.7966 I-0.0019 J-0.0392
G3 X4.6231 Y3.7927 I0.0075 J-0.0282
G2 X4.6218 Y3.7919 I-0.0344 J0.0522
G3 X4.6149 Y3.7858 I0.0146 J-0.0235
G3 X4.6089 Y3.7754 I0.0296 J-0.024
G3 X4.6063 Y3.7633 I0.0388 J-0.0149
G3 X4.6062 Y3.761 I0.0357 J-0.0023
G3 X4.6066 Y3.7557 I0.0358 J0
G1 Z-0.52 F25
G1 X4.6114 Y3.7441 F25
G3 X4.6155 Y3.7388 I0.0282 J0.0177
G3 X4.6234 Y3.7324 I0.0284 J0.027
G3 X4.6326 Y3.7283 I0.0201 J0.0327
G3 X4.641 Y3.7271 I0.0088 J0.0298
G1 X4.6415 Y3.7271
G3 X4.6511 Y3.7284 I0.0007 J0.0306
G3 X4.6619 Y3.7336 I-0.0115 J0.0375
G3 X4.6703 Y3.7416 I-0.0211 J0.0306
G3 X4.6743 Y3.7492 I-0.0204 J0.0156
G2 X4.6754 Y3.7522 I0.0594 J-0.0196
G3 X4.6771 Y3.7606 I-0.024 J0.0093
G3 X4.6771 Y3.762 I-0.0376 J0.0014
G3 X4.6757 Y3.7723 I-0.0377 J0
G3 X4.6708 Y3.7829 I-0.0361 J-0.0103
G3 X4.6649 Y3.789 I-0.0211 J-0.0142
G2 X4.6622 Y3.7912 I0.0376 J0.05
G3 X4.6551 Y3.7954 I-0.0158 J-0.0188
G3 X4.6436 Y3.7978 I-0.0132 J-0.0348
G3 X4.6317 Y3.7966 I-0.0019 J-0.0392
G3 X4.6231 Y3.7927 I0.0075 J-0.0282
G2 X4.6218 Y3.7919 I-0.0344 J0.0522
G3 X4.6149 Y3.7858 I0.0146 J-0.0235
G3 X4.6089 Y3.7754 I0.0296 J-0.024
G3 X4.6063 Y3.7633 I0.0388 J-0.0149
G3 X4.6062 Y3.761 I0.0357 J-0.0023
G3 X4.6066 Y3.7557 I0.0358 J0

(profile 4-2)
G0 Z0.25
G0 X3.4645 Y4.4956
G1 Z-0.025 F25
G1 X3.4592 Y4.5086 F25
G3 X3.4549 Y4.5141 I-0.0295 J-0.0187
G3 X3.4465 Y4.5208 I-0.0294 J-0.0282
G3 X3.4367 Y4.5251 I-0.0214 J-0.0354
G3 X3.4268 Y4.5266 I-0.0104 J-0.0355
G3 X3.4158 Y4.525 I-0.0007 J-0.0351
G3 X3.4042 Y4.5194 I0.0123 J-0.0402
G3 X3.3952 Y4.5108 I0.0222 J-0.0322
G3 X3.3909 Y4.5024 I0.0224 J-0.0169
G2 X3.3898 Y4.4994 I-0.0596 J0.019
G3 X3.3879 Y4.4896 I0.0284 J-0.0107
G3 X3.3879 Y4.4883 I0.0421 J-0.0013
G3 X3.3895 Y4.4767 I0.0422 J0
G3 X3.395 Y4.465 I0.0396 J0.0114
G3 X3.4015 Y4.4581 I0.0235 J0.0159
G2 X3.4041 Y4.4562 I-0.0374 J-0.0501
G3 X3.4117 Y4.4517 I0.0168 J0.0202
G3 X3.4244 Y4.4492 I0.0144 J0.0388
G3 X3.4377 Y4.4506 I0.0018 J0.0449
G3 X3.4479 Y4.4552 I-0.0087 J0.0331
G3 X3.4556 Y4.4621 I-0.0168 J0.0264
G3 X3.4621 Y4.4735 I-0.0328 J0.0262
G3 X3.4649 Y4.4868 I-0.0428 J0.0162
G3 X3.465 Y4.4893 I-0.0403 J0.0025
G3 X3.4645 Y4.4956 I-0.0404 J0
G1 Z-0.05 F25
G1 X3.4592 Y4.5086 F25
G3 X3.4549 Y4.5141 I-0.0295 J-0.0187
G3 X3.4465 Y4.5208 I-0.0294 J-0.0282
G3 X3.4367 Y4.5251 I-0.0214 J-0.0354
G3 X3.4268 Y4.5266 I-0.0104 J-0.0355
G3 X3.4158 Y4.525 I-0.0007 J-0.0351
G3 X3.4042 Y4.5194 I0.0123 J-0.0402
G3 X3.3952 Y4.5108 I0.0222 J-0.0322
G3 X3.3909 Y4.5024 I0.0224 J-0.0169
G2 X3.3898 Y4.4994 I-0.0596 J0.019
G3 X3.3879 Y4.4896 I0.0284 J-0.0107
G3 X3.3879 Y4.4883 I0.0421 J-0.0013
G3 X3.3895 Y4.4767 I0.0422 J0
G3 X3.395 Y4.465 I0.0396 J0.0114
G3 X3.4015 Y4.4581 I0.0235 J0.0159
G2 X3.4041 Y4.4562 I-0.0374 J-0.0501
G3 X3.4117 Y4.4517 I0.0168 J0.0202
G3 X3.4244 Y4.4492 I0.0144 J0.0388
G3 X3.4377 Y4.4506 I0.0018 J0.0449
G3 X3.4479 Y4.4552 I-0.0087 J0.0331
G3 X3.4556 Y4.4621 I-0.0168 J0.0264
G3 X3.4621 Y4.4735 I-0.0328 J0.0262
G3 X3.4649 Y4.4868 I-0.0428 J0.0162
G3 X3.465 Y4.4893 I-0.0403 J0.0025
G3 X3.4645 Y4.4956 I-0.0404 J0
G1 Z-0.075 F25
G1 X3.4592 Y4.5086 F25
G3 X3.4549 Y4.5141 I-0.0295 J-0.0187
G3 X3.4465 Y4.5208 I-0.0294 J-0.0282
G3 X3.4367 Y4.5251 I-0.0214 J-0.0354
G3 X3.4268 Y4.5266 I-0.0104 J-0.0355
G3 X3.4158 Y4.525 I-0.0007 J-0.0351
G3 X3.4042 Y4.5194 I0.0123 J-0.0402
G3 X3.3952 Y4.5108 I0.0222 J-0.0322
G3 X3.3909 Y4.5024 I0.0224 J-0.0169
G2 X3.3898 Y4.4994 I-0.0596 J0.019
G3 X3.3879 Y4.4896 I0.0284 J-0.0107
G3 X3.3879 Y4.4883 I0.0421 J-0.0013
G3 X3.3895 Y4.4767 I0.0422 J0
G3 X3.395 Y4.465 I0.0396 J0.0114
G3 X3.4015 Y4.4581 I0.0235 J0.0159
G2 X3.4041 Y4.4562 I-0.0374 J-0.0501
G3 X3.4117 Y4.4517 I0.0168 J0.0202
G3 X3.4244 Y4.4492 I0.0144 J0.0388
G3 X3.4377 Y4.4506 I0.0018 J0.0449
G3 X3.4479 Y4.4552 I-0.0087 J0.0331
G3 X3.4556 Y4.4621 I-0.0168 J0.0264
G3 X3.4621 Y4.4735 I-0.0328 J0.0262
G3 X3.4649 Y4.4868 I-0.0428 J0.0162
G3 X3.465 Y4.4893 I-0.0403 J0.0025
G3 X3.4645 Y4.4956 I-0.0404 J0
G1 Z-0.1 F25
G1 X3.4592 Y4.5086 F25
G3 X3.4549 Y4.5141 I-0.0295 J-0.0187
G3 X3.4465 Y4.5208 I-0.0294 J-0.0282
G3 X3.4367 Y4.5251 I-0.0214 J-0.0354
G3 X3.4268 Y4.5266 I-0.0104 J-0.0355
G3 X3.4158 Y4.525 I-0.0007 J-0.0351
G3 X3.4042 Y4.5194 I0.0123 J-0.0402
G3 X3.3952 Y4.5108 I0.0222 J-0.0322
G3 X3.3909 Y4.5024 I0.0224 J-0.0169
G2 X3.3898 Y4.4994 I-0.0596 J0.019
G3 X3.3879 Y4.4896 I0.0284 J-0.0107
G3 X3.3879 Y4.4883 I0.0421 J-0.0013
G3 X3.3895 Y4.4767 I0.0422 J0
G3 X3.395 Y4.465 I0.0396 J0.0114
G3 X3.4015 Y4.4581 I0.0235 J0.0159
G2 X3.4041 Y4.4562 I-0.0374 J-0.0501
G3 X3.4117 Y4.4517 I0.0168 J0.0202
G3 X3.4244 Y4.4492 I0.0144 J0.0388
G3 X3.4377 Y4.4506 I0.0018 J0.0449
G3 X3.4479 Y4.4552 I-0.0087 J0.0331
G3 X3.4556 Y4.4621 I-0.0168 J0.0264
G3 X3.4621 Y4.4735 I-0.0328 J0.0262
G3 X3.4649 Y4.4868 I-0.0428 J0.0162
G3 X3.465 Y4.4893 I-0.0403 J0.0025
G3 X3.4645 Y4.4956 I-0.0404 J0
G1 Z-0.125 F25
G1 X3.4592 Y4.5086 F25
G3 X3.4549 Y4.5141 I-0.0295 J-0.0187
G3 X3.4465 Y4.5208 I-0.0294 J-0.0282
G3 X3.4367 Y4.5251 I-0.0214 J-0.0354
G3 X3.4268 Y4.5266 I-0.0104 J-0.0355
G3 X3.4158 Y4.525 I-0.0007 J-0.0351
G3 X3.4042 Y4.5194 I0.0123 J-0.0402
G3 X3.3952 Y4.5108 I0.0222 J-0.0322
G3 X3.3909 Y4.5024 I0.0224 J-0.0169
G2 X3.3898 Y4.4994 I-0.0596 J0.019
G3 X3.3879 Y4.4896 I0.0284 J-0.0107
G3 X3.3879 Y4.4883 I0.0421 J-0.0013
G3 X3.3895 Y4.4767 I0.0422 J0
G3 X3.395 Y4.465 I0.0396 J0.0114
G3 X3.4015 Y4.4581 I0.0235 J0.0159
G2 X3.4041 Y4.4562 I-0.0374 J-0.0501
G3 X3.4117 Y4.4517 I0.0168 J0.0202
G3 X3.4244 Y4.4492 I0.0144 J0.0388
G3 X3.4377 Y4.4506 I0.0018 J0.0449
G3 X3.4479 Y4.4552 I-0.0087 J0.0331
G3 X3.4556 Y4.4621 I-0.0168 J0.0264
G3 X3.4621 Y4.4735 I-0.0328 J0.0262
G3 X3.4649 Y4.4868 I-0.0428 J0.0162
G3 X3.465 Y4.4893 I-0.0403 J0.0025
G3 X3.4645 Y4.4956 I-0.0404 J0
G1 Z-0.15 F25
G1 X3.4592 Y4.5086 F25
G3 X3.4549 Y4.5141 I-0.0295 J-0.0187
G3 X3.4465 Y4.5208 I-0.0294 J-0.0282
G3 X3.4367 Y4.5251 I-0.0214 J-0.0354
G3 X3.4268 Y4.5266 I-0.0104 J-0.0355
G3 X3.4158 Y4.525 I-0.0007 J-0.0351
G3 X3.4042 Y4.5194 I0.0123 J-0.0402
G3 X3.3952 Y4.5108 I0.0222 J-0.0322
G3 X3.3909 Y4.5024 I0.0224 J-0.0169
G2 X3.3898 Y4.4994 I-0.0596 J0.019
G3 X3.3879 Y4.4896 I0.0284 J-0.0107
G3 X3.3879 Y4.4883 I0.0421 J-0.0013
G3 X3.3895 Y4.4767 I0.0422 J0
G3 X3.395 Y4.465 I0.0396 J0.0114
G3 X3.4015 Y4.4581 I0.0235 J0.0159
G2 X3.4041 Y4.4562 I-0.0374 J-0.0501
G3 X3.4117 Y4.4517 I0.0168 J0.0202
G3 X3.4244 Y4.4492 I0.0144 J0.0388
G3 X3.4377 Y4.4506 I0.0018 J0.0449
G3 X3.4479 Y4.4552 I-0.0087 J0.0331
G3 X3.4556 Y4.4621 I-0.0168 J0.0264
G3 X3.4621 Y4.4735 I-0.0328 J0.0262
G3 X3.4649 Y4.4868 I-0.0428 J0.0162
G3 X3.465 Y4.4893 I-0.0403 J0.0025
G3 X3.4645 Y4.4956 I-0.0404 J0
G1 Z-0.175 F25
G1 X3.4592 Y4.5086 F25
G3 X3.4549 Y4.5141 I-0.0295 J-0.0187
G3 X3.4465 Y4.5208 I-0.0294 J-0.0282
G3 X3.4367 Y4.5251 I-0.0214 J-0.0354
G3 X3.4268 Y4.5266 I-0.0104 J-0.0355
G3 X3.4158 Y4.525 I-0.0007 J-0.0351
G3 X3.4042 Y4.5194 I0.0123 J-0.0402
G3 X3.3952 Y4.5108 I0.0222 J-0.0322
G3 X3.3909 Y4.5024 I0.0224 J-0.0169
G2 X3.3898 Y4.4994 I-0.0596 J0.019
G3 X3.3879 Y4.4896 I0.0284 J-0.0107
G3 X3.3879 Y4.4883 I0.0421 J-0.0013
G3 X3.3895 Y4.4767 I0.0422 J0
G3 X3.395 Y4.465 I0.0396 J0.0114
G3 X3.4015 Y4.4581 I0.0235 J0.0159
G2 X3.4041 Y4.4562 I-0.0374 J-0.0501
G3 X3.4117 Y4.4517 I0.0168 J0.0202
G3 X3.4244 Y4.4492 I0.0144 J0.0388
G3 X3.4377 Y4.4506 I0.0018 J0.0449
G3 X3.4479 Y4.4552 I-0.0087 J0.0331
G3 X3.4556 Y4.4621 I-0.0168 J0.0264
G3 X3.4621 Y4.4735 I-0.0328 J0.0262
G3 X3.4649 Y4.4868 I-0.0428 J0.0162
G3 X3.465 Y4.4893 I-0.0403 J0.0025
G3 X3.4645 Y4.4956 I-0.0404 J0
G1 Z-0.2 F25
G1 X3.4592 Y4.5086 F25
G3 X3.4549 Y4.5141 I-0.0295 J-0.0187
G3 X3.4465 Y4.5208 I-0.0294 J-0.0282
G3 X3.4367 Y4.5251 I-0.0214 J-0.0354
G3 X3.4268 Y4.5266 I-0.0104 J-0.0355
G3 X3.4158 Y4.525 I-0.0007 J-0.0351
G3 X3.4042 Y4.5194 I0.0123 J-0.0402
G3 X3.3952 Y4.5108 I0.0222 J-0.0322
G3 X3.3909 Y4.5024 I0.0224 J-0.0169
G2 X3.3898 Y4.4994 I-0.0596 J0.019
G3 X3.3879 Y4.4896 I0.0284 J-0.0107
G3 X3.3879 Y4.4883 I0.0421 J-0.0013
G3 X3.3895 Y4.4767 I0.0422 J0
G3 X3.395 Y4.465 I0.0396 J0.0114
G3 X3.4015 Y4.4581 I0.0235 J0.0159
G2 X3.4041 Y4.4562 I-0.0374 J-0.0501
G3 X3.4117 Y4.4517 I0.0168 J0.0202
G3 X3.4244 Y4.4492 I0.0144 J0.0388
G3 X3.4377 Y4.4506 I0.0018 J0.0449
G3 X3.4479 Y4.4552 I-0.0087 J0.0331
G3 X3.4556 Y4.4621 I-0.0168 J0.0264
G3 X3.4621 Y4.4735 I-0.0328 J0.0262
G3 X3.4649 Y4.4868 I-0.0428 J0.0162
G3 X3.465 Y4.4893 I-0.0403 J0.0025
G3 X3.4645 Y4.4956 I-0.0404 J0
G1 Z-0.225 F25
G1 X3.4592 Y4.5086 F25
G3 X3.4549 Y4.5141 I-0.0295 J-0.0187
G3 X3.4465 Y4.5208 I-0.0294 J-0.0282
G3 X3.4367 Y4.5251 I-0.0214 J-0.0354
G3 X3.4268 Y4.5266 I-0.0104 J-0.0355
G3 X3.4158 Y4.525 I-0.0007 J-0.0351
G3 X3.4042 Y4.5194 I0.0123 J-0.0402
G3 X3.3952 Y4.5108 I0.0222 J-0.0322
G3 X3.3909 Y4.5024 I0.0224 J-0.0169
G2 X3.3898 Y4.4994 I-0.0596 J0.019
G3 X3.3879 Y4.4896 I0.0284 J-0.0107
G3 X3.3879 Y4.4883 I0.0421 J-0.0013
G3 X3.3895 Y4.4767 I0.0422 J0
G3 X3.395 Y4.465 I0.0396 J0.0114
G3 X3.4015 Y4.4581 I0.0235 J0.0159
G2 X3.4041 Y4.4562 I-0.0374 J-0.0501
G3 X3.4117 Y4.4517 I0.0168 J0.0202
G3 X3.4244 Y4.4492 I0.0144 J0.0388
G3 X3.4377 Y4.4506 I0.0018 J0.0449
G3 X3.4479 Y4.4552 I-0.0087 J0.0331
G3 X3.4556 Y4.4621 I-0.0168 J0.0264
G3 X3.4621 Y4.4735 I-0.0328 J0.0262
G3 X3.4649 Y4.4868 I-0.0428 J0.0162
G3 X3.465 Y4.4893 I-0.0403 J0.0025
G3 X3.4645 Y4.4956 I-0.0404 J0
G1 Z-0.25 F25
G1 X3.4592 Y4.5086 F25
G3 X3.4549 Y4.5141 I-0.0295 J-0.0187
G3 X3.4465 Y4.5208 I-0.0294 J-0.0282
G3 X3.4367 Y4.5251 I-0.0214 J-0.0354
G3 X3.4268 Y4.5266 I-0.0104 J-0.0355
G3 X3.4158 Y4.525 I-0.0007 J-0.0351
G3 X3.4042 Y4.5194 I0.0123 J-0.0402
G3 X3.3952 Y4.5108 I0.0222 J-0.0322
G3 X3.3909 Y4.5024 I0.0224 J-0.0169
G2 X3.3898 Y4.4994 I-0.0596 J0.019
G3 X3.3879 Y4.4896 I0.0284 J-0.0107
G3 X3.3879 Y4.4883 I0.0421 J-0.0013
G3 X3.3895 Y4.4767 I0.0422 J0
G3 X3.395 Y4.465 I0.0396 J0.0114
G3 X3.4015 Y4.4581 I0.0235 J0.0159
G2 X3.4041 Y4.4562 I-0.0374 J-0.0501
G3 X3.4117 Y4.4517 I0.0168 J0.0202
G3 X3.4244 Y4.4492 I0.0144 J0.0388
G3 X3.4377 Y4.4506 I0.0018 J0.0449
G3 X3.4479 Y4.4552 I-0.0087 J0.0331
G3 X3.4556 Y4.4621 I-0.0168 J0.0264
G3 X3.4621 Y4.4735 I-0.0328 J0.0262
G3 X3.4649 Y4.4868 I-0.0428 J0.0162
G3 X3.465 Y4.4893 I-0.0403 J0.0025
G3 X3.4645 Y4.4956 I-0.0404 J0
G1 Z-0.275 F25
G1 X3.4592 Y4.5086 F25
G3 X3.4549 Y4.5141 I-0.0295 J-0.0187
G3 X3.4465 Y4.5208 I-0.0294 J-0.0282
G3 X3.4367 Y4.5251 I-0.0214 J-0.0354
G3 X3.4268 Y4.5266 I-0.0104 J-0.0355
G3 X3.4158 Y4.525 I-0.0007 J-0.0351
G3 X3.4042 Y4.5194 I0.0123 J-0.0402
G3 X3.3952 Y4.5108 I0.0222 J-0.0322
G3 X3.3909 Y4.5024 I0.0224 J-0.0169
G2 X3.3898 Y4.4994 I-0.0596 J0.019
G3 X3.3879 Y4.4896 I0.0284 J-0.0107
G3 X3.3879 Y4.4883 I0.0421 J-0.0013
G3 X3.3895 Y4.4767 I0.0422 J0
G3 X3.395 Y4.465 I0.0396 J0.0114
G3 X3.4015 Y4.4581 I0.0235 J0.0159
G2 X3.4041 Y4.4562 I-0.0374 J-0.0501
G3 X3.4117 Y4.4517 I0.0168 J0.0202
G3 X3.4244 Y4.4492 I0.0144 J0.0388
G3 X3.4377 Y4.4506 I0.0018 J0.0449
G3 X3.4479 Y4.4552 I-0.0087 J0.0331
G3 X3.4556 Y4.4621 I-0.0168 J0.0264
G3 X3.4621 Y4.4735 I-0.0328 J0.0262
G3 X3.4649 Y4.4868 I-0.0428 J0.0162
G3 X3.465 Y4.4893 I-0.0403 J0.0025
G3 X3.4645 Y4.4956 I-0.0404 J0
G1 Z-0.3 F25
G1 X3.4592 Y4.5086 F25
G3 X3.4549 Y4.5141 I-0.0295 J-0.0187
G3 X3.4465 Y4.5208 I-0.0294 J-0.0282
G3 X3.4367 Y4.5251 I-0.0214 J-0.0354
G3 X3.4268 Y4.5266 I-0.0104 J-0.0355
G3 X3.4158 Y4.525 I-0.0007 J-0.0351
G3 X3.4042 Y4.5194 I0.0123 J-0.0402
G3 X3.3952 Y4.5108 I0.0222 J-0.0322
G3 X3.3909 Y4.5024 I0.0224 J-0.0169
G2 X3.3898 Y4.4994 I-0.0596 J0.019
G3 X3.3879 Y4.4896 I0.0284 J-0.0107
G3 X3.3879 Y4.4883 I0.0421 J-0.0013
G3 X3.3895 Y4.4767 I0.0422 J0
G3 X3.395 Y4.465 I0.0396 J0.0114
G3 X3.4015 Y4.4581 I0.0235 J0.0159
G2 X3.4041 Y4.4562 I-0.0374 J-0.0501
G3 X3.4117 Y4.4517 I0.0168 J0.0202
G3 X3.4244 Y4.4492 I0.0144 J0.0388
G3 X3.4377 Y4.4506 I0.0018 J0.0449
G3 X3.4479 Y4.4552 I-0.0087 J0.0331
G3 X3.4556 Y4.4621 I-0.0168 J0.0264
G3 X3.4621 Y4.4735 I-0.0328 J0.0262
G3 X3.4649 Y4.4868 I-0.0428 J0.0162
G3 X3.465 Y4.4893 I-0.0403 J0.0025
G3 X3.4645 Y4.4956 I-0.0404 J0
G1 Z-0.325 F25
G1 X3.4592 Y4.5086 F25
G3 X3.4549 Y4.5141 I-0.0295 J-0.0187
G3 X3.4465 Y4.5208 I-0.0294 J-0.0282
G3 X3.4367 Y4.5251 I-0.0214 J-0.0354
G3 X3.4268 Y4.5266 I-0.0104 J-0.0355
G3 X3.4158 Y4.525 I-0.0007 J-0.0351
G3 X3.4042 Y4.5194 I0.0123 J-0.0402
G3 X3.3952 Y4.5108 I0.0222 J-0.0322
G3 X3.3909 Y4.5024 I0.0224 J-0.0169
G2 X3.3898 Y4.4994 I-0.0596 J0.019
G3 X3.3879 Y4.4896 I0.0284 J-0.0107
G3 X3.3879 Y4.4883 I0.0421 J-0.0013
G3 X3.3895 Y4.4767 I0.0422 J0
G3 X3.395 Y4.465 I0.0396 J0.0114
G3 X3.4015 Y4.4581 I0.0235 J0.0159
G2 X3.4041 Y4.4562 I-0.0374 J-0.0501
G3 X3.4117 Y4.4517 I0.0168 J0.0202
G3 X3.4244 Y4.4492 I0.0144 J0.0388
G3 X3.4377 Y4.4506 I0.0018 J0.0449
G3 X3.4479 Y4.4552 I-0.0087 J0.0331
G3 X3.4556 Y4.4621 I-0.0168 J0.0264
G3 X3.4621 Y4.4735 I-0.0328 J0.0262
G3 X3.4649 Y4.4868 I-0.0428 J0.0162
G3 X3.465 Y4.4893 I-0.0403 J0.0025
G3 X3.4645 Y4.4956 I-0.0404 J0
G1 Z-0.35 F25
G1 X3.4592 Y4.5086 F25
G3 X3.4549 Y4.5141 I-0.0295 J-0.0187
G3 X3.4465 Y4.5208 I-0.0294 J-0.0282
G3 X3.4367 Y4.5251 I-0.0214 J-0.0354
G3 X3.4268 Y4.5266 I-0.0104 J-0.0355
G3 X3.4158 Y4.525 I-0.0007 J-0.0351
G3 X3.4042 Y4.5194 I0.0123 J-0.0402
G3 X3.3952 Y4.5108 I0.0222 J-0.0322
G3 X3.3909 Y4.5024 I0.0224 J-0.0169
G2 X3.3898 Y4.4994 I-0.0596 J0.019
G3 X3.3879 Y4.4896 I0.0284 J-0.0107
G3 X3.3879 Y4.4883 I0.0421 J-0.0013
G3 X3.3895 Y4.4767 I0.0422 J0
G3 X3.395 Y4.465 I0.0396 J0.0114
G3 X3.4015 Y4.4581 I0.0235 J0.0159
G2 X3.4041 Y4.4562 I-0.0374 J-0.0501
G3 X3.4117 Y4.4517 I0.0168 J0.0202
G3 X3.4244 Y4.4492 I0.0144 J0.0388
G3 X3.4377 Y4.4506 I0.0018 J0.0449
G3 X3.4479 Y4.4552 I-0.0087 J0.0331
G3 X3.4556 Y4.4621 I-0.0168 J0.0264
G3 X3.4621 Y4.4735 I-0.0328 J0.0262
G3 X3.4649 Y4.4868 I-0.0428 J0.0162
G3 X3.465 Y4.4893 I-0.0403 J0.0025
G3 X3.4645 Y4.4956 I-0.0404 J0
G1 Z-0.375 F25
G1 X3.4592 Y4.5086 F25
G3 X3.4549 Y4.5141 I-0.0295 J-0.0187
G3 X3.4465 Y4.5208 I-0.0294 J-0.0282
G3 X3.4367 Y4.5251 I-0.0214 J-0.0354
G3 X3.4268 Y4.5266 I-0.0104 J-0.0355
G3 X3.4158 Y4.525 I-0.0007 J-0.0351
G3 X3.4042 Y4.5194 I0.0123 J-0.0402
G3 X3.3952 Y4.5108 I0.0222 J-0.0322
G3 X3.3909 Y4.5024 I0.0224 J-0.0169
G2 X3.3898 Y4.4994 I-0.0596 J0.019
G3 X3.3879 Y4.4896 I0.0284 J-0.0107
G3 X3.3879 Y4.4883 I0.0421 J-0.0013
G3 X3.3895 Y4.4767 I0.0422 J0
G3 X3.395 Y4.465 I0.0396 J0.0114
G3 X3.4015 Y4.4581 I0.0235 J0.0159
G2 X3.4041 Y4.4562 I-0.0374 J-0.0501
G3 X3.4117 Y4.4517 I0.0168 J0.0202
G3 X3.4244 Y4.4492 I0.0144 J0.0388
G3 X3.4377 Y4.4506 I0.0018 J0.0449
G3 X3.4479 Y4.4552 I-0.0087 J0.0331
G3 X3.4556 Y4.4621 I-0.0168 J0.0264
G3 X3.4621 Y4.4735 I-0.0328 J0.0262
G3 X3.4649 Y4.4868 I-0.0428 J0.0162
G3 X3.465 Y4.4893 I-0.0403 J0.0025
G3 X3.4645 Y4.4956 I-0.0404 J0
G1 Z-0.4 F25
G1 X3.4592 Y4.5086 F25
G3 X3.4549 Y4.5141 I-0.0295 J-0.0187
G3 X3.4465 Y4.5208 I-0.0294 J-0.0282
G3 X3.4367 Y4.5251 I-0.0214 J-0.0354
G3 X3.4268 Y4.5266 I-0.0104 J-0.0355
G3 X3.4158 Y4.525 I-0.0007 J-0.0351
G3 X3.4042 Y4.5194 I0.0123 J-0.0402
G3 X3.3952 Y4.5108 I0.0222 J-0.0322
G3 X3.3909 Y4.5024 I0.0224 J-0.0169
G2 X3.3898 Y4.4994 I-0.0596 J0.019
G3 X3.3879 Y4.4896 I0.0284 J-0.0107
G3 X3.3879 Y4.4883 I0.0421 J-0.0013
G3 X3.3895 Y4.4767 I0.0422 J0
G3 X3.395 Y4.465 I0.0396 J0.0114
G3 X3.4015 Y4.4581 I0.0235 J0.0159
G2 X3.4041 Y4.4562 I-0.0374 J-0.0501
G3 X3.4117 Y4.4517 I0.0168 J0.0202
G3 X3.4244 Y4.4492 I0.0144 J0.0388
G3 X3.4377 Y4.4506 I0.0018 J0.0449
G3 X3.4479 Y4.4552 I-0.0087 J0.0331
G3 X3.4556 Y4.4621 I-0.0168 J0.0264
G3 X3.4621 Y4.4735 I-0.0328 J0.0262
G3 X3.4649 Y4.4868 I-0.0428 J0.0162
G3 X3.465 Y4.4893 I-0.0403 J0.0025
G3 X3.4645 Y4.4956 I-0.0404 J0
G1 Z-0.425 F25
G1 X3.4592 Y4.5086 F25
G3 X3.4549 Y4.5141 I-0.0295 J-0.0187
G3 X3.4465 Y4.5208 I-0.0294 J-0.0282
G3 X3.4367 Y4.5251 I-0.0214 J-0.0354
G3 X3.4268 Y4.5266 I-0.0104 J-0.0355
G3 X3.4158 Y4.525 I-0.0007 J-0.0351
G3 X3.4042 Y4.5194 I0.0123 J-0.0402
G3 X3.3952 Y4.5108 I0.0222 J-0.0322
G3 X3.3909 Y4.5024 I0.0224 J-0.0169
G2 X3.3898 Y4.4994 I-0.0596 J0.019
G3 X3.3879 Y4.4896 I0.0284 J-0.0107
G3 X3.3879 Y4.4883 I0.0421 J-0.0013
G3 X3.3895 Y4.4767 I0.0422 J0
G3 X3.395 Y4.465 I0.0396 J0.0114
G3 X3.4015 Y4.4581 I0.0235 J0.0159
G2 X3.4041 Y4.4562 I-0.0374 J-0.0501
G3 X3.4117 Y4.4517 I0.0168 J0.0202
G3 X3.4244 Y4.4492 I0.0144 J0.0388
G3 X3.4377 Y4.4506 I0.0018 J0.0449
G3 X3.4479 Y4.4552 I-0.0087 J0.0331
G3 X3.4556 Y4.4621 I-0.0168 J0.0264
G3 X3.4621 Y4.4735 I-0.0328 J0.0262
G3 X3.4649 Y4.4868 I-0.0428 J0.0162
G3 X3.465 Y4.4893 I-0.0403 J0.0025
G3 X3.4645 Y4.4956 I-0.0404 J0
G1 Z-0.45 F25
G1 X3.4592 Y4.5086 F25
G3 X3.4549 Y4.5141 I-0.0295 J-0.0187
G3 X3.4465 Y4.5208 I-0.0294 J-0.0282
G3 X3.4367 Y4.5251 I-0.0214 J-0.0354
G3 X3.4268 Y4.5266 I-0.0104 J-0.0355
G3 X3.4158 Y4.525 I-0.0007 J-0.0351
G3 X3.4042 Y4.5194 I0.0123 J-0.0402
G3 X3.3952 Y4.5108 I0.0222 J-0.0322
G3 X3.3909 Y4.5024 I0.0224 J-0.0169
G2 X3.3898 Y4.4994 I-0.0596 J0.019
G3 X3.3879 Y4.4896 I0.0284 J-0.0107
G3 X3.3879 Y4.4883 I0.0421 J-0.0013
G3 X3.3895 Y4.4767 I0.0422 J0
G3 X3.395 Y4.465 I0.0396 J0.0114
G3 X3.4015 Y4.4581 I0.0235 J0.0159
G2 X3.4041 Y4.4562 I-0.0374 J-0.0501
G3 X3.4117 Y4.4517 I0.0168 J0.0202
G3 X3.4244 Y4.4492 I0.0144 J0.0388
G3 X3.4377 Y4.4506 I0.0018 J0.0449
G3 X3.4479 Y4.4552 I-0.0087 J0.0331
G3 X3.4556 Y4.4621 I-0.0168 J0.0264
G3 X3.4621 Y4.4735 I-0.0328 J0.0262
G3 X3.4649 Y4.4868 I-0.0428 J0.0162
G3 X3.465 Y4.4893 I-0.0403 J0.0025
G3 X3.4645 Y4.4956 I-0.0404 J0
G1 Z-0.475 F25
G1 X3.4592 Y4.5086 F25
G3 X3.4549 Y4.5141 I-0.0295 J-0.0187
G3 X3.4465 Y4.5208 I-0.0294 J-0.0282
G3 X3.4367 Y4.5251 I-0.0214 J-0.0354
G3 X3.4268 Y4.5266 I-0.0104 J-0.0355
G3 X3.4158 Y4.525 I-0.0007 J-0.0351
G3 X3.4042 Y4.5194 I0.0123 J-0.0402
G3 X3.3952 Y4.5108 I0.0222 J-0.0322
G3 X3.3909 Y4.5024 I0.0224 J-0.0169
G2 X3.3898 Y4.4994 I-0.0596 J0.019
G3 X3.3879 Y4.4896 I0.0284 J-0.0107
G3 X3.3879 Y4.4883 I0.0421 J-0.0013
G3 X3.3895 Y4.4767 I0.0422 J0
G3 X3.395 Y4.465 I0.0396 J0.0114
G3 X3.4015 Y4.4581 I0.0235 J0.0159
G2 X3.4041 Y4.4562 I-0.0374 J-0.0501
G3 X3.4117 Y4.4517 I0.0168 J0.0202
G3 X3.4244 Y4.4492 I0.0144 J0.0388
G3 X3.4377 Y4.4506 I0.0018 J0.0449
G3 X3.4479 Y4.4552 I-0.0087 J0.0331
G3 X3.4556 Y4.4621 I-0.0168 J0.0264
G3 X3.4621 Y4.4735 I-0.0328 J0.0262
G3 X3.4649 Y4.4868 I-0.0428 J0.0162
G3 X3.465 Y4.4893 I-0.0403 J0.0025
G3 X3.4645 Y4.4956 I-0.0404 J0
G1 Z-0.5 F25
G1 X3.4592 Y4.5086 F25
G3 X3.4549 Y4.5141 I-0.0295 J-0.0187
G3 X3.4465 Y4.5208 I-0.0294 J-0.0282
G3 X3.4367 Y4.5251 I-0.0214 J-0.0354
G3 X3.4268 Y4.5266 I-0.0104 J-0.0355
G3 X3.4158 Y4.525 I-0.0007 J-0.0351
G3 X3.4042 Y4.5194 I0.0123 J-0.0402
G3 X3.3952 Y4.5108 I0.0222 J-0.0322
G3 X3.3909 Y4.5024 I0.0224 J-0.0169
G2 X3.3898 Y4.4994 I-0.0596 J0.019
G3 X3.3879 Y4.4896 I0.0284 J-0.0107
G3 X3.3879 Y4.4883 I0.0421 J-0.0013
G3 X3.3895 Y4.4767 I0.0422 J0
G3 X3.395 Y4.465 I0.0396 J0.0114
G3 X3.4015 Y4.4581 I0.0235 J0.0159
G2 X3.4041 Y4.4562 I-0.0374 J-0.0501
G3 X3.4117 Y4.4517 I0.0168 J0.0202
G3 X3.4244 Y4.4492 I0.0144 J0.0388
G3 X3.4377 Y4.4506 I0.0018 J0.0449
G3 X3.4479 Y4.4552 I-0.0087 J0.0331
G3 X3.4556 Y4.4621 I-0.0168 J0.0264
G3 X3.4621 Y4.4735 I-0.0328 J0.0262
G3 X3.4649 Y4.4868 I-0.0428 J0.0162
G3 X3.465 Y4.4893 I-0.0403 J0.0025
G3 X3.4645 Y4.4956 I-0.0404 J0
G1 Z-0.52 F25
G1 X3.4592 Y4.5086 F25
G3 X3.4549 Y4.5141 I-0.0295 J-0.0187
G3 X3.4465 Y4.5208 I-0.0294 J-0.0282
G3 X3.4367 Y4.5251 I-0.0214 J-0.0354
G3 X3.4268 Y4.5266 I-0.0104 J-0.0355
G3 X3.4158 Y4.525 I-0.0007 J-0.0351
G3 X3.4042 Y4.5194 I0.0123 J-0.0402
G3 X3.3952 Y4.5108 I0.0222 J-0.0322
G3 X3.3909 Y4.5024 I0.0224 J-0.0169
G2 X3.3898 Y4.4994 I-0.0596 J0.019
G3 X3.3879 Y4.4896 I0.0284 J-0.0107
G3 X3.3879 Y4.4883 I0.0421 J-0.0013
G3 X3.3895 Y4.4767 I0.0422 J0
G3 X3.395 Y4.465 I0.0396 J0.0114
G3 X3.4015 Y4.4581 I0.0235 J0.0159
G2 X3.4041 Y4.4562 I-0.0374 J-0.0501
G3 X3.4117 Y4.4517 I0.0168 J0.0202
G3 X3.4244 Y4.4492 I0.0144 J0.0388
G3 X3.4377 Y4.4506 I0.0018 J0.0449
G3 X3.4479 Y4.4552 I-0.0087 J0.0331
G3 X3.4556 Y4.4621 I-0.0168 J0.0264
G3 X3.4621 Y4.4735 I-0.0328 J0.0262
G3 X3.4649 Y4.4868 I-0.0428 J0.0162
G3 X3.465 Y4.4893 I-0.0403 J0.0025
G3 X3.4645 Y4.4956 I-0.0404 J0

(profile 4-3)
G0 Z0.25
G0 X3.4645 Y3.7082
G1 Z-0.025 F25
G1 X3.4592 Y3.7212 F25
G3 X3.4549 Y3.7267 I-0.0295 J-0.0187
G3 X3.4465 Y3.7334 I-0.0294 J-0.0282
G3 X3.4367 Y3.7377 I-0.0214 J-0.0354
G3 X3.4268 Y3.7392 I-0.0103 J-0.0355
G3 X3.4158 Y3.7376 I-0.0008 J-0.035
G3 X3.4042 Y3.732 I0.0123 J-0.0401
G3 X3.3952 Y3.7234 I0.0222 J-0.0322
G3 X3.3909 Y3.715 I0.0225 J-0.0169
G2 X3.3898 Y3.712 I-0.0596 J0.019
G3 X3.3879 Y3.7022 I0.0284 J-0.0107
G3 X3.3879 Y3.7009 I0.0421 J-0.0013
G3 X3.3895 Y3.6893 I0.0422 J0
G3 X3.395 Y3.6776 I0.0396 J0.0114
G3 X3.4015 Y3.6707 I0.0235 J0.0159
G2 X3.404 Y3.6687 I-0.0374 J-0.0501
G3 X3.4117 Y3.6643 I0.0168 J0.0202
G3 X3.4244 Y3.6618 I0.0144 J0.0388
G3 X3.4377 Y3.6632 I0.0018 J0.0449
G3 X3.4479 Y3.6678 I-0.0087 J0.0331
G3 X3.4556 Y3.6747 I-0.0168 J0.0264
G3 X3.4621 Y3.6861 I-0.0328 J0.0262
G3 X3.4649 Y3.6994 I-0.0428 J0.0162
G3 X3.465 Y3.7019 I-0.0403 J0.0025
G3 X3.4645 Y3.7082 I-0.0404 J0
G1 Z-0.05 F25
G1 X3.4592 Y3.7212 F25
G3 X3.4549 Y3.7267 I-0.0295 J-0.0187
G3 X3.4465 Y3.7334 I-0.0294 J-0.0282
G3 X3.4367 Y3.7377 I-0.0214 J-0.0354
G3 X3.4268 Y3.7392 I-0.0103 J-0.0355
G3 X3.4158 Y3.7376 I-0.0008 J-0.035
G3 X3.4042 Y3.732 I0.0123 J-0.0401
G3 X3.3952 Y3.7234 I0.0222 J-0.0322
G3 X3.3909 Y3.715 I0.0225 J-0.0169
G2 X3.3898 Y3.712 I-0.0596 J0.019
G3 X3.3879 Y3.7022 I0.0284 J-0.0107
G3 X3.3879 Y3.7009 I0.0421 J-0.0013
G3 X3.3895 Y3.6893 I0.0422 J0
G3 X3.395 Y3.6776 I0.0396 J0.0114
G3 X3.4015 Y3.6707 I0.0235 J0.0159
G2 X3.404 Y3.6687 I-0.0374 J-0.0501
G3 X3.4117 Y3.6643 I0.0168 J0.0202
G3 X3.4244 Y3.6618 I0.0144 J0.0388
G3 X3.4377 Y3.6632 I0.0018 J0.0449
G3 X3.4479 Y3.6678 I-0.0087 J0.0331
G3 X3.4556 Y3.6747 I-0.0168 J0.0264
G3 X3.4621 Y3.6861 I-0.0328 J0.0262
G3 X3.4649 Y3.6994 I-0.0428 J0.0162
G3 X3.465 Y3.7019 I-0.0403 J0.0025
G3 X3.4645 Y3.7082 I-0.0404 J0
G1 Z-0.075 F25
G1 X3.4592 Y3.7212 F25
G3 X3.4549 Y3.7267 I-0.0295 J-0.0187
G3 X3.4465 Y3.7334 I-0.0294 J-0.0282
G3 X3.4367 Y3.7377 I-0.0214 J-0.0354
G3 X3.4268 Y3.7392 I-0.0103 J-0.0355
G3 X3.4158 Y3.7376 I-0.0008 J-0.035
G3 X3.4042 Y3.732 I0.0123 J-0.0401
G3 X3.3952 Y3.7234 I0.0222 J-0.0322
G3 X3.3909 Y3.715 I0.0225 J-0.0169
G2 X3.3898 Y3.712 I-0.0596 J0.019
G3 X3.3879 Y3.7022 I0.0284 J-0.0107
G3 X3.3879 Y3.7009 I0.0421 J-0.0013
G3 X3.3895 Y3.6893 I0.0422 J0
G3 X3.395 Y3.6776 I0.0396 J0.0114
G3 X3.4015 Y3.6707 I0.0235 J0.0159
G2 X3.404 Y3.6687 I-0.0374 J-0.0501
G3 X3.4117 Y3.6643 I0.0168 J0.0202
G3 X3.4244 Y3.6618 I0.0144 J0.0388
G3 X3.4377 Y3.6632 I0.0018 J0.0449
G3 X3.4479 Y3.6678 I-0.0087 J0.0331
G3 X3.4556 Y3.6747 I-0.0168 J0.0264
G3 X3.4621 Y3.6861 I-0.0328 J0.0262
G3 X3.4649 Y3.6994 I-0.0428 J0.0162
G3 X3.465 Y3.7019 I-0.0403 J0.0025
G3 X3.4645 Y3.7082 I-0.0404 J0
G1 Z-0.1 F25
G1 X3.4592 Y3.7212 F25
G3 X3.4549 Y3.7267 I-0.0295 J-0.0187
G3 X3.4465 Y3.7334 I-0.0294 J-0.0282
G3 X3.4367 Y3.7377 I-0.0214 J-0.0354
G3 X3.4268 Y3.7392 I-0.0103 J-0.0355
G3 X3.4158 Y3.7376 I-0.0008 J-0.035
G3 X3.4042 Y3.732 I0.0123 J-0.0401
G3 X3.3952 Y3.7234 I0.0222 J-0.0322
G3 X3.3909 Y3.715 I0.0225 J-0.0169
G2 X3.3898 Y3.712 I-0.0596 J0.019
G3 X3.3879 Y3.7022 I0.0284 J-0.0107
G3 X3.3879 Y3.7009 I0.0421 J-0.0013
G3 X3.3895 Y3.6893 I0.0422 J0
G3 X3.395 Y3.6776 I0.0396 J0.0114
G3 X3.4015 Y3.6707 I0.0235 J0.0159
G2 X3.404 Y3.6687 I-0.0374 J-0.0501
G3 X3.4117 Y3.6643 I0.0168 J0.0202
G3 X3.4244 Y3.6618 I0.0144 J0.0388
G3 X3.4377 Y3.6632 I0.0018 J0.0449
G3 X3.4479 Y3.6678 I-0.0087 J0.0331
G3 X3.4556 Y3.6747 I-0.0168 J0.0264
G3 X3.4621 Y3.6861 I-0.0328 J0.0262
G3 X3.4649 Y3.6994 I-0.0428 J0.0162
G3 X3.465 Y3.7019 I-0.0403 J0.0025
G3 X3.4645 Y3.7082 I-0.0404 J0
G1 Z-0.125 F25
G1 X3.4592 Y3.7212 F25
G3 X3.4549 Y3.7267 I-0.0295 J-0.0187
G3 X3.4465 Y3.7334 I-0.0294 J-0.0282
G3 X3.4367 Y3.7377 I-0.0214 J-0.0354
G3 X3.4268 Y3.7392 I-0.0103 J-0.0355
G3 X3.4158 Y3.7376 I-0.0008 J-0.035
G3 X3.4042 Y3.732 I0.0123 J-0.0401
G3 X3.3952 Y3.7234 I0.0222 J-0.0322
G3 X3.3909 Y3.715 I0.0225 J-0.0169
G2 X3.3898 Y3.712 I-0.0596 J0.019
G3 X3.3879 Y3.7022 I0.0284 J-0.0107
G3 X3.3879 Y3.7009 I0.0421 J-0.0013
G3 X3.3895 Y3.6893 I0.0422 J0
G3 X3.395 Y3.6776 I0.0396 J0.0114
G3 X3.4015 Y3.6707 I0.0235 J0.0159
G2 X3.404 Y3.6687 I-0.0374 J-0.0501
G3 X3.4117 Y3.6643 I0.0168 J0.0202
G3 X3.4244 Y3.6618 I0.0144 J0.0388
G3 X3.4377 Y3.6632 I0.0018 J0.0449
G3 X3.4479 Y3.6678 I-0.0087 J0.0331
G3 X3.4556 Y3.6747 I-0.0168 J0.0264
G3 X3.4621 Y3.6861 I-0.0328 J0.0262
G3 X3.4649 Y3.6994 I-0.0428 J0.0162
G3 X3.465 Y3.7019 I-0.0403 J0.0025
G3 X3.4645 Y3.7082 I-0.0404 J0
G1 Z-0.15 F25
G1 X3.4592 Y3.7212 F25
G3 X3.4549 Y3.7267 I-0.0295 J-0.0187
G3 X3.4465 Y3.7334 I-0.0294 J-0.0282
G3 X3.4367 Y3.7377 I-0.0214 J-0.0354
G3 X3.4268 Y3.7392 I-0.0103 J-0.0355
G3 X3.4158 Y3.7376 I-0.0008 J-0.035
G3 X3.4042 Y3.732 I0.0123 J-0.0401
G3 X3.3952 Y3.7234 I0.0222 J-0.0322
G3 X3.3909 Y3.715 I0.0225 J-0.0169
G2 X3.3898 Y3.712 I-0.0596 J0.019
G3 X3.3879 Y3.7022 I0.0284 J-0.0107
G3 X3.3879 Y3.7009 I0.0421 J-0.0013
G3 X3.3895 Y3.6893 I0.0422 J0
G3 X3.395 Y3.6776 I0.0396 J0.0114
G3 X3.4015 Y3.6707 I0.0235 J0.0159
G2 X3.404 Y3.6687 I-0.0374 J-0.0501
G3 X3.4117 Y3.6643 I0.0168 J0.0202
G3 X3.4244 Y3.6618 I0.0144 J0.0388
G3 X3.4377 Y3.6632 I0.0018 J0.0449
G3 X3.4479 Y3.6678 I-0.0087 J0.0331
G3 X3.4556 Y3.6747 I-0.0168 J0.0264
G3 X3.4621 Y3.6861 I-0.0328 J0.0262
G3 X3.4649 Y3.6994 I-0.0428 J0.0162
G3 X3.465 Y3.7019 I-0.0403 J0.0025
G3 X3.4645 Y3.7082 I-0.0404 J0
G1 Z-0.175 F25
G1 X3.4592 Y3.7212 F25
G3 X3.4549 Y3.7267 I-0.0295 J-0.0187
G3 X3.4465 Y3.7334 I-0.0294 J-0.0282
G3 X3.4367 Y3.7377 I-0.0214 J-0.0354
G3 X3.4268 Y3.7392 I-0.0103 J-0.0355
G3 X3.4158 Y3.7376 I-0.0008 J-0.035
G3 X3.4042 Y3.732 I0.0123 J-0.0401
G3 X3.3952 Y3.7234 I0.0222 J-0.0322
G3 X3.3909 Y3.715 I0.0225 J-0.0169
G2 X3.3898 Y3.712 I-0.0596 J0.019
G3 X3.3879 Y3.7022 I0.0284 J-0.0107
G3 X3.3879 Y3.7009 I0.0421 J-0.0013
G3 X3.3895 Y3.6893 I0.0422 J0
G3 X3.395 Y3.6776 I0.0396 J0.0114
G3 X3.4015 Y3.6707 I0.0235 J0.0159
G2 X3.404 Y3.6687 I-0.0374 J-0.0501
G3 X3.4117 Y3.6643 I0.0168 J0.0202
G3 X3.4244 Y3.6618 I0.0144 J0.0388
G3 X3.4377 Y3.6632 I0.0018 J0.0449
G3 X3.4479 Y3.6678 I-0.0087 J0.0331
G3 X3.4556 Y3.6747 I-0.0168 J0.0264
G3 X3.4621 Y3.6861 I-0.0328 J0.0262
G3 X3.4649 Y3.6994 I-0.0428 J0.0162
G3 X3.465 Y3.7019 I-0.0403 J0.0025
G3 X3.4645 Y3.7082 I-0.0404 J0
G1 Z-0.2 F25
G1 X3.4592 Y3.7212 F25
G3 X3.4549 Y3.7267 I-0.0295 J-0.0187
G3 X3.4465 Y3.7334 I-0.0294 J-0.0282
G3 X3.4367 Y3.7377 I-0.0214 J-0.0354
G3 X3.4268 Y3.7392 I-0.0103 J-0.0355
G3 X3.4158 Y3.7376 I-0.0008 J-0.035
G3 X3.4042 Y3.732 I0.0123 J-0.0401
G3 X3.3952 Y3.7234 I0.0222 J-0.0322
G3 X3.3909 Y3.715 I0.0225 J-0.0169
G2 X3.3898 Y3.712 I-0.0596 J0.019
G3 X3.3879 Y3.7022 I0.0284 J-0.0107
G3 X3.3879 Y3.7009 I0.0421 J-0.0013
G3 X3.3895 Y3.6893 I0.0422 J0
G3 X3.395 Y3.6776 I0.0396 J0.0114
G3 X3.4015 Y3.6707 I0.0235 J0.0159
G2 X3.404 Y3.6687 I-0.0374 J-0.0501
G3 X3.4117 Y3.6643 I0.0168 J0.0202
G3 X3.4244 Y3.6618 I0.0144 J0.0388
G3 X3.4377 Y3.6632 I0.0018 J0.0449
G3 X3.4479 Y3.6678 I-0.0087 J0.0331
G3 X3.4556 Y3.6747 I-0.0168 J0.0264
G3 X3.4621 Y3.6861 I-0.0328 J0.0262
G3 X3.4649 Y3.6994 I-0.0428 J0.0162
G3 X3.465 Y3.7019 I-0.0403 J0.0025
G3 X3.4645 Y3.7082 I-0.0404 J0
G1 Z-0.225 F25
G1 X3.4592 Y3.7212 F25
G3 X3.4549 Y3.7267 I-0.0295 J-0.0187
G3 X3.4465 Y3.7334 I-0.0294 J-0.0282
G3 X3.4367 Y3.7377 I-0.0214 J-0.0354
G3 X3.4268 Y3.7392 I-0.0103 J-0.0355
G3 X3.4158 Y3.7376 I-0.0008 J-0.035
G3 X3.4042 Y3.732 I0.0123 J-0.0401
G3 X3.3952 Y3.7234 I0.0222 J-0.0322
G3 X3.3909 Y3.715 I0.0225 J-0.0169
G2 X3.3898 Y3.712 I-0.0596 J0.019
G3 X3.3879 Y3.7022 I0.0284 J-0.0107
G3 X3.3879 Y3.7009 I0.0421 J-0.0013
G3 X3.3895 Y3.6893 I0.0422 J0
G3 X3.395 Y3.6776 I0.0396 J0.0114
G3 X3.4015 Y3.6707 I0.0235 J0.0159
G2 X3.404 Y3.6687 I-0.0374 J-0.0501
G3 X3.4117 Y3.6643 I0.0168 J0.0202
G3 X3.4244 Y3.6618 I0.0144 J0.0388
G3 X3.4377 Y3.6632 I0.0018 J0.0449
G3 X3.4479 Y3.6678 I-0.0087 J0.0331
G3 X3.4556 Y3.6747 I-0.0168 J0.0264
G3 X3.4621 Y3.6861 I-0.0328 J0.0262
G3 X3.4649 Y3.6994 I-0.0428 J0.0162
G3 X3.465 Y3.7019 I-0.0403 J0.0025
G3 X3.4645 Y3.7082 I-0.0404 J0
G1 Z-0.25 F25
G1 X3.4592 Y3.7212 F25
G3 X3.4549 Y3.7267 I-0.0295 J-0.0187
G3 X3.4465 Y3.7334 I-0.0294 J-0.0282
G3 X3.4367 Y3.7377 I-0.0214 J-0.0354
G3 X3.4268 Y3.7392 I-0.0103 J-0.0355
G3 X3.4158 Y3.7376 I-0.0008 J-0.035
G3 X3.4042 Y3.732 I0.0123 J-0.0401
G3 X3.3952 Y3.7234 I0.0222 J-0.0322
G3 X3.3909 Y3.715 I0.0225 J-0.0169
G2 X3.3898 Y3.712 I-0.0596 J0.019
G3 X3.3879 Y3.7022 I0.0284 J-0.0107
G3 X3.3879 Y3.7009 I0.0421 J-0.0013
G3 X3.3895 Y3.6893 I0.0422 J0
G3 X3.395 Y3.6776 I0.0396 J0.0114
G3 X3.4015 Y3.6707 I0.0235 J0.0159
G2 X3.404 Y3.6687 I-0.0374 J-0.0501
G3 X3.4117 Y3.6643 I0.0168 J0.0202
G3 X3.4244 Y3.6618 I0.0144 J0.0388
G3 X3.4377 Y3.6632 I0.0018 J0.0449
G3 X3.4479 Y3.6678 I-0.0087 J0.0331
G3 X3.4556 Y3.6747 I-0.0168 J0.0264
G3 X3.4621 Y3.6861 I-0.0328 J0.0262
G3 X3.4649 Y3.6994 I-0.0428 J0.0162
G3 X3.465 Y3.7019 I-0.0403 J0.0025
G3 X3.4645 Y3.7082 I-0.0404 J0
G1 Z-0.275 F25
G1 X3.4592 Y3.7212 F25
G3 X3.4549 Y3.7267 I-0.0295 J-0.0187
G3 X3.4465 Y3.7334 I-0.0294 J-0.0282
G3 X3.4367 Y3.7377 I-0.0214 J-0.0354
G3 X3.4268 Y3.7392 I-0.0103 J-0.0355
G3 X3.4158 Y3.7376 I-0.0008 J-0.035
G3 X3.4042 Y3.732 I0.0123 J-0.0401
G3 X3.3952 Y3.7234 I0.0222 J-0.0322
G3 X3.3909 Y3.715 I0.0225 J-0.0169
G2 X3.3898 Y3.712 I-0.0596 J0.019
G3 X3.3879 Y3.7022 I0.0284 J-0.0107
G3 X3.3879 Y3.7009 I0.0421 J-0.0013
G3 X3.3895 Y3.6893 I0.0422 J0
G3 X3.395 Y3.6776 I0.0396 J0.0114
G3 X3.4015 Y3.6707 I0.0235 J0.0159
G2 X3.404 Y3.6687 I-0.0374 J-0.0501
G3 X3.4117 Y3.6643 I0.0168 J0.0202
G3 X3.4244 Y3.6618 I0.0144 J0.0388
G3 X3.4377 Y3.6632 I0.0018 J0.0449
G3 X3.4479 Y3.6678 I-0.0087 J0.0331
G3 X3.4556 Y3.6747 I-0.0168 J0.0264
G3 X3.4621 Y3.6861 I-0.0328 J0.0262
G3 X3.4649 Y3.6994 I-0.0428 J0.0162
G3 X3.465 Y3.7019 I-0.0403 J0.0025
G3 X3.4645 Y3.7082 I-0.0404 J0
G1 Z-0.3 F25
G1 X3.4592 Y3.7212 F25
G3 X3.4549 Y3.7267 I-0.0295 J-0.0187
G3 X3.4465 Y3.7334 I-0.0294 J-0.0282
G3 X3.4367 Y3.7377 I-0.0214 J-0.0354
G3 X3.4268 Y3.7392 I-0.0103 J-0.0355
G3 X3.4158 Y3.7376 I-0.0008 J-0.035
G3 X3.4042 Y3.732 I0.0123 J-0.0401
G3 X3.3952 Y3.7234 I0.0222 J-0.0322
G3 X3.3909 Y3.715 I0.0225 J-0.0169
G2 X3.3898 Y3.712 I-0.0596 J0.019
G3 X3.3879 Y3.7022 I0.0284 J-0.0107
G3 X3.3879 Y3.7009 I0.0421 J-0.0013
G3 X3.3895 Y3.6893 I0.0422 J0
G3 X3.395 Y3.6776 I0.0396 J0.0114
G3 X3.4015 Y3.6707 I0.0235 J0.0159
G2 X3.404 Y3.6687 I-0.0374 J-0.0501
G3 X3.4117 Y3.6643 I0.0168 J0.0202
G3 X3.4244 Y3.6618 I0.0144 J0.0388
G3 X3.4377 Y3.6632 I0.0018 J0.0449
G3 X3.4479 Y3.6678 I-0.0087 J0.0331
G3 X3.4556 Y3.6747 I-0.0168 J0.0264
G3 X3.4621 Y3.6861 I-0.0328 J0.0262
G3 X3.4649 Y3.6994 I-0.0428 J0.0162
G3 X3.465 Y3.7019 I-0.0403 J0.0025
G3 X3.4645 Y3.7082 I-0.0404 J0
G1 Z-0.325 F25
G1 X3.4592 Y3.7212 F25
G3 X3.4549 Y3.7267 I-0.0295 J-0.0187
G3 X3.4465 Y3.7334 I-0.0294 J-0.0282
G3 X3.4367 Y3.7377 I-0.0214 J-0.0354
G3 X3.4268 Y3.7392 I-0.0103 J-0.0355
G3 X3.4158 Y3.7376 I-0.0008 J-0.035
G3 X3.4042 Y3.732 I0.0123 J-0.0401
G3 X3.3952 Y3.7234 I0.0222 J-0.0322
G3 X3.3909 Y3.715 I0.0225 J-0.0169
G2 X3.3898 Y3.712 I-0.0596 J0.019
G3 X3.3879 Y3.7022 I0.0284 J-0.0107
G3 X3.3879 Y3.7009 I0.0421 J-0.0013
G3 X3.3895 Y3.6893 I0.0422 J0
G3 X3.395 Y3.6776 I0.0396 J0.0114
G3 X3.4015 Y3.6707 I0.0235 J0.0159
G2 X3.404 Y3.6687 I-0.0374 J-0.0501
G3 X3.4117 Y3.6643 I0.0168 J0.0202
G3 X3.4244 Y3.6618 I0.0144 J0.0388
G3 X3.4377 Y3.6632 I0.0018 J0.0449
G3 X3.4479 Y3.6678 I-0.0087 J0.0331
G3 X3.4556 Y3.6747 I-0.0168 J0.0264
G3 X3.4621 Y3.6861 I-0.0328 J0.0262
G3 X3.4649 Y3.6994 I-0.0428 J0.0162
G3 X3.465 Y3.7019 I-0.0403 J0.0025
G3 X3.4645 Y3.7082 I-0.0404 J0
G1 Z-0.35 F25
G1 X3.4592 Y3.7212 F25
G3 X3.4549 Y3.7267 I-0.0295 J-0.0187
G3 X3.4465 Y3.7334 I-0.0294 J-0.0282
G3 X3.4367 Y3.7377 I-0.0214 J-0.0354
G3 X3.4268 Y3.7392 I-0.0103 J-0.0355
G3 X3.4158 Y3.7376 I-0.0008 J-0.035
G3 X3.4042 Y3.732 I0.0123 J-0.0401
G3 X3.3952 Y3.7234 I0.0222 J-0.0322
G3 X3.3909 Y3.715 I0.0225 J-0.0169
G2 X3.3898 Y3.712 I-0.0596 J0.019
G3 X3.3879 Y3.7022 I0.0284 J-0.0107
G3 X3.3879 Y3.7009 I0.0421 J-0.0013
G3 X3.3895 Y3.6893 I0.0422 J0
G3 X3.395 Y3.6776 I0.0396 J0.0114
G3 X3.4015 Y3.6707 I0.0235 J0.0159
G2 X3.404 Y3.6687 I-0.0374 J-0.0501
G3 X3.4117 Y3.6643 I0.0168 J0.0202
G3 X3.4244 Y3.6618 I0.0144 J0.0388
G3 X3.4377 Y3.6632 I0.0018 J0.0449
G3 X3.4479 Y3.6678 I-0.0087 J0.0331
G3 X3.4556 Y3.6747 I-0.0168 J0.0264
G3 X3.4621 Y3.6861 I-0.0328 J0.0262
G3 X3.4649 Y3.6994 I-0.0428 J0.0162
G3 X3.465 Y3.7019 I-0.0403 J0.0025
G3 X3.4645 Y3.7082 I-0.0404 J0
G1 Z-0.375 F25
G1 X3.4592 Y3.7212 F25
G3 X3.4549 Y3.7267 I-0.0295 J-0.0187
G3 X3.4465 Y3.7334 I-0.0294 J-0.0282
G3 X3.4367 Y3.7377 I-0.0214 J-0.0354
G3 X3.4268 Y3.7392 I-0.0103 J-0.0355
G3 X3.4158 Y3.7376 I-0.0008 J-0.035
G3 X3.4042 Y3.732 I0.0123 J-0.0401
G3 X3.3952 Y3.7234 I0.0222 J-0.0322
G3 X3.3909 Y3.715 I0.0225 J-0.0169
G2 X3.3898 Y3.712 I-0.0596 J0.019
G3 X3.3879 Y3.7022 I0.0284 J-0.0107
G3 X3.3879 Y3.7009 I0.0421 J-0.0013
G3 X3.3895 Y3.6893 I0.0422 J0
G3 X3.395 Y3.6776 I0.0396 J0.0114
G3 X3.4015 Y3.6707 I0.0235 J0.0159
G2 X3.404 Y3.6687 I-0.0374 J-0.0501
G3 X3.4117 Y3.6643 I0.0168 J0.0202
G3 X3.4244 Y3.6618 I0.0144 J0.0388
G3 X3.4377 Y3.6632 I0.0018 J0.0449
G3 X3.4479 Y3.6678 I-0.0087 J0.0331
G3 X3.4556 Y3.6747 I-0.0168 J0.0264
G3 X3.4621 Y3.6861 I-0.0328 J0.0262
G3 X3.4649 Y3.6994 I-0.0428 J0.0162
G3 X3.465 Y3.7019 I-0.0403 J0.0025
G3 X3.4645 Y3.7082 I-0.0404 J0
G1 Z-0.4 F25
G1 X3.4592 Y3.7212 F25
G3 X3.4549 Y3.7267 I-0.0295 J-0.0187
G3 X3.4465 Y3.7334 I-0.0294 J-0.0282
G3 X3.4367 Y3.7377 I-0.0214 J-0.0354
G3 X3.4268 Y3.7392 I-0.0103 J-0.0355
G3 X3.4158 Y3.7376 I-0.0008 J-0.035
G3 X3.4042 Y3.732 I0.0123 J-0.0401
G3 X3.3952 Y3.7234 I0.0222 J-0.0322
G3 X3.3909 Y3.715 I0.0225 J-0.0169
G2 X3.3898 Y3.712 I-0.0596 J0.019
G3 X3.3879 Y3.7022 I0.0284 J-0.0107
G3 X3.3879 Y3.7009 I0.0421 J-0.0013
G3 X3.3895 Y3.6893 I0.0422 J0
G3 X3.395 Y3.6776 I0.0396 J0.0114
G3 X3.4015 Y3.6707 I0.0235 J0.0159
G2 X3.404 Y3.6687 I-0.0374 J-0.0501
G3 X3.4117 Y3.6643 I0.0168 J0.0202
G3 X3.4244 Y3.6618 I0.0144 J0.0388
G3 X3.4377 Y3.6632 I0.0018 J0.0449
G3 X3.4479 Y3.6678 I-0.0087 J0.0331
G3 X3.4556 Y3.6747 I-0.0168 J0.0264
G3 X3.4621 Y3.6861 I-0.0328 J0.0262
G3 X3.4649 Y3.6994 I-0.0428 J0.0162
G3 X3.465 Y3.7019 I-0.0403 J0.0025
G3 X3.4645 Y3.7082 I-0.0404 J0
G1 Z-0.425 F25
G1 X3.4592 Y3.7212 F25
G3 X3.4549 Y3.7267 I-0.0295 J-0.0187
G3 X3.4465 Y3.7334 I-0.0294 J-0.0282
G3 X3.4367 Y3.7377 I-0.0214 J-0.0354
G3 X3.4268 Y3.7392 I-0.0103 J-0.0355
G3 X3.4158 Y3.7376 I-0.0008 J-0.035
G3 X3.4042 Y3.732 I0.0123 J-0.0401
G3 X3.3952 Y3.7234 I0.0222 J-0.0322
G3 X3.3909 Y3.715 I0.0225 J-0.0169
G2 X3.3898 Y3.712 I-0.0596 J0.019
G3 X3.3879 Y3.7022 I0.0284 J-0.0107
G3 X3.3879 Y3.7009 I0.0421 J-0.0013
G3 X3.3895 Y3.6893 I0.0422 J0
G3 X3.395 Y3.6776 I0.0396 J0.0114
G3 X3.4015 Y3.6707 I0.0235 J0.0159
G2 X3.404 Y3.6687 I-0.0374 J-0.0501
G3 X3.4117 Y3.6643 I0.0168 J0.0202
G3 X3.4244 Y3.6618 I0.0144 J0.0388
G3 X3.4377 Y3.6632 I0.0018 J0.0449
G3 X3.4479 Y3.6678 I-0.0087 J0.0331
G3 X3.4556 Y3.6747 I-0.0168 J0.0264
G3 X3.4621 Y3.6861 I-0.0328 J0.0262
G3 X3.4649 Y3.6994 I-0.0428 J0.0162
G3 X3.465 Y3.7019 I-0.0403 J0.0025
G3 X3.4645 Y3.7082 I-0.0404 J0
G1 Z-0.45 F25
G1 X3.4592 Y3.7212 F25
G3 X3.4549 Y3.7267 I-0.0295 J-0.0187
G3 X3.4465 Y3.7334 I-0.0294 J-0.0282
G3 X3.4367 Y3.7377 I-0.0214 J-0.0354
G3 X3.4268 Y3.7392 I-0.0103 J-0.0355
G3 X3.4158 Y3.7376 I-0.0008 J-0.035
G3 X3.4042 Y3.732 I0.0123 J-0.0401
G3 X3.3952 Y3.7234 I0.0222 J-0.0322
G3 X3.3909 Y3.715 I0.0225 J-0.0169
G2 X3.3898 Y3.712 I-0.0596 J0.019
G3 X3.3879 Y3.7022 I0.0284 J-0.0107
G3 X3.3879 Y3.7009 I0.0421 J-0.0013
G3 X3.3895 Y3.6893 I0.0422 J0
G3 X3.395 Y3.6776 I0.0396 J0.0114
G3 X3.4015 Y3.6707 I0.0235 J0.0159
G2 X3.404 Y3.6687 I-0.0374 J-0.0501
G3 X3.4117 Y3.6643 I0.0168 J0.0202
G3 X3.4244 Y3.6618 I0.0144 J0.0388
G3 X3.4377 Y3.6632 I0.0018 J0.0449
G3 X3.4479 Y3.6678 I-0.0087 J0.0331
G3 X3.4556 Y3.6747 I-0.0168 J0.0264
G3 X3.4621 Y3.6861 I-0.0328 J0.0262
G3 X3.4649 Y3.6994 I-0.0428 J0.0162
G3 X3.465 Y3.7019 I-0.0403 J0.0025
G3 X3.4645 Y3.7082 I-0.0404 J0
G1 Z-0.475 F25
G1 X3.4592 Y3.7212 F25
G3 X3.4549 Y3.7267 I-0.0295 J-0.0187
G3 X3.4465 Y3.7334 I-0.0294 J-0.0282
G3 X3.4367 Y3.7377 I-0.0214 J-0.0354
G3 X3.4268 Y3.7392 I-0.0103 J-0.0355
G3 X3.4158 Y3.7376 I-0.0008 J-0.035
G3 X3.4042 Y3.732 I0.0123 J-0.0401
G3 X3.3952 Y3.7234 I0.0222 J-0.0322
G3 X3.3909 Y3.715 I0.0225 J-0.0169
G2 X3.3898 Y3.712 I-0.0596 J0.019
G3 X3.3879 Y3.7022 I0.0284 J-0.0107
G3 X3.3879 Y3.7009 I0.0421 J-0.0013
G3 X3.3895 Y3.6893 I0.0422 J0
G3 X3.395 Y3.6776 I0.0396 J0.0114
G3 X3.4015 Y3.6707 I0.0235 J0.0159
G2 X3.404 Y3.6687 I-0.0374 J-0.0501
G3 X3.4117 Y3.6643 I0.0168 J0.0202
G3 X3.4244 Y3.6618 I0.0144 J0.0388
G3 X3.4377 Y3.6632 I0.0018 J0.0449
G3 X3.4479 Y3.6678 I-0.0087 J0.0331
G3 X3.4556 Y3.6747 I-0.0168 J0.0264
G3 X3.4621 Y3.6861 I-0.0328 J0.0262
G3 X3.4649 Y3.6994 I-0.0428 J0.0162
G3 X3.465 Y3.7019 I-0.0403 J0.0025
G3 X3.4645 Y3.7082 I-0.0404 J0
G1 Z-0.5 F25
G1 X3.4592 Y3.7212 F25
G3 X3.4549 Y3.7267 I-0.0295 J-0.0187
G3 X3.4465 Y3.7334 I-0.0294 J-0.0282
G3 X3.4367 Y3.7377 I-0.0214 J-0.0354
G3 X3.4268 Y3.7392 I-0.0103 J-0.0355
G3 X3.4158 Y3.7376 I-0.0008 J-0.035
G3 X3.4042 Y3.732 I0.0123 J-0.0401
G3 X3.3952 Y3.7234 I0.0222 J-0.0322
G3 X3.3909 Y3.715 I0.0225 J-0.0169
G2 X3.3898 Y3.712 I-0.0596 J0.019
G3 X3.3879 Y3.7022 I0.0284 J-0.0107
G3 X3.3879 Y3.7009 I0.0421 J-0.0013
G3 X3.3895 Y3.6893 I0.0422 J0
G3 X3.395 Y3.6776 I0.0396 J0.0114
G3 X3.4015 Y3.6707 I0.0235 J0.0159
G2 X3.404 Y3.6687 I-0.0374 J-0.0501
G3 X3.4117 Y3.6643 I0.0168 J0.0202
G3 X3.4244 Y3.6618 I0.0144 J0.0388
G3 X3.4377 Y3.6632 I0.0018 J0.0449
G3 X3.4479 Y3.6678 I-0.0087 J0.0331
G3 X3.4556 Y3.6747 I-0.0168 J0.0264
G3 X3.4621 Y3.6861 I-0.0328 J0.0262
G3 X3.4649 Y3.6994 I-0.0428 J0.0162
G3 X3.465 Y3.7019 I-0.0403 J0.0025
G3 X3.4645 Y3.7082 I-0.0404 J0
G1 Z-0.52 F25
G1 X3.4592 Y3.7212 F25
G3 X3.4549 Y3.7267 I-0.0295 J-0.0187
G3 X3.4465 Y3.7334 I-0.0294 J-0.0282
G3 X3.4367 Y3.7377 I-0.0214 J-0.0354
G3 X3.4268 Y3.7392 I-0.0103 J-0.0355
G3 X3.4158 Y3.7376 I-0.0008 J-0.035
G3 X3.4042 Y3.732 I0.0123 J-0.0401
G3 X3.3952 Y3.7234 I0.0222 J-0.0322
G3 X3.3909 Y3.715 I0.0225 J-0.0169
G2 X3.3898 Y3.712 I-0.0596 J0.019
G3 X3.3879 Y3.7022 I0.0284 J-0.0107
G3 X3.3879 Y3.7009 I0.0421 J-0.0013
G3 X3.3895 Y3.6893 I0.0422 J0
G3 X3.395 Y3.6776 I0.0396 J0.0114
G3 X3.4015 Y3.6707 I0.0235 J0.0159
G2 X3.404 Y3.6687 I-0.0374 J-0.0501
G3 X3.4117 Y3.6643 I0.0168 J0.0202
G3 X3.4244 Y3.6618 I0.0144 J0.0388
G3 X3.4377 Y3.6632 I0.0018 J0.0449
G3 X3.4479 Y3.6678 I-0.0087 J0.0331
G3 X3.4556 Y3.6747 I-0.0168 J0.0264
G3 X3.4621 Y3.6861 I-0.0328 J0.0262
G3 X3.4649 Y3.6994 I-0.0428 J0.0162
G3 X3.465 Y3.7019 I-0.0403 J0.0025
G3 X3.4645 Y3.7082 I-0.0404 J0

(pocket 8-0)
G0 Z0.25
G0 X3.3817 Y3.7556
G1 Z-0.025 F25
G3 X3.3646 Y3.7363 I0.0499 J-0.0614 F25
G3 X3.3573 Y3.7185 I0.0473 J-0.0298
G2 X3.3565 Y3.715 I-0.1343 J0.0294
G3 X3.3551 Y3.705 I0.048 J-0.0118
G3 X3.3551 Y3.7022 I0.0756 J-0.0029
G3 X3.356 Y3.6907 I0.0757 J0
G3 X3.3596 Y3.6756 I0.0932 J0.0143
G3 X3.3627 Y3.6671 I0.1184 J0.0389
G1 X3.3668 Y3.6618
G2 X3.3711 Y3.6559 I-0.1091 J-0.0837
G3 X3.3775 Y3.6483 I0.0391 J0.0269
G3 X3.3881 Y3.6401 I0.0462 J0.0487
G3 X3.4007 Y3.6338 I0.0403 J0.0643
G3 X3.4132 Y3.6301 I0.0289 J0.074
G3 X3.4271 Y3.6291 I0.0132 J0.091
G3 X3.4409 Y3.6304 I-0.0006 J0.0785
G3 X3.4533 Y3.634 I-0.0123 J0.0658
G3 X3.462 Y3.6385 I-0.0176 J0.0444
G2 X3.4666 Y3.6414 I0.0756 J-0.1149
G3 X3.4805 Y3.6536 I-0.0274 J0.0455
G3 X3.4931 Y3.676 I-0.061 J0.0491
G3 X3.4978 Y3.7012 I-0.0736 J0.0268
G3 X3.4978 Y3.7022 I-0.0533 J0.001
G3 X3.495 Y3.7195 I-0.0533 J0
G2 X3.4933 Y3.7247 I0.13 J0.0447
G3 X3.4853 Y3.7409 I-0.0509 J-0.0153
G3 X3.4677 Y3.7582 I-0.0624 J-0.0457
G3 X3.4455 Y3.7691 I-0.0449 J-0.0632
G3 X3.4275 Y3.7715 I-0.0157 J-0.0512
G2 X3.4218 Y3.7713 I-0.0057 J0.1374
G3 X3.4038 Y3.7681 I0 J-0.052
G3 X3.3817 Y3.7556 I0.0267 J-0.0726
G1 X3.3344 Y3.8138 F25
G3 X3.3011 Y3.7762 I0.0972 J-0.1196 F25
G3 X3.2841 Y3.7345 I0.1108 J-0.0697
G2 X3.2837 Y3.7329 I-0.0611 J0.0133
G3 X3.2802 Y3.7079 I0.1208 J-0.0297
G3 X3.2801 Y3.7022 I0.1506 J-0.0057
G3 X3.2818 Y3.6793 I0.1507 J0
G3 X3.2883 Y3.6522 I0.1673 J0.0258
G3 X3.2978 Y3.6285 I0.1896 J0.0623
G1 X3.3073 Y3.6162
G2 X3.3092 Y3.6135 I-0.0496 J-0.038
G3 X3.3259 Y3.5939 I0.101 J0.0693
G3 X3.3483 Y3.5766 I0.0978 J0.1031
G3 X3.3734 Y3.564 I0.0801 J0.1279
G3 X3.4 Y3.5562 I0.0563 J0.1438
G3 X3.4277 Y3.5541 I0.0264 J0.1649
G3 X3.4546 Y3.5567 I-0.0012 J0.1534
G3 X3.481 Y3.5643 I-0.026 J0.1395
G3 X3.5032 Y3.5759 I-0.0453 J0.1141
G2 X3.5053 Y3.5772 I0.0343 J-0.0522
G3 X3.5389 Y3.6066 I-0.0661 J0.1098
G3 X3.5636 Y3.6503 I-0.1194 J0.0962
G3 X3.5728 Y3.6997 I-0.1441 J0.0524
G3 X3.5728 Y3.7022 I-0.1283 J0.0025
G3 X3.5659 Y3.7439 I-0.1283 J0
G2 X3.5651 Y3.7463 I0.0591 J0.0203
G3 X3.5458 Y3.7852 I-0.1228 J-0.0368
G3 X3.5112 Y3.8193 I-0.1229 J-0.09
G3 X3.4675 Y3.8408 I-0.0884 J-0.1243
G3 X3.4244 Y3.8464 I-0.0378 J-0.1229
G2 X3.4218 Y3.8463 I-0.0026 J0.0624
G3 X3.378 Y3.8385 I0 J-0.127
G3 X3.3344 Y3.8138 I0.0525 J-0.143
G0 Z0.25
G0 X3.3817 Y3.7556
G1 Z-0.05 F25
G3 X3.3646 Y3.7363 I0.0499 J-0.0614 F25
G3 X3.3573 Y3.7185 I0.0473 J-0.0298
G2 X3.3565 Y3.715 I-0.1343 J0.0294
G3 X3.3551 Y3.705 I0.048 J-0.0118
G3 X3.3551 Y3.7022 I0.0756 J-0.0029
G3 X3.356 Y3.6907 I0.0757 J0
G3 X3.3596 Y3.6756 I0.0932 J0.0143
G3 X3.3627 Y3.6671 I0.1184 J0.0389
G1 X3.3668 Y3.6618
G2 X3.3711 Y3.6559 I-0.1091 J-0.0837
G3 X3.3775 Y3.6483 I0.0391 J0.0269
G3 X3.3881 Y3.6401 I0.0462 J0.0487
G3 X3.4007 Y3.6338 I0.0403 J0.0643
G3 X3.4132 Y3.6301 I0.0289 J0.074
G3 X3.4271 Y3.6291 I0.0132 J0.091
G3 X3.4409 Y3.6304 I-0.0006 J0.0785
G3 X3.4533 Y3.634 I-0.0123 J0.0658
G3 X3.462 Y3.6385 I-0.0176 J0.0444
G2 X3.4666 Y3.6414 I0.0756 J-0.1149
G3 X3.4805 Y3.6536 I-0.0274 J0.0455
G3 X3.4931 Y3.676 I-0.061 J0.0491
G3 X3.4978 Y3.7012 I-0.0736 J0.0268
G3 X3.4978 Y3.7022 I-0.0533 J0.001
G3 X3.495 Y3.7195 I-0.0533 J0
G2 X3.4933 Y3.7247 I0.13 J0.0447
G3 X3.4853 Y3.7409 I-0.0509 J-0.0153
G3 X3.4677 Y3.7582 I-0.0624 J-0.0457
G3 X3.4455 Y3.7691 I-0.0449 J-0.0632
G3 X3.4275 Y3.7715 I-0.0157 J-0.0512
G2 X3.4218 Y3.7713 I-0.0057 J0.1374
G3 X3.4038 Y3.7681 I0 J-0.052
G3 X3.3817 Y3.7556 I0.0267 J-0.0726
G1 X3.3344 Y3.8138 F25
G3 X3.3011 Y3.7762 I0.0972 J-0.1196 F25
G3 X3.2841 Y3.7345 I0.1108 J-0.0697
G2 X3.2837 Y3.7329 I-0.0611 J0.0133
G3 X3.2802 Y3.7079 I0.1208 J-0.0297
G3 X3.2801 Y3.7022 I0.1506 J-0.0057
G3 X3.2818 Y3.6793 I0.1507 J0
G3 X3.2883 Y3.6522 I0.1673 J0.0258
G3 X3.2978 Y3.6285 I0.1896 J0.0623
G1 X3.3073 Y3.6162
G2 X3.3092 Y3.6135 I-0.0496 J-0.038
G3 X3.3259 Y3.5939 I0.101 J0.0693
G3 X3.3483 Y3.5766 I0.0978 J0.1031
G3 X3.3734 Y3.564 I0.0801 J0.1279
G3 X3.4 Y3.5562 I0.0563 J0.1438
G3 X3.4277 Y3.5541 I0.0264 J0.1649
G3 X3.4546 Y3.5567 I-0.0012 J0.1534
G3 X3.481 Y3.5643 I-0.026 J0.1395
G3 X3.5032 Y3.5759 I-0.0453 J0.1141
G2 X3.5053 Y3.5772 I0.0343 J-0.0522
G3 X3.5389 Y3.6066 I-0.0661 J0.1098
G3 X3.5636 Y3.6503 I-0.1194 J0.0962
G3 X3.5728 Y3.6997 I-0.1441 J0.0524
G3 X3.5728 Y3.7022 I-0.1283 J0.0025
G3 X3.5659 Y3.7439 I-0.1283 J0
G2 X3.5651 Y3.7463 I0.0591 J0.0203
G3 X3.5458 Y3.7852 I-0.1228 J-0.0368
G3 X3.5112 Y3.8193 I-0.1229 J-0.09
G3 X3.4675 Y3.8408 I-0.0884 J-0.1243
G3 X3.4244 Y3.8464 I-0.0378 J-0.1229
G2 X3.4218 Y3.8463 I-0.0026 J0.0624
G3 X3.378 Y3.8385 I0 J-0.127
G3 X3.3344 Y3.8138 I0.0525 J-0.143
G0 Z0.25
G0 X3.3817 Y3.7556
G1 Z-0.075 F25
G3 X3.3646 Y3.7363 I0.0499 J-0.0614 F25
G3 X3.3573 Y3.7185 I0.0473 J-0.0298
G2 X3.3565 Y3.715 I-0.1343 J0.0294
G3 X3.3551 Y3.705 I0.048 J-0.0118
G3 X3.3551 Y3.7022 I0.0756 J-0.0029
G3 X3.356 Y3.6907 I0.0757 J0
G3 X3.3596 Y3.6756 I0.0932 J0.0143
G3 X3.3627 Y3.6671 I0.1184 J0.0389
G1 X3.3668 Y3.6618
G2 X3.3711 Y3.6559 I-0.1091 J-0.0837
G3 X3.3775 Y3.6483 I0.0391 J0.0269
G3 X3.3881 Y3.6401 I0.0462 J0.0487
G3 X3.4007 Y3.6338 I0.0403 J0.0643
G3 X3.4132 Y3.6301 I0.0289 J0.074
G3 X3.4271 Y3.6291 I0.0132 J0.091
G3 X3.4409 Y3.6304 I-0.0006 J0.0785
G3 X3.4533 Y3.634 I-0.0123 J0.0658
G3 X3.462 Y3.6385 I-0.0176 J0.0444
G2 X3.4666 Y3.6414 I0.0756 J-0.1149
G3 X3.4805 Y3.6536 I-0.0274 J0.0455
G3 X3.4931 Y3.676 I-0.061 J0.0491
G3 X3.4978 Y3.7012 I-0.0736 J0.0268
G3 X3.4978 Y3.7022 I-0.0533 J0.001
G3 X3.495 Y3.7195 I-0.0533 J0
G2 X3.4933 Y3.7247 I0.13 J0.0447
G3 X3.4853 Y3.7409 I-0.0509 J-0.0153
G3 X3.4677 Y3.7582 I-0.0624 J-0.0457
G3 X3.4455 Y3.7691 I-0.0449 J-0.0632
G3 X3.4275 Y3.7715 I-0.0157 J-0.0512
G2 X3.4218 Y3.7713 I-0.0057 J0.1374
G3 X3.4038 Y3.7681 I0 J-0.052
G3 X3.3817 Y3.7556 I0.0267 J-0.0726
G1 X3.3344 Y3.8138 F25
G3 X3.3011 Y3.7762 I0.0972 J-0.1196 F25
G3 X3.2841 Y3.7345 I0.1108 J-0.0697
G2 X3.2837 Y3.7329 I-0.0611 J0.0133
G3 X3.2802 Y3.7079 I0.1208 J-0.0297
G3 X3.2801 Y3.7022 I0.1506 J-0.0057
G3 X3.2818 Y3.6793 I0.1507 J0
G3 X3.2883 Y3.6522 I0.1673 J0.0258
G3 X3.2978 Y3.6285 I0.1896 J0.0623
G1 X3.3073 Y3.6162
G2 X3.3092 Y3.6135 I-0.0496 J-0.038
G3 X3.3259 Y3.5939 I0.101 J0.0693
G3 X3.3483 Y3.5766 I0.0978 J0.1031
G3 X3.3734 Y3.564 I0.0801 J0.1279
G3 X3.4 Y3.5562 I0.0563 J0.1438
G3 X3.4277 Y3.5541 I0.0264 J0.1649
G3 X3.4546 Y3.5567 I-0.0012 J0.1534
G3 X3.481 Y3.5643 I-0.026 J0.1395
G3 X3.5032 Y3.5759 I-0.0453 J0.1141
G2 X3.5053 Y3.5772 I0.0343 J-0.0522
G3 X3.5389 Y3.6066 I-0.0661 J0.1098
G3 X3.5636 Y3.6503 I-0.1194 J0.0962
G3 X3.5728 Y3.6997 I-0.1441 J0.0524
G3 X3.5728 Y3.7022 I-0.1283 J0.0025
G3 X3.5659 Y3.7439 I-0.1283 J0
G2 X3.5651 Y3.7463 I0.0591 J0.0203
G3 X3.5458 Y3.7852 I-0.1228 J-0.0368
G3 X3.5112 Y3.8193 I-0.1229 J-0.09
G3 X3.4675 Y3.8408 I-0.0884 J-0.1243
G3 X3.4244 Y3.8464 I-0.0378 J-0.1229
G2 X3.4218 Y3.8463 I-0.0026 J0.0624
G3 X3.378 Y3.8385 I0 J-0.127
G3 X3.3344 Y3.8138 I0.0525 J-0.143
G0 Z0.25
G0 X3.3817 Y3.7556
G1 Z-0.1 F25
G3 X3.3646 Y3.7363 I0.0499 J-0.0614 F25
G3 X3.3573 Y3.7185 I0.0473 J-0.0298
G2 X3.3565 Y3.715 I-0.1343 J0.0294
G3 X3.3551 Y3.705 I0.048 J-0.0118
G3 X3.3551 Y3.7022 I0.0756 J-0.0029
G3 X3.356 Y3.6907 I0.0757 J0
G3 X3.3596 Y3.6756 I0.0932 J0.0143
G3 X3.3627 Y3.6671 I0.1184 J0.0389
G1 X3.3668 Y3.6618
G2 X3.3711 Y3.6559 I-0.1091 J-0.0837
G3 X3.3775 Y3.6483 I0.0391 J0.0269
G3 X3.3881 Y3.6401 I0.0462 J0.0487
G3 X3.4007 Y3.6338 I0.0403 J0.0643
G3 X3.4132 Y3.6301 I0.0289 J0.074
G3 X3.4271 Y3.6291 I0.0132 J0.091
G3 X3.4409 Y3.6304 I-0.0006 J0.0785
G3 X3.4533 Y3.634 I-0.0123 J0.0658
G3 X3.462 Y3.6385 I-0.0176 J0.0444
G2 X3.4666 Y3.6414 I0.0756 J-0.1149
G3 X3.4805 Y3.6536 I-0.0274 J0.0455
G3 X3.4931 Y3.676 I-0.061 J0.0491
G3 X3.4978 Y3.7012 I-0.0736 J0.0268
G3 X3.4978 Y3.7022 I-0.0533 J0.001
G3 X3.495 Y3.7195 I-0.0533 J0
G2 X3.4933 Y3.7247 I0.13 J0.0447
G3 X3.4853 Y3.7409 I-0.0509 J-0.0153
G3 X3.4677 Y3.7582 I-0.0624 J-0.0457
G3 X3.4455 Y3.7691 I-0.0449 J-0.0632
G3 X3.4275 Y3.7715 I-0.0157 J-0.0512
G2 X3.4218 Y3.7713 I-0.0057 J0.1374
G3 X3.4038 Y3.7681 I0 J-0.052
G3 X3.3817 Y3.7556 I0.0267 J-0.0726
G1 X3.3344 Y3.8138 F25
G3 X3.3011 Y3.7762 I0.0972 J-0.1196 F25
G3 X3.2841 Y3.7345 I0.1108 J-0.0697
G2 X3.2837 Y3.7329 I-0.0611 J0.0133
G3 X3.2802 Y3.7079 I0.1208 J-0.0297
G3 X3.2801 Y3.7022 I0.1506 J-0.0057
G3 X3.2818 Y3.6793 I0.1507 J0
G3 X3.2883 Y3.6522 I0.1673 J0.0258
G3 X3.2978 Y3.6285 I0.1896 J0.0623
G1 X3.3073 Y3.6162
G2 X3.3092 Y3.6135 I-0.0496 J-0.038
G3 X3.3259 Y3.5939 I0.101 J0.0693
G3 X3.3483 Y3.5766 I0.0978 J0.1031
G3 X3.3734 Y3.564 I0.0801 J0.1279
G3 X3.4 Y3.5562 I0.0563 J0.1438
G3 X3.4277 Y3.5541 I0.0264 J0.1649
G3 X3.4546 Y3.5567 I-0.0012 J0.1534
G3 X3.481 Y3.5643 I-0.026 J0.1395
G3 X3.5032 Y3.5759 I-0.0453 J0.1141
G2 X3.5053 Y3.5772 I0.0343 J-0.0522
G3 X3.5389 Y3.6066 I-0.0661 J0.1098
G3 X3.5636 Y3.6503 I-0.1194 J0.0962
G3 X3.5728 Y3.6997 I-0.1441 J0.0524
G3 X3.5728 Y3.7022 I-0.1283 J0.0025
G3 X3.5659 Y3.7439 I-0.1283 J0
G2 X3.5651 Y3.7463 I0.0591 J0.0203
G3 X3.5458 Y3.7852 I-0.1228 J-0.0368
G3 X3.5112 Y3.8193 I-0.1229 J-0.09
G3 X3.4675 Y3.8408 I-0.0884 J-0.1243
G3 X3.4244 Y3.8464 I-0.0378 J-0.1229
G2 X3.4218 Y3.8463 I-0.0026 J0.0624
G3 X3.378 Y3.8385 I0 J-0.127
G3 X3.3344 Y3.8138 I0.0525 J-0.143
G0 Z0.25
G0 X3.3817 Y3.7556
G1 Z-0.125 F25
G3 X3.3646 Y3.7363 I0.0499 J-0.0614 F25
G3 X3.3573 Y3.7185 I0.0473 J-0.0298
G2 X3.3565 Y3.715 I-0.1343 J0.0294
G3 X3.3551 Y3.705 I0.048 J-0.0118
G3 X3.3551 Y3.7022 I0.0756 J-0.0029
G3 X3.356 Y3.6907 I0.0757 J0
G3 X3.3596 Y3.6756 I0.0932 J0.0143
G3 X3.3627 Y3.6671 I0.1184 J0.0389
G1 X3.3668 Y3.6618
G2 X3.3711 Y3.6559 I-0.1091 J-0.0837
G3 X3.3775 Y3.6483 I0.0391 J0.0269
G3 X3.3881 Y3.6401 I0.0462 J0.0487
G3 X3.4007 Y3.6338 I0.0403 J0.0643
G3 X3.4132 Y3.6301 I0.0289 J0.074
G3 X3.4271 Y3.6291 I0.0132 J0.091
G3 X3.4409 Y3.6304 I-0.0006 J0.0785
G3 X3.4533 Y3.634 I-0.0123 J0.0658
G3 X3.462 Y3.6385 I-0.0176 J0.0444
G2 X3.4666 Y3.6414 I0.0756 J-0.1149
G3 X3.4805 Y3.6536 I-0.0274 J0.0455
G3 X3.4931 Y3.676 I-0.061 J0.0491
G3 X3.4978 Y3.7012 I-0.0736 J0.0268
G3 X3.4978 Y3.7022 I-0.0533 J0.001
G3 X3.495 Y3.7195 I-0.0533 J0
G2 X3.4933 Y3.7247 I0.13 J0.0447
G3 X3.4853 Y3.7409 I-0.0509 J-0.0153
G3 X3.4677 Y3.7582 I-0.0624 J-0.0457
G3 X3.4455 Y3.7691 I-0.0449 J-0.0632
G3 X3.4275 Y3.7715 I-0.0157 J-0.0512
G2 X3.4218 Y3.7713 I-0.0057 J0.1374
G3 X3.4038 Y3.7681 I0 J-0.052
G3 X3.3817 Y3.7556 I0.0267 J-0.0726
G1 X3.3344 Y3.8138 F25
G3 X3.3011 Y3.7762 I0.0972 J-0.1196 F25
G3 X3.2841 Y3.7345 I0.1108 J-0.0697
G2 X3.2837 Y3.7329 I-0.0611 J0.0133
G3 X3.2802 Y3.7079 I0.1208 J-0.0297
G3 X3.2801 Y3.7022 I0.1506 J-0.0057
G3 X3.2818 Y3.6793 I0.1507 J0
G3 X3.2883 Y3.6522 I0.1673 J0.0258
G3 X3.2978 Y3.6285 I0.1896 J0.0623
G1 X3.3073 Y3.6162
G2 X3.3092 Y3.6135 I-0.0496 J-0.038
G3 X3.3259 Y3.5939 I0.101 J0.0693
G3 X3.3483 Y3.5766 I0.0978 J0.1031
G3 X3.3734 Y3.564 I0.0801 J0.1279
G3 X3.4 Y3.5562 I0.0563 J0.1438
G3 X3.4277 Y3.5541 I0.0264 J0.1649
G3 X3.4546 Y3.5567 I-0.0012 J0.1534
G3 X3.481 Y3.5643 I-0.026 J0.1395
G3 X3.5032 Y3.5759 I-0.0453 J0.1141
G2 X3.5053 Y3.5772 I0.0343 J-0.0522
G3 X3.5389 Y3.6066 I-0.0661 J0.1098
G3 X3.5636 Y3.6503 I-0.1194 J0.0962
G3 X3.5728 Y3.6997 I-0.1441 J0.0524
G3 X3.5728 Y3.7022 I-0.1283 J0.0025
G3 X3.5659 Y3.7439 I-0.1283 J0
G2 X3.5651 Y3.7463 I0.0591 J0.0203
G3 X3.5458 Y3.7852 I-0.1228 J-0.0368
G3 X3.5112 Y3.8193 I-0.1229 J-0.09
G3 X3.4675 Y3.8408 I-0.0884 J-0.1243
G3 X3.4244 Y3.8464 I-0.0378 J-0.1229
G2 X3.4218 Y3.8463 I-0.0026 J0.0624
G3 X3.378 Y3.8385 I0 J-0.127
G3 X3.3344 Y3.8138 I0.0525 J-0.143
G0 Z0.25
G0 X3.3817 Y3.7556
G1 Z-0.15 F25
G3 X3.3646 Y3.7363 I0.0499 J-0.0614 F25
G3 X3.3573 Y3.7185 I0.0473 J-0.0298
G2 X3.3565 Y3.715 I-0.1343 J0.0294
G3 X3.3551 Y3.705 I0.048 J-0.0118
G3 X3.3551 Y3.7022 I0.0756 J-0.0029
G3 X3.356 Y3.6907 I0.0757 J0
G3 X3.3596 Y3.6756 I0.0932 J0.0143
G3 X3.3627 Y3.6671 I0.1184 J0.0389
G1 X3.3668 Y3.6618
G2 X3.3711 Y3.6559 I-0.1091 J-0.0837
G3 X3.3775 Y3.6483 I0.0391 J0.0269
G3 X3.3881 Y3.6401 I0.0462 J0.0487
G3 X3.4007 Y3.6338 I0.0403 J0.0643
G3 X3.4132 Y3.6301 I0.0289 J0.074
G3 X3.4271 Y3.6291 I0.0132 J0.091
G3 X3.4409 Y3.6304 I-0.0006 J0.0785
G3 X3.4533 Y3.634 I-0.0123 J0.0658
G3 X3.462 Y3.6385 I-0.0176 J0.0444
G2 X3.4666 Y3.6414 I0.0756 J-0.1149
G3 X3.4805 Y3.6536 I-0.0274 J0.0455
G3 X3.4931 Y3.676 I-0.061 J0.0491
G3 X3.4978 Y3.7012 I-0.0736 J0.0268
G3 X3.4978 Y3.7022 I-0.0533 J0.001
G3 X3.495 Y3.7195 I-0.0533 J0
G2 X3.4933 Y3.7247 I0.13 J0.0447
G3 X3.4853 Y3.7409 I-0.0509 J-0.0153
G3 X3.4677 Y3.7582 I-0.0624 J-0.0457
G3 X3.4455 Y3.7691 I-0.0449 J-0.0632
G3 X3.4275 Y3.7715 I-0.0157 J-0.0512
G2 X3.4218 Y3.7713 I-0.0057 J0.1374
G3 X3.4038 Y3.7681 I0 J-0.052
G3 X3.3817 Y3.7556 I0.0267 J-0.0726
G1 X3.3344 Y3.8138 F25
G3 X3.3011 Y3.7762 I0.0972 J-0.1196 F25
G3 X3.2841 Y3.7345 I0.1108 J-0.0697
G2 X3.2837 Y3.7329 I-0.0611 J0.0133
G3 X3.2802 Y3.7079 I0.1208 J-0.0297
G3 X3.2801 Y3.7022 I0.1506 J-0.0057
G3 X3.2818 Y3.6793 I0.1507 J0
G3 X3.2883 Y3.6522 I0.1673 J0.0258
G3 X3.2978 Y3.6285 I0.1896 J0.0623
G1 X3.3073 Y3.6162
G2 X3.3092 Y3.6135 I-0.0496 J-0.038
G3 X3.3259 Y3.5939 I0.101 J0.0693
G3 X3.3483 Y3.5766 I0.0978 J0.1031
G3 X3.3734 Y3.564 I0.0801 J0.1279
G3 X3.4 Y3.5562 I0.0563 J0.1438
G3 X3.4277 Y3.5541 I0.0264 J0.1649
G3 X3.4546 Y3.5567 I-0.0012 J0.1534
G3 X3.481 Y3.5643 I-0.026 J0.1395
G3 X3.5032 Y3.5759 I-0.0453 J0.1141
G2 X3.5053 Y3.5772 I0.0343 J-0.0522
G3 X3.5389 Y3.6066 I-0.0661 J0.1098
G3 X3.5636 Y3.6503 I-0.1194 J0.0962
G3 X3.5728 Y3.6997 I-0.1441 J0.0524
G3 X3.5728 Y3.7022 I-0.1283 J0.0025
G3 X3.5659 Y3.7439 I-0.1283 J0
G2 X3.5651 Y3.7463 I0.0591 J0.0203
G3 X3.5458 Y3.7852 I-0.1228 J-0.0368
G3 X3.5112 Y3.8193 I-0.1229 J-0.09
G3 X3.4675 Y3.8408 I-0.0884 J-0.1243
G3 X3.4244 Y3.8464 I-0.0378 J-0.1229
G2 X3.4218 Y3.8463 I-0.0026 J0.0624
G3 X3.378 Y3.8385 I0 J-0.127
G3 X3.3344 Y3.8138 I0.0525 J-0.143

(pocket 8-1)
G0 Z0.25
G0 X3.4711 Y4.4324
G1 Z-0.025 F25
G3 X3.4881 Y4.4517 I-0.0499 J0.0614 F25
G3 X3.4954 Y4.4695 I-0.0473 J0.0298
G2 X3.4962 Y4.473 I0.1343 J-0.0294
G3 X3.4976 Y4.483 I-0.048 J0.0118
G3 X3.4977 Y4.4858 I-0.0756 J0.0029
G3 X3.4968 Y4.4973 I-0.0757 J0
G3 X3.4932 Y4.5124 I-0.0932 J-0.0143
G3 X3.4901 Y4.5208 I-0.1184 J-0.0389
G1 X3.486 Y4.5261
G2 X3.4817 Y4.5321 I0.1091 J0.0837
G3 X3.4752 Y4.5396 I-0.0392 J-0.0269
G3 X3.4647 Y4.5478 I-0.0462 J-0.0487
G3 X3.452 Y4.5542 I-0.0403 J-0.0643
G3 X3.4396 Y4.5579 I-0.0289 J-0.0739
G3 X3.4256 Y4.5589 I-0.0133 J-0.0909
G3 X3.4119 Y4.5576 I0.0006 J-0.0784
G3 X3.3994 Y4.554 I0.0123 J-0.0658
G3 X3.3908 Y4.5495 I0.0176 J-0.0444
G2 X3.3862 Y4.5466 I-0.0756 J0.1149
G3 X3.3722 Y4.5344 I0.0274 J-0.0455
G3 X3.3596 Y4.512 I0.061 J-0.0491
G3 X3.3549 Y4.4868 I0.0736 J-0.0268
G3 X3.3549 Y4.4858 I0.0533 J-0.001
G3 X3.3578 Y4.4685 I0.0533 J0
G2 X3.3595 Y4.4633 I-0.13 J-0.0446
G3 X3.3675 Y4.4471 I0.051 J0.0153
G3 X3.3851 Y4.4298 I0.0624 J0.0457
G3 X3.4073 Y4.4189 I0.0449 J0.0632
G3 X3.4252 Y4.4165 I0.0157 J0.0512
G2 X3.431 Y4.4167 I0.0058 J-0.1374
G3 X3.4489 Y4.4198 I0 J0.052
G3 X3.4711 Y4.4324 I-0.0267 J0.0726
G1 X3.5184 Y4.3742 F25
G3 X3.5516 Y4.4118 I-0.0972 J0.1196 F25
G3 X3.5687 Y4.4535 I-0.1108 J0.0697
G2 X3.5691 Y4.4551 I0.0611 J-0.0133
G3 X3.5726 Y4.4801 I-0.1208 J0.0297
G3 X3.5727 Y4.4858 I-0.1506 J0.0057
G3 X3.5709 Y4.5087 I-0.1507 J0
G3 X3.5644 Y4.5358 I-0.1673 J-0.0258
G3 X3.5549 Y4.5595 I-0.1897 J-0.0623
G1 X3.5455 Y4.5718
G2 X3.5436 Y4.5745 I0.0496 J0.038
G3 X3.5269 Y4.594 I-0.1011 J-0.0693
G3 X3.5045 Y4.6114 I-0.0978 J-0.1031
G3 X3.4794 Y4.624 I-0.0801 J-0.1279
G3 X3.4527 Y4.6318 I-0.0562 J-0.1437
G3 X3.4251 Y4.6339 I-0.0264 J-0.1648
G3 X3.3981 Y4.6313 I0.0012 J-0.1534
G3 X3.3717 Y4.6237 I0.026 J-0.1395
G3 X3.3496 Y4.6121 I0.0453 J-0.1141
G2 X3.3475 Y4.6108 I-0.0343 J0.0522
G3 X3.3138 Y4.5814 I0.0662 J-0.1098
G3 X3.2892 Y4.5377 I0.1194 J-0.0962
G3 X3.28 Y4.4883 I0.1441 J-0.0524
G3 X3.2799 Y4.4858 I0.1283 J-0.0025
G3 X3.2869 Y4.4441 I0.1283 J0
G2 X3.2876 Y4.4417 I-0.0591 J-0.0203
G3 X3.307 Y4.4028 I0.1228 J0.0368
G3 X3.3416 Y4.3687 I0.1229 J0.09
G3 X3.3852 Y4.3472 I0.0884 J0.1243
G3 X3.4284 Y4.3416 I0.0378 J0.1229
G2 X3.431 Y4.3417 I0.0026 J-0.0624
G3 X3.4748 Y4.3494 I0 J0.127
G3 X3.5184 Y4.3742 I-0.0525 J0.143
G0 Z0.25
G0 X3.4711 Y4.4324
G1 Z-0.05 F25
G3 X3.4881 Y4.4517 I-0.0499 J0.0614 F25
G3 X3.4954 Y4.4695 I-0.0473 J0.0298
G2 X3.4962 Y4.473 I0.1343 J-0.0294
G3 X3.4976 Y4.483 I-0.048 J0.0118
G3 X3.4977 Y4.4858 I-0.0756 J0.0029
G3 X3.4968 Y4.4973 I-0.0757 J0
G3 X3.4932 Y4.5124 I-0.0932 J-0.0143
G3 X3.4901 Y4.5208 I-0.1184 J-0.0389
G1 X3.486 Y4.5261
G2 X3.4817 Y4.5321 I0.1091 J0.0837
G3 X3.4752 Y4.5396 I-0.0392 J-0.0269
G3 X3.4647 Y4.5478 I-0.0462 J-0.0487
G3 X3.452 Y4.5542 I-0.0403 J-0.0643
G3 X3.4396 Y4.5579 I-0.0289 J-0.0739
G3 X3.4256 Y4.5589 I-0.0133 J-0.0909
G3 X3.4119 Y4.5576 I0.0006 J-0.0784
G3 X3.3994 Y4.554 I0.0123 J-0.0658
G3 X3.3908 Y4.5495 I0.0176 J-0.0444
G2 X3.3862 Y4.5466 I-0.0756 J0.1149
G3 X3.3722 Y4.5344 I0.0274 J-0.0455
G3 X3.3596 Y4.512 I0.061 J-0.0491
G3 X3.3549 Y4.4868 I0.0736 J-0.0268
G3 X3.3549 Y4.4858 I0.0533 J-0.001
G3 X3.3578 Y4.4685 I0.0533 J0
G2 X3.3595 Y4.4633 I-0.13 J-0.0446
G3 X3.3675 Y4.4471 I0.051 J0.0153
G3 X3.3851 Y4.4298 I0.0624 J0.0457
G3 X3.4073 Y4.4189 I0.0449 J0.0632
G3 X3.4252 Y4.4165 I0.0157 J0.0512
G2 X3.431 Y4.4167 I0.0058 J-0.1374
G3 X3.4489 Y4.4198 I0 J0.052
G3 X3.4711 Y4.4324 I-0.0267 J0.0726
G1 X3.5184 Y4.3742 F25
G3 X3.5516 Y4.4118 I-0.0972 J0.1196 F25
G3 X3.5687 Y4.4535 I-0.1108 J0.0697
G2 X3.5691 Y4.4551 I0.0611 J-0.0133
G3 X3.5726 Y4.4801 I-0.1208 J0.0297
G3 X3.5727 Y4.4858 I-0.1506 J0.0057
G3 X3.5709 Y4.5087 I-0.1507 J0
G3 X3.5644 Y4.5358 I-0.1673 J-0.0258
G3 X3.5549 Y4.5595 I-0.1897 J-0.0623
G1 X3.5455 Y4.5718
G2 X3.5436 Y4.5745 I0.0496 J0.038
G3 X3.5269 Y4.594 I-0.1011 J-0.0693
G3 X3.5045 Y4.6114 I-0.0978 J-0.1031
G3 X3.4794 Y4.624 I-0.0801 J-0.1279
G3 X3.4527 Y4.6318 I-0.0562 J-0.1437
G3 X3.4251 Y4.6339 I-0.0264 J-0.1648
G3 X3.3981 Y4.6313 I0.0012 J-0.1534
G3 X3.3717 Y4.6237 I0.026 J-0.1395
G3 X3.3496 Y4.6121 I0.0453 J-0.1141
G2 X3.3475 Y4.6108 I-0.0343 J0.0522
G3 X3.3138 Y4.5814 I0.0662 J-0.1098
G3 X3.2892 Y4.5377 I0.1194 J-0.0962
G3 X3.28 Y4.4883 I0.1441 J-0.0524
G3 X3.2799 Y4.4858 I0.1283 J-0.0025
G3 X3.2869 Y4.4441 I0.1283 J0
G2 X3.2876 Y4.4417 I-0.0591 J-0.0203
G3 X3.307 Y4.4028 I0.1228 J0.0368
G3 X3.3416 Y4.3687 I0.1229 J0.09
G3 X3.3852 Y4.3472 I0.0884 J0.1243
G3 X3.4284 Y4.3416 I0.0378 J0.1229
G2 X3.431 Y4.3417 I0.0026 J-0.0624
G3 X3.4748 Y4.3494 I0 J0.127
G3 X3.5184 Y4.3742 I-0.0525 J0.143
G0 Z0.25
G0 X3.4711 Y4.4324
G1 Z-0.075 F25
G3 X3.4881 Y4.4517 I-0.0499 J0.0614 F25
G3 X3.4954 Y4.4695 I-0.0473 J0.0298
G2 X3.4962 Y4.473 I0.1343 J-0.0294
G3 X3.4976 Y4.483 I-0.048 J0.0118
G3 X3.4977 Y4.4858 I-0.0756 J0.0029
G3 X3.4968 Y4.4973 I-0.0757 J0
G3 X3.4932 Y4.5124 I-0.0932 J-0.0143
G3 X3.4901 Y4.5208 I-0.1184 J-0.0389
G1 X3.486 Y4.5261
G2 X3.4817 Y4.5321 I0.1091 J0.0837
G3 X3.4752 Y4.5396 I-0.0392 J-0.0269
G3 X3.4647 Y4.5478 I-0.0462 J-0.0487
G3 X3.452 Y4.5542 I-0.0403 J-0.0643
G3 X3.4396 Y4.5579 I-0.0289 J-0.0739
G3 X3.4256 Y4.5589 I-0.0133 J-0.0909
G3 X3.4119 Y4.5576 I0.0006 J-0.0784
G3 X3.3994 Y4.554 I0.0123 J-0.0658
G3 X3.3908 Y4.5495 I0.0176 J-0.0444
G2 X3.3862 Y4.5466 I-0.0756 J0.1149
G3 X3.3722 Y4.5344 I0.0274 J-0.0455
G3 X3.3596 Y4.512 I0.061 J-0.0491
G3 X3.3549 Y4.4868 I0.0736 J-0.0268
G3 X3.3549 Y4.4858 I0.0533 J-0.001
G3 X3.3578 Y4.4685 I0.0533 J0
G2 X3.3595 Y4.4633 I-0.13 J-0.0446
G3 X3.3675 Y4.4471 I0.051 J0.0153
G3 X3.3851 Y4.4298 I0.0624 J0.0457
G3 X3.4073 Y4.4189 I0.0449 J0.0632
G3 X3.4252 Y4.4165 I0.0157 J0.0512
G2 X3.431 Y4.4167 I0.0058 J-0.1374
G3 X3.4489 Y4.4198 I0 J0.052
G3 X3.4711 Y4.4324 I-0.0267 J0.0726
G1 X3.5184 Y4.3742 F25
G3 X3.5516 Y4.4118 I-0.0972 J0.1196 F25
G3 X3.5687 Y4.4535 I-0.1108 J0.0697
G2 X3.5691 Y4.4551 I0.0611 J-0.0133
G3 X3.5726 Y4.4801 I-0.1208 J0.0297
G3 X3.5727 Y4.4858 I-0.1506 J0.0057
G3 X3.5709 Y4.5087 I-0.1507 J0
G3 X3.5644 Y4.5358 I-0.1673 J-0.0258
G3 X3.5549 Y4.5595 I-0.1897 J-0.0623
G1 X3.5455 Y4.5718
G2 X3.5436 Y4.5745 I0.0496 J0.038
G3 X3.5269 Y4.594 I-0.1011 J-0.0693
G3 X3.5045 Y4.6114 I-0.0978 J-0.1031
G3 X3.4794 Y4.624 I-0.0801 J-0.1279
G3 X3.4527 Y4.6318 I-0.0562 J-0.1437
G3 X3.4251 Y4.6339 I-0.0264 J-0.1648
G3 X3.3981 Y4.6313 I0.0012 J-0.1534
G3 X3.3717 Y4.6237 I0.026 J-0.1395
G3 X3.3496 Y4.6121 I0.0453 J-0.1141
G2 X3.3475 Y4.6108 I-0.0343 J0.0522
G3 X3.3138 Y4.5814 I0.0662 J-0.1098
G3 X3.2892 Y4.5377 I0.1194 J-0.0962
G3 X3.28 Y4.4883 I0.1441 J-0.0524
G3 X3.2799 Y4.4858 I0.1283 J-0.0025
G3 X3.2869 Y4.4441 I0.1283 J0
G2 X3.2876 Y4.4417 I-0.0591 J-0.0203
G3 X3.307 Y4.4028 I0.1228 J0.0368
G3 X3.3416 Y4.3687 I0.1229 J0.09
G3 X3.3852 Y4.3472 I0.0884 J0.1243
G3 X3.4284 Y4.3416 I0.0378 J0.1229
G2 X3.431 Y4.3417 I0.0026 J-0.0624
G3 X3.4748 Y4.3494 I0 J0.127
G3 X3.5184 Y4.3742 I-0.0525 J0.143
G0 Z0.25
G0 X3.4711 Y4.4324
G1 Z-0.1 F25
G3 X3.4881 Y4.4517 I-0.0499 J0.0614 F25
G3 X3.4954 Y4.4695 I-0.0473 J0.0298
G2 X3.4962 Y4.473 I0.1343 J-0.0294
G3 X3.4976 Y4.483 I-0.048 J0.0118
G3 X3.4977 Y4.4858 I-0.0756 J0.0029
G3 X3.4968 Y4.4973 I-0.0757 J0
G3 X3.4932 Y4.5124 I-0.0932 J-0.0143
G3 X3.4901 Y4.5208 I-0.1184 J-0.0389
G1 X3.486 Y4.5261
G2 X3.4817 Y4.5321 I0.1091 J0.0837
G3 X3.4752 Y4.5396 I-0.0392 J-0.0269
G3 X3.4647 Y4.5478 I-0.0462 J-0.0487
G3 X3.452 Y4.5542 I-0.0403 J-0.0643
G3 X3.4396 Y4.5579 I-0.0289 J-0.0739
G3 X3.4256 Y4.5589 I-0.0133 J-0.0909
G3 X3.4119 Y4.5576 I0.0006 J-0.0784
G3 X3.3994 Y4.554 I0.0123 J-0.0658
G3 X3.3908 Y4.5495 I0.0176 J-0.0444
G2 X3.3862 Y4.5466 I-0.0756 J0.1149
G3 X3.3722 Y4.5344 I0.0274 J-0.0455
