(Generated by PartKam Version 0.05)

G20 G90 G40

(OUTSIDEprofile 3-0)
G0 Z0.25
T0 M6
G17
M3
G0 X4.9945 Y0.5454
G1 Z-0.03 F10
G2 X4.932 Y0.4829 I-0.0625 J0 F30
G1 X4.2358 Y0.4829
G2 X4.1733 Y0.5454 I0 J0.0625
G1 X4.1733 Y0.8062
G2 X4.1855 Y0.8432 I0.0625 J0
G2 X4.1473 Y0.8298 I-0.0387 J0.0491
G1 X3.8685 Y0.8298
G2 X3.8321 Y0.8415 I0.0001 J0.0625
G2 X3.8445 Y0.8044 I-0.0501 J-0.0374
G1 X3.8445 Y0.5454
G2 X3.782 Y0.4829 I-0.0625 J0
G1 X3.3157 Y0.4829
G2 X3.2532 Y0.5454 I0 J0.0625
G1 X3.2532 Y0.8065
G2 X3.2646 Y0.8425 I0.0625 J-0.0001
G2 X3.2271 Y0.8298 I-0.0378 J0.0498
G1 X3.0323 Y0.8298
G2 X2.996 Y0.8415 I0.0001 J0.0625
G2 X3.0084 Y0.8044 I-0.0501 J-0.0374
G1 X3.0084 Y0.5454
G2 X2.9459 Y0.4829 I-0.0625 J0
G1 X2.5282 Y0.4829
G2 X2.4657 Y0.5454 I0 J0.0625
G1 X2.4657 Y0.8068
G2 X2.4768 Y0.8424 I0.0625 J-0.0001
G2 X2.4393 Y0.8298 I-0.0377 J0.0498
G1 X2.2448 Y0.8298
G2 X2.2088 Y0.8412 I0 J0.0625
G2 X2.2209 Y0.8044 I-0.0504 J-0.037
G1 X2.2209 Y0.5454
G2 X2.1584 Y0.4829 I-0.0625 J0
G1 X1.6535 Y0.4829
G2 X1.591 Y0.5454 I0 J0.0625
G1 X1.591 Y0.8062
G2 X1.6024 Y0.842 I0.0625 J0
G2 X1.5653 Y0.8298 I-0.0372 J0.0502
G1 X1.3674 Y0.8298
G2 X1.3311 Y0.8414 I0 J0.0625
G2 X1.3431 Y0.8048 I-0.0505 J-0.0368
G1 X1.3431 Y0.5454
G2 X1.2806 Y0.4829 I-0.0625 J0
G1 X0.5226 Y0.4829
G2 X0.4601 Y0.5454 I0 J0.0625
G1 X0.4601 Y0.8577
G1 X0.4601 Y1.1077
G1 X0.4601 Y2.6949
G1 X0.4601 Y2.9449
G1 X0.4601 Y3.4159
G2 X0.5226 Y3.4784 I0.0625 J0
G1 X1.4435 Y3.4784
G2 X1.506 Y3.4159 I0 J-0.0625
G1 X1.506 Y2.6048
G2 X1.4949 Y2.5693 I-0.0625 J0.0001
G2 X1.5327 Y2.5822 I0.0381 J-0.0496
G1 X2.401 Y2.5822
G1 X2.651 Y2.5822
G1 X3.5483 Y2.5822
G2 X3.5842 Y2.5708 I0 J-0.0625
G2 X3.5719 Y2.6079 I0.0502 J0.0372
G1 X3.5719 Y3.4162
G2 X3.6344 Y3.4787 I0.0625 J0
G1 X4.9323 Y3.4787
G2 X4.9948 Y3.4162 I0 J-0.0625
G1 X4.9948 Y3.4162
G1 X4.9948 Y2.9961
G1 X4.9948 Y2.7461
G1 X4.9946 Y1.1199
G1 X4.9945 Y0.8699
G1 X4.9945 Y0.5454
G1 Z-0.06 F10
G2 X4.932 Y0.4829 I-0.0625 J0 F30
G1 X4.2358 Y0.4829
G2 X4.1733 Y0.5454 I0 J0.0625
G1 X4.1733 Y0.8062
G2 X4.1855 Y0.8432 I0.0625 J0
G2 X4.1473 Y0.8298 I-0.0387 J0.0491
G1 X3.8685 Y0.8298
G2 X3.8321 Y0.8415 I0.0001 J0.0625
G2 X3.8445 Y0.8044 I-0.0501 J-0.0374
G1 X3.8445 Y0.5454
G2 X3.782 Y0.4829 I-0.0625 J0
G1 X3.3157 Y0.4829
G2 X3.2532 Y0.5454 I0 J0.0625
G1 X3.2532 Y0.8065
G2 X3.2646 Y0.8425 I0.0625 J-0.0001
G2 X3.2271 Y0.8298 I-0.0378 J0.0498
G1 X3.0323 Y0.8298
G2 X2.996 Y0.8415 I0.0001 J0.0625
G2 X3.0084 Y0.8044 I-0.0501 J-0.0374
G1 X3.0084 Y0.5454
G2 X2.9459 Y0.4829 I-0.0625 J0
G1 X2.5282 Y0.4829
G2 X2.4657 Y0.5454 I0 J0.0625
G1 X2.4657 Y0.8068
G2 X2.4768 Y0.8424 I0.0625 J-0.0001
G2 X2.4393 Y0.8298 I-0.0377 J0.0498
G1 X2.2448 Y0.8298
G2 X2.2088 Y0.8412 I0 J0.0625
G2 X2.2209 Y0.8044 I-0.0504 J-0.037
G1 X2.2209 Y0.5454
G2 X2.1584 Y0.4829 I-0.0625 J0
G1 X1.6535 Y0.4829
G2 X1.591 Y0.5454 I0 J0.0625
G1 X1.591 Y0.8062
G2 X1.6024 Y0.842 I0.0625 J0
G2 X1.5653 Y0.8298 I-0.0372 J0.0502
G1 X1.3674 Y0.8298
G2 X1.3311 Y0.8414 I0 J0.0625
G2 X1.3431 Y0.8048 I-0.0505 J-0.0368
G1 X1.3431 Y0.5454
G2 X1.2806 Y0.4829 I-0.0625 J0
G1 X0.5226 Y0.4829
G2 X0.4601 Y0.5454 I0 J0.0625
G1 X0.4601 Y0.8577
G1 X0.4601 Y1.1077
G1 X0.4601 Y2.6949
G1 X0.4601 Y2.9449
G1 X0.4601 Y3.4159
G2 X0.5226 Y3.4784 I0.0625 J0
G1 X1.4435 Y3.4784
G2 X1.506 Y3.4159 I0 J-0.0625
G1 X1.506 Y2.6048
G2 X1.4949 Y2.5693 I-0.0625 J0.0001
G2 X1.5327 Y2.5822 I0.0381 J-0.0496
G1 X2.401 Y2.5822
G1 X2.651 Y2.5822
G1 X3.5483 Y2.5822
G2 X3.5842 Y2.5708 I0 J-0.0625
G2 X3.5719 Y2.6079 I0.0502 J0.0372
G1 X3.5719 Y3.4162
G2 X3.6344 Y3.4787 I0.0625 J0
G1 X4.9323 Y3.4787
G2 X4.9948 Y3.4162 I0 J-0.0625
G1 X4.9948 Y3.4162
G1 X4.9948 Y2.9961
G1 X4.9948 Y2.7461
G1 X4.9946 Y1.1199
G1 X4.9945 Y0.8699
G1 X4.9945 Y0.5454
G1 Z-0.09 F10
G2 X4.932 Y0.4829 I-0.0625 J0 F30
G1 X4.2358 Y0.4829
G2 X4.1733 Y0.5454 I0 J0.0625
G1 X4.1733 Y0.8062
G2 X4.1855 Y0.8432 I0.0625 J0
G2 X4.1473 Y0.8298 I-0.0387 J0.0491
G1 X3.8685 Y0.8298
G2 X3.8321 Y0.8415 I0.0001 J0.0625
G2 X3.8445 Y0.8044 I-0.0501 J-0.0374
G1 X3.8445 Y0.5454
G2 X3.782 Y0.4829 I-0.0625 J0
G1 X3.3157 Y0.4829
G2 X3.2532 Y0.5454 I0 J0.0625
G1 X3.2532 Y0.8065
G2 X3.2646 Y0.8425 I0.0625 J-0.0001
G2 X3.2271 Y0.8298 I-0.0378 J0.0498
G1 X3.0323 Y0.8298
G2 X2.996 Y0.8415 I0.0001 J0.0625
G2 X3.0084 Y0.8044 I-0.0501 J-0.0374
G1 X3.0084 Y0.5454
G2 X2.9459 Y0.4829 I-0.0625 J0
G1 X2.5282 Y0.4829
G2 X2.4657 Y0.5454 I0 J0.0625
G1 X2.4657 Y0.8068
G2 X2.4768 Y0.8424 I0.0625 J-0.0001
G2 X2.4393 Y0.8298 I-0.0377 J0.0498
G1 X2.2448 Y0.8298
G2 X2.2088 Y0.8412 I0 J0.0625
G2 X2.2209 Y0.8044 I-0.0504 J-0.037
G1 X2.2209 Y0.5454
G2 X2.1584 Y0.4829 I-0.0625 J0
G1 X1.6535 Y0.4829
G2 X1.591 Y0.5454 I0 J0.0625
G1 X1.591 Y0.8062
G2 X1.6024 Y0.842 I0.0625 J0
G2 X1.5653 Y0.8298 I-0.0372 J0.0502
G1 X1.3674 Y0.8298
G2 X1.3311 Y0.8414 I0 J0.0625
G2 X1.3431 Y0.8048 I-0.0505 J-0.0368
G1 X1.3431 Y0.5454
G2 X1.2806 Y0.4829 I-0.0625 J0
G1 X0.5226 Y0.4829
G2 X0.4601 Y0.5454 I0 J0.0625
G1 X0.4601 Y0.8577
G1 X0.4601 Y1.1077
G1 X0.4601 Y2.6949
G1 X0.4601 Y2.9449
G1 X0.4601 Y3.4159
G2 X0.5226 Y3.4784 I0.0625 J0
G1 X1.4435 Y3.4784
G2 X1.506 Y3.4159 I0 J-0.0625
G1 X1.506 Y2.6048
G2 X1.4949 Y2.5693 I-0.0625 J0.0001
G2 X1.5327 Y2.5822 I0.0381 J-0.0496
G1 X2.401 Y2.5822
G1 X2.651 Y2.5822
G1 X3.5483 Y2.5822
G2 X3.5842 Y2.5708 I0 J-0.0625
G2 X3.5719 Y2.6079 I0.0502 J0.0372
G1 X3.5719 Y3.4162
G2 X3.6344 Y3.4787 I0.0625 J0
G1 X4.9323 Y3.4787
G2 X4.9948 Y3.4162 I0 J-0.0625
G1 X4.9948 Y3.4162
G1 X4.9948 Y2.9961
G1 X4.9948 Y2.7461
G1 X4.9946 Y1.1199
G1 X4.9945 Y0.8699
G1 X4.9945 Y0.5454
G1 Z-0.12 F10
G2 X4.932 Y0.4829 I-0.0625 J0 F30
G1 X4.2358 Y0.4829
G2 X4.1733 Y0.5454 I0 J0.0625
G1 X4.1733 Y0.8062
G2 X4.1855 Y0.8432 I0.0625 J0
G2 X4.1473 Y0.8298 I-0.0387 J0.0491
G1 X3.8685 Y0.8298
G2 X3.8321 Y0.8415 I0.0001 J0.0625
G2 X3.8445 Y0.8044 I-0.0501 J-0.0374
G1 X3.8445 Y0.5454
G2 X3.782 Y0.4829 I-0.0625 J0
G1 X3.3157 Y0.4829
G2 X3.2532 Y0.5454 I0 J0.0625
G1 X3.2532 Y0.8065
G2 X3.2646 Y0.8425 I0.0625 J-0.0001
G2 X3.2271 Y0.8298 I-0.0378 J0.0498
G1 X3.0323 Y0.8298
G2 X2.996 Y0.8415 I0.0001 J0.0625
G2 X3.0084 Y0.8044 I-0.0501 J-0.0374
G1 X3.0084 Y0.5454
G2 X2.9459 Y0.4829 I-0.0625 J0
G1 X2.5282 Y0.4829
G2 X2.4657 Y0.5454 I0 J0.0625
G1 X2.4657 Y0.8068
G2 X2.4768 Y0.8424 I0.0625 J-0.0001
G2 X2.4393 Y0.8298 I-0.0377 J0.0498
G1 X2.2448 Y0.8298
G2 X2.2088 Y0.8412 I0 J0.0625
G2 X2.2209 Y0.8044 I-0.0504 J-0.037
G1 X2.2209 Y0.5454
G2 X2.1584 Y0.4829 I-0.0625 J0
G1 X1.6535 Y0.4829
G2 X1.591 Y0.5454 I0 J0.0625
G1 X1.591 Y0.8062
G2 X1.6024 Y0.842 I0.0625 J0
G2 X1.5653 Y0.8298 I-0.0372 J0.0502
G1 X1.3674 Y0.8298
G2 X1.3311 Y0.8414 I0 J0.0625
G2 X1.3431 Y0.8048 I-0.0505 J-0.0368
G1 X1.3431 Y0.5454
G2 X1.2806 Y0.4829 I-0.0625 J0
G1 X0.5226 Y0.4829
G2 X0.4601 Y0.5454 I0 J0.0625
G1 X0.4601 Y0.8577
G1 X0.4601 Y1.1077
G1 X0.4601 Y2.6949
G1 X0.4601 Y2.9449
G1 X0.4601 Y3.4159
G2 X0.5226 Y3.4784 I0.0625 J0
G1 X1.4435 Y3.4784
G2 X1.506 Y3.4159 I0 J-0.0625
G1 X1.506 Y2.6048
G2 X1.4949 Y2.5693 I-0.0625 J0.0001
G2 X1.5327 Y2.5822 I0.0381 J-0.0496
G1 X2.401 Y2.5822
G1 X2.651 Y2.5822
G1 X3.5483 Y2.5822
G2 X3.5842 Y2.5708 I0 J-0.0625
G2 X3.5719 Y2.6079 I0.0502 J0.0372
G1 X3.5719 Y3.4162
G2 X3.6344 Y3.4787 I0.0625 J0
G1 X4.9323 Y3.4787
G2 X4.9948 Y3.4162 I0 J-0.0625
G1 X4.9948 Y3.4162
G1 X4.9948 Y2.9961
G1 X4.9948 Y2.7461
G1 X4.9946 Y1.1199
G1 X4.9945 Y0.8699
G1 X4.9945 Y0.5454
G1 Z-0.15 F10
G2 X4.932 Y0.4829 I-0.0625 J0 F30
G1 X4.2358 Y0.4829
G2 X4.1733 Y0.5454 I0 J0.0625
G1 X4.1733 Y0.8062
G2 X4.1855 Y0.8432 I0.0625 J0
G2 X4.1473 Y0.8298 I-0.0387 J0.0491
G1 X3.8685 Y0.8298
G2 X3.8321 Y0.8415 I0.0001 J0.0625
G2 X3.8445 Y0.8044 I-0.0501 J-0.0374
G1 X3.8445 Y0.5454
G2 X3.782 Y0.4829 I-0.0625 J0
G1 X3.3157 Y0.4829
G2 X3.2532 Y0.5454 I0 J0.0625
G1 X3.2532 Y0.8065
G2 X3.2646 Y0.8425 I0.0625 J-0.0001
G2 X3.2271 Y0.8298 I-0.0378 J0.0498
G1 X3.0323 Y0.8298
G2 X2.996 Y0.8415 I0.0001 J0.0625
G2 X3.0084 Y0.8044 I-0.0501 J-0.0374
G1 X3.0084 Y0.5454
G2 X2.9459 Y0.4829 I-0.0625 J0
G1 X2.5282 Y0.4829
G2 X2.4657 Y0.5454 I0 J0.0625
G1 X2.4657 Y0.8068
G2 X2.4768 Y0.8424 I0.0625 J-0.0001
G2 X2.4393 Y0.8298 I-0.0377 J0.0498
G1 X2.2448 Y0.8298
G2 X2.2088 Y0.8412 I0 J0.0625
G2 X2.2209 Y0.8044 I-0.0504 J-0.037
G1 X2.2209 Y0.5454
G2 X2.1584 Y0.4829 I-0.0625 J0
G1 X1.6535 Y0.4829
G2 X1.591 Y0.5454 I0 J0.0625
G1 X1.591 Y0.8062
G2 X1.6024 Y0.842 I0.0625 J0
G2 X1.5653 Y0.8298 I-0.0372 J0.0502
G1 X1.3674 Y0.8298
G2 X1.3311 Y0.8414 I0 J0.0625
G2 X1.3431 Y0.8048 I-0.0505 J-0.0368
G1 X1.3431 Y0.5454
G2 X1.2806 Y0.4829 I-0.0625 J0
G1 X0.5226 Y0.4829
G2 X0.4601 Y0.5454 I0 J0.0625
G1 X0.4601 Y0.8577
G1 X0.4601 Y1.1077
G1 X0.4601 Y2.6949
G1 X0.4601 Y2.9449
G1 X0.4601 Y3.4159
G2 X0.5226 Y3.4784 I0.0625 J0
G1 X1.4435 Y3.4784
G2 X1.506 Y3.4159 I0 J-0.0625
G1 X1.506 Y2.6048
G2 X1.4949 Y2.5693 I-0.0625 J0.0001
G2 X1.5327 Y2.5822 I0.0381 J-0.0496
G1 X2.401 Y2.5822
G1 X2.651 Y2.5822
G1 X3.5483 Y2.5822
G2 X3.5842 Y2.5708 I0 J-0.0625
G2 X3.5719 Y2.6079 I0.0502 J0.0372
G1 X3.5719 Y3.4162
G2 X3.6344 Y3.4787 I0.0625 J0
G1 X4.9323 Y3.4787
G2 X4.9948 Y3.4162 I0 J-0.0625
G1 X4.9948 Y3.4162
G1 X4.9948 Y2.9961
G1 X4.9948 Y2.7461
G1 X4.9946 Y1.1199
G1 X4.9945 Y0.8699
G1 X4.9945 Y0.5454
G1 Z-0.18 F10
G2 X4.932 Y0.4829 I-0.0625 J0 F30
G1 X4.2358 Y0.4829
G2 X4.1733 Y0.5454 I0 J0.0625
G1 X4.1733 Y0.8062
G2 X4.1855 Y0.8432 I0.0625 J0
G2 X4.1473 Y0.8298 I-0.0387 J0.0491
G1 X3.8685 Y0.8298
G2 X3.8321 Y0.8415 I0.0001 J0.0625
G2 X3.8445 Y0.8044 I-0.0501 J-0.0374
G1 X3.8445 Y0.5454
G2 X3.782 Y0.4829 I-0.0625 J0
G1 X3.3157 Y0.4829
G2 X3.2532 Y0.5454 I0 J0.0625
G1 X3.2532 Y0.8065
G2 X3.2646 Y0.8425 I0.0625 J-0.0001
G2 X3.2271 Y0.8298 I-0.0378 J0.0498
G1 X3.0323 Y0.8298
G2 X2.996 Y0.8415 I0.0001 J0.0625
G2 X3.0084 Y0.8044 I-0.0501 J-0.0374
G1 X3.0084 Y0.5454
G2 X2.9459 Y0.4829 I-0.0625 J0
G1 X2.5282 Y0.4829
G2 X2.4657 Y0.5454 I0 J0.0625
G1 X2.4657 Y0.8068
G2 X2.4768 Y0.8424 I0.0625 J-0.0001
G2 X2.4393 Y0.8298 I-0.0377 J0.0498
G1 X2.2448 Y0.8298
G2 X2.2088 Y0.8412 I0 J0.0625
G2 X2.2209 Y0.8044 I-0.0504 J-0.037
G1 X2.2209 Y0.5454
G2 X2.1584 Y0.4829 I-0.0625 J0
G1 X1.6535 Y0.4829
G2 X1.591 Y0.5454 I0 J0.0625
G1 X1.591 Y0.8062
G2 X1.6024 Y0.842 I0.0625 J0
G2 X1.5653 Y0.8298 I-0.0372 J0.0502
G1 X1.3674 Y0.8298
G2 X1.3311 Y0.8414 I0 J0.0625
G2 X1.3431 Y0.8048 I-0.0505 J-0.0368
G1 X1.3431 Y0.5454
G2 X1.2806 Y0.4829 I-0.0625 J0
G1 X0.5226 Y0.4829
G2 X0.4601 Y0.5454 I0 J0.0625
G1 X0.4601 Y0.8577
G1 X0.4601 Y1.1077
G1 X0.4601 Y2.6949
G1 X0.4601 Y2.9449
G1 X0.4601 Y3.4159
G2 X0.5226 Y3.4784 I0.0625 J0
G1 X1.4435 Y3.4784
G2 X1.506 Y3.4159 I0 J-0.0625
G1 X1.506 Y2.6048
G2 X1.4949 Y2.5693 I-0.0625 J0.0001
G2 X1.5327 Y2.5822 I0.0381 J-0.0496
G1 X2.401 Y2.5822
G1 X2.651 Y2.5822
G1 X3.5483 Y2.5822
G2 X3.5842 Y2.5708 I0 J-0.0625
G2 X3.5719 Y2.6079 I0.0502 J0.0372
G1 X3.5719 Y3.4162
G2 X3.6344 Y3.4787 I0.0625 J0
G1 X4.9323 Y3.4787
G2 X4.9948 Y3.4162 I0 J-0.0625
G1 X4.9948 Y3.4162
G1 X4.9948 Y2.9961
G1 X4.9948 Y2.7461
G1 X4.9946 Y1.1199
G1 X4.9945 Y0.8699
G1 X4.9945 Y0.5454
G1 Z-0.21 F10
G2 X4.932 Y0.4829 I-0.0625 J0 F30
G1 X4.2358 Y0.4829
G2 X4.1733 Y0.5454 I0 J0.0625
G1 X4.1733 Y0.8062
G2 X4.1855 Y0.8432 I0.0625 J0
G2 X4.1473 Y0.8298 I-0.0387 J0.0491
G1 X3.8685 Y0.8298
G2 X3.8321 Y0.8415 I0.0001 J0.0625
G2 X3.8445 Y0.8044 I-0.0501 J-0.0374
G1 X3.8445 Y0.5454
G2 X3.782 Y0.4829 I-0.0625 J0
G1 X3.3157 Y0.4829
G2 X3.2532 Y0.5454 I0 J0.0625
G1 X3.2532 Y0.8065
G2 X3.2646 Y0.8425 I0.0625 J-0.0001
G2 X3.2271 Y0.8298 I-0.0378 J0.0498
G1 X3.0323 Y0.8298
G2 X2.996 Y0.8415 I0.0001 J0.0625
G2 X3.0084 Y0.8044 I-0.0501 J-0.0374
G1 X3.0084 Y0.5454
G2 X2.9459 Y0.4829 I-0.0625 J0
G1 X2.5282 Y0.4829
G2 X2.4657 Y0.5454 I0 J0.0625
G1 X2.4657 Y0.8068
G2 X2.4768 Y0.8424 I0.0625 J-0.0001
G2 X2.4393 Y0.8298 I-0.0377 J0.0498
G1 X2.2448 Y0.8298
G2 X2.2088 Y0.8412 I0 J0.0625
G2 X2.2209 Y0.8044 I-0.0504 J-0.037
G1 X2.2209 Y0.5454
G2 X2.1584 Y0.4829 I-0.0625 J0
G1 X1.6535 Y0.4829
G2 X1.591 Y0.5454 I0 J0.0625
G1 X1.591 Y0.8062
G2 X1.6024 Y0.842 I0.0625 J0
G2 X1.5653 Y0.8298 I-0.0372 J0.0502
G1 X1.3674 Y0.8298
G2 X1.3311 Y0.8414 I0 J0.0625
G2 X1.3431 Y0.8048 I-0.0505 J-0.0368
G1 X1.3431 Y0.5454
G2 X1.2806 Y0.4829 I-0.0625 J0
G1 X0.5226 Y0.4829
G2 X0.4601 Y0.5454 I0 J0.0625
G1 X0.4601 Y0.8577
G1 X0.4601 Y1.1077
G1 X0.4601 Y2.6949
G1 X0.4601 Y2.9449
G1 X0.4601 Y3.4159
G2 X0.5226 Y3.4784 I0.0625 J0
G1 X1.4435 Y3.4784
G2 X1.506 Y3.4159 I0 J-0.0625
G1 X1.506 Y2.6048
G2 X1.4949 Y2.5693 I-0.0625 J0.0001
G2 X1.5327 Y2.5822 I0.0381 J-0.0496
G1 X2.401 Y2.5822
G1 X2.651 Y2.5822
G1 X3.5483 Y2.5822
G2 X3.5842 Y2.5708 I0 J-0.0625
G2 X3.5719 Y2.6079 I0.0502 J0.0372
G1 X3.5719 Y3.4162
G2 X3.6344 Y3.4787 I0.0625 J0
G1 X4.9323 Y3.4787
G2 X4.9948 Y3.4162 I0 J-0.0625
G1 X4.9948 Y3.4162
G1 X4.9948 Y2.9961
G1 X4.9948 Y2.7461
G1 X4.9946 Y1.1199
G1 X4.9945 Y0.8699
G1 X4.9945 Y0.5454
G1 Z-0.24 F10
G2 X4.932 Y0.4829 I-0.0625 J0 F30
G1 X4.2358 Y0.4829
G2 X4.1733 Y0.5454 I0 J0.0625
G1 X4.1733 Y0.8062
G2 X4.1855 Y0.8432 I0.0625 J0
G2 X4.1473 Y0.8298 I-0.0387 J0.0491
G1 X3.8685 Y0.8298
G2 X3.8321 Y0.8415 I0.0001 J0.0625
G2 X3.8445 Y0.8044 I-0.0501 J-0.0374
G1 X3.8445 Y0.5454
G2 X3.782 Y0.4829 I-0.0625 J0
G1 X3.3157 Y0.4829
G2 X3.2532 Y0.5454 I0 J0.0625
G1 X3.2532 Y0.8065
G2 X3.2646 Y0.8425 I0.0625 J-0.0001
G2 X3.2271 Y0.8298 I-0.0378 J0.0498
G1 X3.0323 Y0.8298
G2 X2.996 Y0.8415 I0.0001 J0.0625
G2 X3.0084 Y0.8044 I-0.0501 J-0.0374
G1 X3.0084 Y0.5454
G2 X2.9459 Y0.4829 I-0.0625 J0
G1 X2.5282 Y0.4829
G2 X2.4657 Y0.5454 I0 J0.0625
G1 X2.4657 Y0.8068
G2 X2.4768 Y0.8424 I0.0625 J-0.0001
G2 X2.4393 Y0.8298 I-0.0377 J0.0498
G1 X2.2448 Y0.8298
G2 X2.2088 Y0.8412 I0 J0.0625
G2 X2.2209 Y0.8044 I-0.0504 J-0.037
G1 X2.2209 Y0.5454
G2 X2.1584 Y0.4829 I-0.0625 J0
G1 X1.6535 Y0.4829
G2 X1.591 Y0.5454 I0 J0.0625
G1 X1.591 Y0.8062
G2 X1.6024 Y0.842 I0.0625 J0
G2 X1.5653 Y0.8298 I-0.0372 J0.0502
G1 X1.3674 Y0.8298
G2 X1.3311 Y0.8414 I0 J0.0625
G2 X1.3431 Y0.8048 I-0.0505 J-0.0368
G1 X1.3431 Y0.5454
G2 X1.2806 Y0.4829 I-0.0625 J0
G1 X0.5226 Y0.4829
G2 X0.4601 Y0.5454 I0 J0.0625
G1 X0.4601 Y0.8577
G1 X0.4601 Y1.1077
G1 X0.4601 Y2.6949
G1 X0.4601 Y2.9449
G1 X0.4601 Y3.4159
G2 X0.5226 Y3.4784 I0.0625 J0
G1 X1.4435 Y3.4784
G2 X1.506 Y3.4159 I0 J-0.0625
G1 X1.506 Y2.6048
G2 X1.4949 Y2.5693 I-0.0625 J0.0001
G2 X1.5327 Y2.5822 I0.0381 J-0.0496
G1 X2.401 Y2.5822
G1 X2.651 Y2.5822
G1 X3.5483 Y2.5822
G2 X3.5842 Y2.5708 I0 J-0.0625
G2 X3.5719 Y2.6079 I0.0502 J0.0372
G1 X3.5719 Y3.4162
G2 X3.6344 Y3.4787 I0.0625 J0
G1 X4.9323 Y3.4787
G2 X4.9948 Y3.4162 I0 J-0.0625
G1 X4.9948 Y3.4162
G1 X4.9948 Y2.9961
G1 X4.9948 Y2.7461
G1 X4.9946 Y1.1199
G1 X4.9945 Y0.8699
G1 X4.9945 Y0.5454
G1 Z-0.27 F10
G2 X4.932 Y0.4829 I-0.0625 J0 F30
G1 X4.2358 Y0.4829
G2 X4.1733 Y0.5454 I0 J0.0625
G1 X4.1733 Y0.8062
G2 X4.1855 Y0.8432 I0.0625 J0
G2 X4.1473 Y0.8298 I-0.0387 J0.0491
G1 X3.8685 Y0.8298
G2 X3.8321 Y0.8415 I0.0001 J0.0625
G2 X3.8445 Y0.8044 I-0.0501 J-0.0374
G1 X3.8445 Y0.5454
G2 X3.782 Y0.4829 I-0.0625 J0
G1 X3.3157 Y0.4829
G2 X3.2532 Y0.5454 I0 J0.0625
G1 X3.2532 Y0.8065
G2 X3.2646 Y0.8425 I0.0625 J-0.0001
G2 X3.2271 Y0.8298 I-0.0378 J0.0498
G1 X3.0323 Y0.8298
G2 X2.996 Y0.8415 I0.0001 J0.0625
G2 X3.0084 Y0.8044 I-0.0501 J-0.0374
G1 X3.0084 Y0.5454
G2 X2.9459 Y0.4829 I-0.0625 J0
G1 X2.5282 Y0.4829
G2 X2.4657 Y0.5454 I0 J0.0625
G1 X2.4657 Y0.8068
G2 X2.4768 Y0.8424 I0.0625 J-0.0001
G2 X2.4393 Y0.8298 I-0.0377 J0.0498
G1 X2.2448 Y0.8298
G2 X2.2088 Y0.8412 I0 J0.0625
G2 X2.2209 Y0.8044 I-0.0504 J-0.037
G1 X2.2209 Y0.5454
G2 X2.1584 Y0.4829 I-0.0625 J0
G1 X1.6535 Y0.4829
G2 X1.591 Y0.5454 I0 J0.0625
G1 X1.591 Y0.8062
G2 X1.6024 Y0.842 I0.0625 J0
G2 X1.5653 Y0.8298 I-0.0372 J0.0502
G1 X1.3674 Y0.8298
G2 X1.3311 Y0.8414 I0 J0.0625
G2 X1.3431 Y0.8048 I-0.0505 J-0.0368
G1 X1.3431 Y0.5454
G2 X1.2806 Y0.4829 I-0.0625 J0
G1 X0.5226 Y0.4829
G2 X0.4601 Y0.5454 I0 J0.0625
G1 X0.4601 Y0.8577
G1 X0.4601 Y1.1077
G1 X0.4601 Y2.6949
G1 X0.4601 Y2.9449
G1 X0.4601 Y3.4159
G2 X0.5226 Y3.4784 I0.0625 J0
G1 X1.4435 Y3.4784
G2 X1.506 Y3.4159 I0 J-0.0625
G1 X1.506 Y2.6048
G2 X1.4949 Y2.5693 I-0.0625 J0.0001
G2 X1.5327 Y2.5822 I0.0381 J-0.0496
G1 X2.401 Y2.5822
G1 X2.651 Y2.5822
G1 X3.5483 Y2.5822
G2 X3.5842 Y2.5708 I0 J-0.0625
G2 X3.5719 Y2.6079 I0.0502 J0.0372
G1 X3.5719 Y3.4162
G2 X3.6344 Y3.4787 I0.0625 J0
G1 X4.9323 Y3.4787
G2 X4.9948 Y3.4162 I0 J-0.0625
G1 X4.9948 Y3.4162
G1 X4.9948 Y2.9961
G1 X4.9948 Y2.7461
G1 X4.9946 Y1.1199
G1 X4.9945 Y0.8699
G1 X4.9945 Y0.5454
G1 Z-0.3 F10
G2 X4.932 Y0.4829 I-0.0625 J0 F30
G1 X4.2358 Y0.4829
G2 X4.1733 Y0.5454 I0 J0.0625
G1 X4.1733 Y0.8062
G2 X4.1855 Y0.8432 I0.0625 J0
G2 X4.1473 Y0.8298 I-0.0387 J0.0491
G1 X3.8685 Y0.8298
G2 X3.8321 Y0.8415 I0.0001 J0.0625
G2 X3.8445 Y0.8044 I-0.0501 J-0.0374
G1 X3.8445 Y0.5454
G2 X3.782 Y0.4829 I-0.0625 J0
G1 X3.3157 Y0.4829
G2 X3.2532 Y0.5454 I0 J0.0625
G1 X3.2532 Y0.8065
G2 X3.2646 Y0.8425 I0.0625 J-0.0001
G2 X3.2271 Y0.8298 I-0.0378 J0.0498
G1 X3.0323 Y0.8298
G2 X2.996 Y0.8415 I0.0001 J0.0625
G2 X3.0084 Y0.8044 I-0.0501 J-0.0374
G1 X3.0084 Y0.5454
G2 X2.9459 Y0.4829 I-0.0625 J0
G1 X2.5282 Y0.4829
G2 X2.4657 Y0.5454 I0 J0.0625
G1 X2.4657 Y0.8068
G2 X2.4768 Y0.8424 I0.0625 J-0.0001
G2 X2.4393 Y0.8298 I-0.0377 J0.0498
G1 X2.2448 Y0.8298
G2 X2.2088 Y0.8412 I0 J0.0625
G2 X2.2209 Y0.8044 I-0.0504 J-0.037
G1 X2.2209 Y0.5454
G2 X2.1584 Y0.4829 I-0.0625 J0
G1 X1.6535 Y0.4829
G2 X1.591 Y0.5454 I0 J0.0625
G1 X1.591 Y0.8062
G2 X1.6024 Y0.842 I0.0625 J0
G2 X1.5653 Y0.8298 I-0.0372 J0.0502
G1 X1.3674 Y0.8298
G2 X1.3311 Y0.8414 I0 J0.0625
G2 X1.3431 Y0.8048 I-0.0505 J-0.0368
G1 X1.3431 Y0.5454
G2 X1.2806 Y0.4829 I-0.0625 J0
G1 X0.5226 Y0.4829
G2 X0.4601 Y0.5454 I0 J0.0625
G1 X0.4601 Y0.8577
G1 X0.4601 Y1.1077
G1 X0.4601 Y2.6949
G1 X0.4601 Y2.9449
G1 X0.4601 Y3.4159
G2 X0.5226 Y3.4784 I0.0625 J0
G1 X1.4435 Y3.4784
G2 X1.506 Y3.4159 I0 J-0.0625
G1 X1.506 Y2.6048
G2 X1.4949 Y2.5693 I-0.0625 J0.0001
G2 X1.5327 Y2.5822 I0.0381 J-0.0496
G1 X2.401 Y2.5822
G1 X2.651 Y2.5822
G1 X3.5483 Y2.5822
G2 X3.5842 Y2.5708 I0 J-0.0625
G2 X3.5719 Y2.6079 I0.0502 J0.0372
G1 X3.5719 Y3.4162
G2 X3.6344 Y3.4787 I0.0625 J0
G1 X4.9323 Y3.4787
G2 X4.9948 Y3.4162 I0 J-0.0625
G1 X4.9948 Y3.4162
G1 X4.9948 Y2.9961
G1 X4.9948 Y2.7461
G1 X4.9946 Y1.1199
G1 X4.9945 Y0.8699
G1 X4.9945 Y0.5454
G1 Z-0.33 F10
G2 X4.932 Y0.4829 I-0.0625 J0 F30
G1 X4.2358 Y0.4829
G2 X4.1733 Y0.5454 I0 J0.0625
G1 X4.1733 Y0.8062
G2 X4.1855 Y0.8432 I0.0625 J0
G2 X4.1473 Y0.8298 I-0.0387 J0.0491
G1 X3.8685 Y0.8298
G2 X3.8321 Y0.8415 I0.0001 J0.0625
G2 X3.8445 Y0.8044 I-0.0501 J-0.0374
G1 X3.8445 Y0.5454
G2 X3.782 Y0.4829 I-0.0625 J0
G1 X3.3157 Y0.4829
G2 X3.2532 Y0.5454 I0 J0.0625
G1 X3.2532 Y0.8065
G2 X3.2646 Y0.8425 I0.0625 J-0.0001
G2 X3.2271 Y0.8298 I-0.0378 J0.0498
G1 X3.0323 Y0.8298
G2 X2.996 Y0.8415 I0.0001 J0.0625
G2 X3.0084 Y0.8044 I-0.0501 J-0.0374
G1 X3.0084 Y0.5454
G2 X2.9459 Y0.4829 I-0.0625 J0
G1 X2.5282 Y0.4829
G2 X2.4657 Y0.5454 I0 J0.0625
G1 X2.4657 Y0.8068
G2 X2.4768 Y0.8424 I0.0625 J-0.0001
G2 X2.4393 Y0.8298 I-0.0377 J0.0498
G1 X2.2448 Y0.8298
G2 X2.2088 Y0.8412 I0 J0.0625
G2 X2.2209 Y0.8044 I-0.0504 J-0.037
G1 X2.2209 Y0.5454
G2 X2.1584 Y0.4829 I-0.0625 J0
G1 X1.6535 Y0.4829
G2 X1.591 Y0.5454 I0 J0.0625
G1 X1.591 Y0.8062
G2 X1.6024 Y0.842 I0.0625 J0
G2 X1.5653 Y0.8298 I-0.0372 J0.0502
G1 X1.3674 Y0.8298
G2 X1.3311 Y0.8414 I0 J0.0625
G2 X1.3431 Y0.8048 I-0.0505 J-0.0368
G1 X1.3431 Y0.5454
G2 X1.2806 Y0.4829 I-0.0625 J0
G1 X0.5226 Y0.4829
G2 X0.4601 Y0.5454 I0 J0.0625
G1 X0.4601 Y0.8577
G1 X0.4601 Y1.1077
G1 X0.4601 Y2.6949
G1 X0.4601 Y2.9449
G1 X0.4601 Y3.4159
G2 X0.5226 Y3.4784 I0.0625 J0
G1 X1.4435 Y3.4784
G2 X1.506 Y3.4159 I0 J-0.0625
G1 X1.506 Y2.6048
G2 X1.4949 Y2.5693 I-0.0625 J0.0001
G2 X1.5327 Y2.5822 I0.0381 J-0.0496
G1 X2.401 Y2.5822
G1 X2.651 Y2.5822
G1 X3.5483 Y2.5822
G2 X3.5842 Y2.5708 I0 J-0.0625
G2 X3.5719 Y2.6079 I0.0502 J0.0372
G1 X3.5719 Y3.4162
G2 X3.6344 Y3.4787 I0.0625 J0
G1 X4.9323 Y3.4787
G2 X4.9948 Y3.4162 I0 J-0.0625
G1 X4.9948 Y3.4162
G1 X4.9948 Y2.9961
G1 X4.9948 Y2.7461
G1 X4.9946 Y1.1199
G1 X4.9945 Y0.8699
G1 X4.9945 Y0.5454
G1 Z-0.36 F10
G2 X4.932 Y0.4829 I-0.0625 J0 F30
G1 X4.2358 Y0.4829
G2 X4.1733 Y0.5454 I0 J0.0625
G1 X4.1733 Y0.8062
G2 X4.1855 Y0.8432 I0.0625 J0
G2 X4.1473 Y0.8298 I-0.0387 J0.0491
G1 X3.8685 Y0.8298
G2 X3.8321 Y0.8415 I0.0001 J0.0625
G2 X3.8445 Y0.8044 I-0.0501 J-0.0374
G1 X3.8445 Y0.5454
G2 X3.782 Y0.4829 I-0.0625 J0
G1 X3.3157 Y0.4829
G2 X3.2532 Y0.5454 I0 J0.0625
G1 X3.2532 Y0.8065
G2 X3.2646 Y0.8425 I0.0625 J-0.0001
G2 X3.2271 Y0.8298 I-0.0378 J0.0498
G1 X3.0323 Y0.8298
G2 X2.996 Y0.8415 I0.0001 J0.0625
G2 X3.0084 Y0.8044 I-0.0501 J-0.0374
G1 X3.0084 Y0.5454
G2 X2.9459 Y0.4829 I-0.0625 J0
G1 X2.5282 Y0.4829
G2 X2.4657 Y0.5454 I0 J0.0625
G1 X2.4657 Y0.8068
G2 X2.4768 Y0.8424 I0.0625 J-0.0001
G2 X2.4393 Y0.8298 I-0.0377 J0.0498
G1 X2.2448 Y0.8298
G2 X2.2088 Y0.8412 I0 J0.0625
G2 X2.2209 Y0.8044 I-0.0504 J-0.037
G1 X2.2209 Y0.5454
G2 X2.1584 Y0.4829 I-0.0625 J0
G1 X1.6535 Y0.4829
G2 X1.591 Y0.5454 I0 J0.0625
G1 X1.591 Y0.8062
G2 X1.6024 Y0.842 I0.0625 J0
G2 X1.5653 Y0.8298 I-0.0372 J0.0502
G1 X1.3674 Y0.8298
G2 X1.3311 Y0.8414 I0 J0.0625
G2 X1.3431 Y0.8048 I-0.0505 J-0.0368
G1 X1.3431 Y0.5454
G2 X1.2806 Y0.4829 I-0.0625 J0
G1 X0.5226 Y0.4829
G2 X0.4601 Y0.5454 I0 J0.0625
G1 X0.4601 Y0.8577
G1 X0.4601 Y1.1077
G1 X0.4601 Y2.6949
G1 X0.4601 Y2.9449
G1 X0.4601 Y3.4159
G2 X0.5226 Y3.4784 I0.0625 J0
G1 X1.4435 Y3.4784
G2 X1.506 Y3.4159 I0 J-0.0625
G1 X1.506 Y2.6048
G2 X1.4949 Y2.5693 I-0.0625 J0.0001
G2 X1.5327 Y2.5822 I0.0381 J-0.0496
G1 X2.401 Y2.5822
G1 X2.651 Y2.5822
G1 X3.5483 Y2.5822
G2 X3.5842 Y2.5708 I0 J-0.0625
G2 X3.5719 Y2.6079 I0.0502 J0.0372
G1 X3.5719 Y3.4162
G2 X3.6344 Y3.4787 I0.0625 J0
G1 X4.9323 Y3.4787
G2 X4.9948 Y3.4162 I0 J-0.0625
G1 X4.9948 Y3.4162
G1 X4.9948 Y2.9961
G1 X4.9948 Y2.7461
G1 X4.9946 Y1.1199
G1 X4.9945 Y0.8699
G1 X4.9945 Y0.5454
G1 Z-0.39 F10
G2 X4.932 Y0.4829 I-0.0625 J0 F30
G1 X4.2358 Y0.4829
G2 X4.1733 Y0.5454 I0 J0.0625
G1 X4.1733 Y0.8062
G2 X4.1855 Y0.8432 I0.0625 J0
G2 X4.1473 Y0.8298 I-0.0387 J0.0491
G1 X3.8685 Y0.8298
G2 X3.8321 Y0.8415 I0.0001 J0.0625
G2 X3.8445 Y0.8044 I-0.0501 J-0.0374
G1 X3.8445 Y0.5454
G2 X3.782 Y0.4829 I-0.0625 J0
G1 X3.3157 Y0.4829
G2 X3.2532 Y0.5454 I0 J0.0625
G1 X3.2532 Y0.8065
G2 X3.2646 Y0.8425 I0.0625 J-0.0001
G2 X3.2271 Y0.8298 I-0.0378 J0.0498
G1 X3.0323 Y0.8298
G2 X2.996 Y0.8415 I0.0001 J0.0625
G2 X3.0084 Y0.8044 I-0.0501 J-0.0374
G1 X3.0084 Y0.5454
G2 X2.9459 Y0.4829 I-0.0625 J0
G1 X2.5282 Y0.4829
G2 X2.4657 Y0.5454 I0 J0.0625
G1 X2.4657 Y0.8068
G2 X2.4768 Y0.8424 I0.0625 J-0.0001
G2 X2.4393 Y0.8298 I-0.0377 J0.0498
G1 X2.2448 Y0.8298
G2 X2.2088 Y0.8412 I0 J0.0625
G2 X2.2209 Y0.8044 I-0.0504 J-0.037
G1 X2.2209 Y0.5454
G2 X2.1584 Y0.4829 I-0.0625 J0
G1 X1.6535 Y0.4829
G2 X1.591 Y0.5454 I0 J0.0625
G1 X1.591 Y0.8062
G2 X1.6024 Y0.842 I0.0625 J0
G2 X1.5653 Y0.8298 I-0.0372 J0.0502
G1 X1.3674 Y0.8298
G2 X1.3311 Y0.8414 I0 J0.0625
G2 X1.3431 Y0.8048 I-0.0505 J-0.0368
G1 X1.3431 Y0.5454
G2 X1.2806 Y0.4829 I-0.0625 J0
G1 X0.5226 Y0.4829
G2 X0.4601 Y0.5454 I0 J0.0625
G1 X0.4601 Y0.8577
G1 X0.4601 Y1.1077
G1 X0.4601 Y2.6949
G1 X0.4601 Y2.9449
G1 X0.4601 Y3.4159
G2 X0.5226 Y3.4784 I0.0625 J0
G1 X1.4435 Y3.4784
G2 X1.506 Y3.4159 I0 J-0.0625
G1 X1.506 Y2.6048
G2 X1.4949 Y2.5693 I-0.0625 J0.0001
G2 X1.5327 Y2.5822 I0.0381 J-0.0496
G1 X2.401 Y2.5822
G1 X2.651 Y2.5822
G1 X3.5483 Y2.5822
G2 X3.5842 Y2.5708 I0 J-0.0625
G2 X3.5719 Y2.6079 I0.0502 J0.0372
G1 X3.5719 Y3.4162
G2 X3.6344 Y3.4787 I0.0625 J0
G1 X4.9323 Y3.4787
G2 X4.9948 Y3.4162 I0 J-0.0625
G1 X4.9948 Y3.4162
G1 X4.9948 Y2.9961
G1 X4.9948 Y2.7461
G1 X4.9946 Y1.1199
G1 X4.9945 Y0.8699
G1 X4.9945 Y0.5454
G1 Z-0.42 F10
G2 X4.932 Y0.4829 I-0.0625 J0 F30
G1 X4.2358 Y0.4829
G2 X4.1733 Y0.5454 I0 J0.0625
G1 X4.1733 Y0.8062
G2 X4.1855 Y0.8432 I0.0625 J0
G2 X4.1473 Y0.8298 I-0.0387 J0.0491
G1 X3.8685 Y0.8298
G2 X3.8321 Y0.8415 I0.0001 J0.0625
G2 X3.8445 Y0.8044 I-0.0501 J-0.0374
G1 X3.8445 Y0.5454
G2 X3.782 Y0.4829 I-0.0625 J0
G1 X3.3157 Y0.4829
G2 X3.2532 Y0.5454 I0 J0.0625
G1 X3.2532 Y0.8065
G2 X3.2646 Y0.8425 I0.0625 J-0.0001
G2 X3.2271 Y0.8298 I-0.0378 J0.0498
G1 X3.0323 Y0.8298
G2 X2.996 Y0.8415 I0.0001 J0.0625
G2 X3.0084 Y0.8044 I-0.0501 J-0.0374
G1 X3.0084 Y0.5454
G2 X2.9459 Y0.4829 I-0.0625 J0
G1 X2.5282 Y0.4829
G2 X2.4657 Y0.5454 I0 J0.0625
G1 X2.4657 Y0.8068
G2 X2.4768 Y0.8424 I0.0625 J-0.0001
G2 X2.4393 Y0.8298 I-0.0377 J0.0498
G1 X2.2448 Y0.8298
G2 X2.2088 Y0.8412 I0 J0.0625
G2 X2.2209 Y0.8044 I-0.0504 J-0.037
G1 X2.2209 Y0.5454
G2 X2.1584 Y0.4829 I-0.0625 J0
G1 X1.6535 Y0.4829
G2 X1.591 Y0.5454 I0 J0.0625
G1 X1.591 Y0.8062
G2 X1.6024 Y0.842 I0.0625 J0
G2 X1.5653 Y0.8298 I-0.0372 J0.0502
G1 X1.3674 Y0.8298
G2 X1.3311 Y0.8414 I0 J0.0625
G2 X1.3431 Y0.8048 I-0.0505 J-0.0368
G1 X1.3431 Y0.5454
G2 X1.2806 Y0.4829 I-0.0625 J0
G1 X0.5226 Y0.4829
G2 X0.4601 Y0.5454 I0 J0.0625
G1 X0.4601 Y0.8577
G1 X0.4601 Y1.1077
G1 X0.4601 Y2.6949
G1 X0.4601 Y2.9449
G1 X0.4601 Y3.4159
G2 X0.5226 Y3.4784 I0.0625 J0
G1 X1.4435 Y3.4784
G2 X1.506 Y3.4159 I0 J-0.0625
G1 X1.506 Y2.6048
G2 X1.4949 Y2.5693 I-0.0625 J0.0001
G2 X1.5327 Y2.5822 I0.0381 J-0.0496
G1 X2.401 Y2.5822
G1 X2.651 Y2.5822
G1 X3.5483 Y2.5822
G2 X3.5842 Y2.5708 I0 J-0.0625
G2 X3.5719 Y2.6079 I0.0502 J0.0372
G1 X3.5719 Y3.4162
G2 X3.6344 Y3.4787 I0.0625 J0
G1 X4.9323 Y3.4787
G2 X4.9948 Y3.4162 I0 J-0.0625
G1 X4.9948 Y3.4162
G1 X4.9948 Y2.9961
G1 X4.9948 Y2.7461
G1 X4.9946 Y1.1199
G1 X4.9945 Y0.8699
G1 X4.9945 Y0.5454
G1 Z-0.45 F10
G2 X4.932 Y0.4829 I-0.0625 J0 F30
G1 X4.2358 Y0.4829
G2 X4.1733 Y0.5454 I0 J0.0625
G1 X4.1733 Y0.8062
G2 X4.1855 Y0.8432 I0.0625 J0
G2 X4.1473 Y0.8298 I-0.0387 J0.0491
G1 X3.8685 Y0.8298
G2 X3.8321 Y0.8415 I0.0001 J0.0625
G2 X3.8445 Y0.8044 I-0.0501 J-0.0374
G1 X3.8445 Y0.5454
G2 X3.782 Y0.4829 I-0.0625 J0
G1 X3.3157 Y0.4829
G2 X3.2532 Y0.5454 I0 J0.0625
G1 X3.2532 Y0.8065
G2 X3.2646 Y0.8425 I0.0625 J-0.0001
G2 X3.2271 Y0.8298 I-0.0378 J0.0498
G1 X3.0323 Y0.8298
G2 X2.996 Y0.8415 I0.0001 J0.0625
G2 X3.0084 Y0.8044 I-0.0501 J-0.0374
G1 X3.0084 Y0.5454
G2 X2.9459 Y0.4829 I-0.0625 J0
G1 X2.5282 Y0.4829
G2 X2.4657 Y0.5454 I0 J0.0625
G1 X2.4657 Y0.8068
G2 X2.4768 Y0.8424 I0.0625 J-0.0001
G2 X2.4393 Y0.8298 I-0.0377 J0.0498
G1 X2.2448 Y0.8298
G2 X2.2088 Y0.8412 I0 J0.0625
G2 X2.2209 Y0.8044 I-0.0504 J-0.037
G1 X2.2209 Y0.5454
G2 X2.1584 Y0.4829 I-0.0625 J0
G1 X1.6535 Y0.4829
G2 X1.591 Y0.5454 I0 J0.0625
G1 X1.591 Y0.8062
G2 X1.6024 Y0.842 I0.0625 J0
G2 X1.5653 Y0.8298 I-0.0372 J0.0502
G1 X1.3674 Y0.8298
G2 X1.3311 Y0.8414 I0 J0.0625
G2 X1.3431 Y0.8048 I-0.0505 J-0.0368
G1 X1.3431 Y0.5454
G2 X1.2806 Y0.4829 I-0.0625 J0
G1 X0.5226 Y0.4829
G2 X0.4601 Y0.5454 I0 J0.0625
G1 X0.4601 Y0.8577
G1 X0.4601 Y1.1077
G1 X0.4601 Y2.6949
G1 X0.4601 Y2.9449
G1 X0.4601 Y3.4159
G2 X0.5226 Y3.4784 I0.0625 J0
G1 X1.4435 Y3.4784
G2 X1.506 Y3.4159 I0 J-0.0625
G1 X1.506 Y2.6048
G2 X1.4949 Y2.5693 I-0.0625 J0.0001
G2 X1.5327 Y2.5822 I0.0381 J-0.0496
G1 X2.401 Y2.5822
G1 X2.651 Y2.5822
G1 X3.5483 Y2.5822
G2 X3.5842 Y2.5708 I0 J-0.0625
G2 X3.5719 Y2.6079 I0.0502 J0.0372
G1 X3.5719 Y3.4162
G2 X3.6344 Y3.4787 I0.0625 J0
G1 X4.9323 Y3.4787
G2 X4.9948 Y3.4162 I0 J-0.0625
G1 X4.9948 Y3.4162
G1 X4.9948 Y2.9961
G1 X4.9948 Y2.7461
G1 X4.9946 Y1.1199
G1 X4.9945 Y0.8699
G1 X4.9945 Y0.5454
G1 Z-0.48 F10
G2 X4.932 Y0.4829 I-0.0625 J0 F30
G1 X4.2358 Y0.4829
G2 X4.1733 Y0.5454 I0 J0.0625
G1 X4.1733 Y0.8062
G2 X4.1855 Y0.8432 I0.0625 J0
G2 X4.1473 Y0.8298 I-0.0387 J0.0491
G1 X3.8685 Y0.8298
G2 X3.8321 Y0.8415 I0.0001 J0.0625
G2 X3.8445 Y0.8044 I-0.0501 J-0.0374
G1 X3.8445 Y0.5454
G2 X3.782 Y0.4829 I-0.0625 J0
G1 X3.3157 Y0.4829
G2 X3.2532 Y0.5454 I0 J0.0625
G1 X3.2532 Y0.8065
G2 X3.2646 Y0.8425 I0.0625 J-0.0001
G2 X3.2271 Y0.8298 I-0.0378 J0.0498
G1 X3.0323 Y0.8298
G2 X2.996 Y0.8415 I0.0001 J0.0625
G2 X3.0084 Y0.8044 I-0.0501 J-0.0374
G1 X3.0084 Y0.5454
G2 X2.9459 Y0.4829 I-0.0625 J0
G1 X2.5282 Y0.4829
G2 X2.4657 Y0.5454 I0 J0.0625
G1 X2.4657 Y0.8068
G2 X2.4768 Y0.8424 I0.0625 J-0.0001
G2 X2.4393 Y0.8298 I-0.0377 J0.0498
G1 X2.2448 Y0.8298
G2 X2.2088 Y0.8412 I0 J0.0625
G2 X2.2209 Y0.8044 I-0.0504 J-0.037
G1 X2.2209 Y0.5454
G2 X2.1584 Y0.4829 I-0.0625 J0
G1 X1.6535 Y0.4829
G2 X1.591 Y0.5454 I0 J0.0625
G1 X1.591 Y0.8062
G2 X1.6024 Y0.842 I0.0625 J0
G2 X1.5653 Y0.8298 I-0.0372 J0.0502
G1 X1.3674 Y0.8298
G2 X1.3311 Y0.8414 I0 J0.0625
G2 X1.3431 Y0.8048 I-0.0505 J-0.0368
G1 X1.3431 Y0.5454
G2 X1.2806 Y0.4829 I-0.0625 J0
G1 X0.5226 Y0.4829
G2 X0.4601 Y0.5454 I0 J0.0625
G1 X0.4601 Y0.8577
G1 X0.4601 Y1.1077
G1 X0.4601 Y2.6949
G1 X0.4601 Y2.9449
G1 X0.4601 Y3.4159
G2 X0.5226 Y3.4784 I0.0625 J0
G1 X1.4435 Y3.4784
G2 X1.506 Y3.4159 I0 J-0.0625
G1 X1.506 Y2.6048
G2 X1.4949 Y2.5693 I-0.0625 J0.0001
G2 X1.5327 Y2.5822 I0.0381 J-0.0496
G1 X2.401 Y2.5822
G1 X2.651 Y2.5822
G1 X3.5483 Y2.5822
G2 X3.5842 Y2.5708 I0 J-0.0625
G2 X3.5719 Y2.6079 I0.0502 J0.0372
G1 X3.5719 Y3.4162
G2 X3.6344 Y3.4787 I0.0625 J0
G1 X4.9323 Y3.4787
G2 X4.9948 Y3.4162 I0 J-0.0625
G1 X4.9948 Y3.4162
G1 X4.9948 Y2.9961
G1 X4.9948 Y2.7461
G1 X4.9946 Y1.1199
G1 X4.9945 Y0.8699
G1 X4.9945 Y0.5454
G1 Z-0.51 F10
G2 X4.932 Y0.4829 I-0.0625 J0 F30
G1 X4.2358 Y0.4829
G2 X4.1733 Y0.5454 I0 J0.0625
G1 X4.1733 Y0.8062
G2 X4.1855 Y0.8432 I0.0625 J0
G2 X4.1473 Y0.8298 I-0.0387 J0.0491
G1 X3.8685 Y0.8298
G2 X3.8321 Y0.8415 I0.0001 J0.0625
G2 X3.8445 Y0.8044 I-0.0501 J-0.0374
G1 X3.8445 Y0.5454
G2 X3.782 Y0.4829 I-0.0625 J0
G1 X3.3157 Y0.4829
G2 X3.2532 Y0.5454 I0 J0.0625
G1 X3.2532 Y0.8065
G2 X3.2646 Y0.8425 I0.0625 J-0.0001
G2 X3.2271 Y0.8298 I-0.0378 J0.0498
G1 X3.0323 Y0.8298
G2 X2.996 Y0.8415 I0.0001 J0.0625
G2 X3.0084 Y0.8044 I-0.0501 J-0.0374
G1 X3.0084 Y0.5454
G2 X2.9459 Y0.4829 I-0.0625 J0
G1 X2.5282 Y0.4829
G2 X2.4657 Y0.5454 I0 J0.0625
G1 X2.4657 Y0.8068
G2 X2.4768 Y0.8424 I0.0625 J-0.0001
G2 X2.4393 Y0.8298 I-0.0377 J0.0498
G1 X2.2448 Y0.8298
G2 X2.2088 Y0.8412 I0 J0.0625
G2 X2.2209 Y0.8044 I-0.0504 J-0.037
G1 X2.2209 Y0.5454
G2 X2.1584 Y0.4829 I-0.0625 J0
G1 X1.6535 Y0.4829
G2 X1.591 Y0.5454 I0 J0.0625
G1 X1.591 Y0.8062
G2 X1.6024 Y0.842 I0.0625 J0
G2 X1.5653 Y0.8298 I-0.0372 J0.0502
G1 X1.3674 Y0.8298
G2 X1.3311 Y0.8414 I0 J0.0625
G2 X1.3431 Y0.8048 I-0.0505 J-0.0368
G1 X1.3431 Y0.5454
G2 X1.2806 Y0.4829 I-0.0625 J0
G1 X0.5226 Y0.4829
G2 X0.4601 Y0.5454 I0 J0.0625
G1 X0.4601 Y0.8577
G1 X0.4601 Y1.1077
G1 X0.4601 Y2.6949
G1 X0.4601 Y2.9449
G1 X0.4601 Y3.4159
G2 X0.5226 Y3.4784 I0.0625 J0
G1 X1.4435 Y3.4784
G2 X1.506 Y3.4159 I0 J-0.0625
G1 X1.506 Y2.6048
G2 X1.4949 Y2.5693 I-0.0625 J0.0001
G2 X1.5327 Y2.5822 I0.0381 J-0.0496
G1 X2.401 Y2.5822
G1 X2.651 Y2.5822
G1 X3.5483 Y2.5822
G2 X3.5842 Y2.5708 I0 J-0.0625
G2 X3.5719 Y2.6079 I0.0502 J0.0372
G1 X3.5719 Y3.4162
G2 X3.6344 Y3.4787 I0.0625 J0
G1 X4.9323 Y3.4787
G2 X4.9948 Y3.4162 I0 J-0.0625
G1 X4.9948 Y3.4162
G1 X4.9948 Y2.9961
G1 X4.9948 Y2.7461
G1 X4.9946 Y1.1199
G1 X4.9945 Y0.8699
G1 X4.9945 Y0.5454
G1 Z-0.54 F10
G2 X4.932 Y0.4829 I-0.0625 J0 F30
G1 X4.2358 Y0.4829
G2 X4.1733 Y0.5454 I0 J0.0625
G1 X4.1733 Y0.8062
G2 X4.1855 Y0.8432 I0.0625 J0
G2 X4.1473 Y0.8298 I-0.0387 J0.0491
G1 X3.8685 Y0.8298
G2 X3.8321 Y0.8415 I0.0001 J0.0625
G2 X3.8445 Y0.8044 I-0.0501 J-0.0374
G1 X3.8445 Y0.5454
G2 X3.782 Y0.4829 I-0.0625 J0
G1 X3.3157 Y0.4829
G2 X3.2532 Y0.5454 I0 J0.0625
G1 X3.2532 Y0.8065
G2 X3.2646 Y0.8425 I0.0625 J-0.0001
G2 X3.2271 Y0.8298 I-0.0378 J0.0498
G1 X3.0323 Y0.8298
G2 X2.996 Y0.8415 I0.0001 J0.0625
G2 X3.0084 Y0.8044 I-0.0501 J-0.0374
G1 X3.0084 Y0.5454
G2 X2.9459 Y0.4829 I-0.0625 J0
G1 X2.5282 Y0.4829
G2 X2.4657 Y0.5454 I0 J0.0625
G1 X2.4657 Y0.8068
G2 X2.4768 Y0.8424 I0.0625 J-0.0001
G2 X2.4393 Y0.8298 I-0.0377 J0.0498
G1 X2.2448 Y0.8298
G2 X2.2088 Y0.8412 I0 J0.0625
G2 X2.2209 Y0.8044 I-0.0504 J-0.037
G1 X2.2209 Y0.5454
G2 X2.1584 Y0.4829 I-0.0625 J0
G1 X1.6535 Y0.4829
G2 X1.591 Y0.5454 I0 J0.0625
G1 X1.591 Y0.8062
G2 X1.6024 Y0.842 I0.0625 J0
G2 X1.5653 Y0.8298 I-0.0372 J0.0502
G1 X1.3674 Y0.8298
G2 X1.3311 Y0.8414 I0 J0.0625
G2 X1.3431 Y0.8048 I-0.0505 J-0.0368
G1 X1.3431 Y0.5454
G2 X1.2806 Y0.4829 I-0.0625 J0
G1 X0.5226 Y0.4829
G2 X0.4601 Y0.5454 I0 J0.0625
G1 X0.4601 Y0.8577
G1 X0.4601 Y1.1077
G1 X0.4601 Y2.6949
G1 X0.4601 Y2.9449
G1 X0.4601 Y3.4159
G2 X0.5226 Y3.4784 I0.0625 J0
G1 X1.4435 Y3.4784
G2 X1.506 Y3.4159 I0 J-0.0625
G1 X1.506 Y2.6048
G2 X1.4949 Y2.5693 I-0.0625 J0.0001
G2 X1.5327 Y2.5822 I0.0381 J-0.0496
G1 X2.401 Y2.5822
G1 X2.651 Y2.5822
G1 X3.5483 Y2.5822
G2 X3.5842 Y2.5708 I0 J-0.0625
G2 X3.5719 Y2.6079 I0.0502 J0.0372
G1 X3.5719 Y3.4162
G2 X3.6344 Y3.4787 I0.0625 J0
G1 X4.9323 Y3.4787
G2 X4.9948 Y3.4162 I0 J-0.0625
G1 X4.9948 Y3.4162
G1 X4.9948 Y2.9961
G1 X4.9948 Y2.7461
G1 X4.9946 Y1.1199
G1 X4.9945 Y0.8699
G1 X4.9945 Y0.5454
G1 Z-0.57 F10
G2 X4.932 Y0.4829 I-0.0625 J0 F30
G1 X4.2358 Y0.4829
G2 X4.1733 Y0.5454 I0 J0.0625
G1 X4.1733 Y0.8062
G2 X4.1855 Y0.8432 I0.0625 J0
G2 X4.1473 Y0.8298 I-0.0387 J0.0491
G1 X3.8685 Y0.8298
G2 X3.8321 Y0.8415 I0.0001 J0.0625
G2 X3.8445 Y0.8044 I-0.0501 J-0.0374
G1 X3.8445 Y0.5454
G2 X3.782 Y0.4829 I-0.0625 J0
G1 X3.3157 Y0.4829
G2 X3.2532 Y0.5454 I0 J0.0625
G1 X3.2532 Y0.8065
G2 X3.2646 Y0.8425 I0.0625 J-0.0001
G2 X3.2271 Y0.8298 I-0.0378 J0.0498
G1 X3.0323 Y0.8298
G2 X2.996 Y0.8415 I0.0001 J0.0625
G2 X3.0084 Y0.8044 I-0.0501 J-0.0374
G1 X3.0084 Y0.5454
G2 X2.9459 Y0.4829 I-0.0625 J0
G1 X2.5282 Y0.4829
G2 X2.4657 Y0.5454 I0 J0.0625
G1 X2.4657 Y0.8068
G2 X2.4768 Y0.8424 I0.0625 J-0.0001
G2 X2.4393 Y0.8298 I-0.0377 J0.0498
G1 X2.2448 Y0.8298
G2 X2.2088 Y0.8412 I0 J0.0625
G2 X2.2209 Y0.8044 I-0.0504 J-0.037
G1 X2.2209 Y0.5454
G2 X2.1584 Y0.4829 I-0.0625 J0
G1 X1.6535 Y0.4829
G2 X1.591 Y0.5454 I0 J0.0625
G1 X1.591 Y0.8062
G2 X1.6024 Y0.842 I0.0625 J0
G2 X1.5653 Y0.8298 I-0.0372 J0.0502
G1 X1.3674 Y0.8298
G2 X1.3311 Y0.8414 I0 J0.0625
G2 X1.3431 Y0.8048 I-0.0505 J-0.0368
G1 X1.3431 Y0.5454
G2 X1.2806 Y0.4829 I-0.0625 J0
G1 X0.5226 Y0.4829
G2 X0.4601 Y0.5454 I0 J0.0625
G1 X0.4601 Y0.8577
G1 X0.4601 Y1.1077
G1 X0.4601 Y2.6949
G1 X0.4601 Y2.9449
G1 X0.4601 Y3.4159
G2 X0.5226 Y3.4784 I0.0625 J0
G1 X1.4435 Y3.4784
G2 X1.506 Y3.4159 I0 J-0.0625
G1 X1.506 Y2.6048
G2 X1.4949 Y2.5693 I-0.0625 J0.0001
G2 X1.5327 Y2.5822 I0.0381 J-0.0496
G1 X2.401 Y2.5822
G1 X2.651 Y2.5822
G1 X3.5483 Y2.5822
G2 X3.5842 Y2.5708 I0 J-0.0625
G2 X3.5719 Y2.6079 I0.0502 J0.0372
G1 X3.5719 Y3.4162
G2 X3.6344 Y3.4787 I0.0625 J0
G1 X4.9323 Y3.4787
G2 X4.9948 Y3.4162 I0 J-0.0625
G1 X4.9948 Y3.4162
G1 X4.9948 Y2.9961
G1 X4.9948 Y2.7461
G1 X4.9946 Y1.1199
G1 X4.9945 Y0.8699
G1 X4.9945 Y0.5454
G1 Z-0.6 F10
G2 X4.932 Y0.4829 I-0.0625 J0 F30
G1 X4.2358 Y0.4829
G2 X4.1733 Y0.5454 I0 J0.0625
G1 X4.1733 Y0.8062
G2 X4.1855 Y0.8432 I0.0625 J0
G2 X4.1473 Y0.8298 I-0.0387 J0.0491
G1 X3.8685 Y0.8298
G2 X3.8321 Y0.8415 I0.0001 J0.0625
G2 X3.8445 Y0.8044 I-0.0501 J-0.0374
G1 X3.8445 Y0.5454
G2 X3.782 Y0.4829 I-0.0625 J0
G1 X3.3157 Y0.4829
G2 X3.2532 Y0.5454 I0 J0.0625
G1 X3.2532 Y0.8065
G2 X3.2646 Y0.8425 I0.0625 J-0.0001
G2 X3.2271 Y0.8298 I-0.0378 J0.0498
G1 X3.0323 Y0.8298
G2 X2.996 Y0.8415 I0.0001 J0.0625
G2 X3.0084 Y0.8044 I-0.0501 J-0.0374
G1 X3.0084 Y0.5454
G2 X2.9459 Y0.4829 I-0.0625 J0
G1 X2.5282 Y0.4829
G2 X2.4657 Y0.5454 I0 J0.0625
G1 X2.4657 Y0.8068
G2 X2.4768 Y0.8424 I0.0625 J-0.0001
G2 X2.4393 Y0.8298 I-0.0377 J0.0498
G1 X2.2448 Y0.8298
G2 X2.2088 Y0.8412 I0 J0.0625
G2 X2.2209 Y0.8044 I-0.0504 J-0.037
G1 X2.2209 Y0.5454
G2 X2.1584 Y0.4829 I-0.0625 J0
G1 X1.6535 Y0.4829
G2 X1.591 Y0.5454 I0 J0.0625
G1 X1.591 Y0.8062
G2 X1.6024 Y0.842 I0.0625 J0
G2 X1.5653 Y0.8298 I-0.0372 J0.0502
G1 X1.3674 Y0.8298
G2 X1.3311 Y0.8414 I0 J0.0625
G2 X1.3431 Y0.8048 I-0.0505 J-0.0368
G1 X1.3431 Y0.5454
G2 X1.2806 Y0.4829 I-0.0625 J0
G1 X0.5226 Y0.4829
G2 X0.4601 Y0.5454 I0 J0.0625
G1 X0.4601 Y0.8577
G1 X0.4601 Y1.1077
G1 X0.4601 Y2.6949
G1 X0.4601 Y2.9449
G1 X0.4601 Y3.4159
G2 X0.5226 Y3.4784 I0.0625 J0
G1 X1.4435 Y3.4784
G2 X1.506 Y3.4159 I0 J-0.0625
G1 X1.506 Y2.6048
G2 X1.4949 Y2.5693 I-0.0625 J0.0001
G2 X1.5327 Y2.5822 I0.0381 J-0.0496
G1 X2.401 Y2.5822
G1 X2.651 Y2.5822
G1 X3.5483 Y2.5822
G2 X3.5842 Y2.5708 I0 J-0.0625
G2 X3.5719 Y2.6079 I0.0502 J0.0372
G1 X3.5719 Y3.4162
G2 X3.6344 Y3.4787 I0.0625 J0
G1 X4.9323 Y3.4787
G2 X4.9948 Y3.4162 I0 J-0.0625
G1 X4.9948 Y3.4162
G1 X4.9948 Y2.9961
G1 X4.9948 Y2.7461
G1 X4.9946 Y1.1199
G1 X4.9945 Y0.8699
G1 X4.9945 Y0.5454
G1 Z-0.63 F10
G2 X4.932 Y0.4829 I-0.0625 J0 F30
G1 X4.2358 Y0.4829
G2 X4.1733 Y0.5454 I0 J0.0625
G1 X4.1733 Y0.8062
G2 X4.1855 Y0.8432 I0.0625 J0
G2 X4.1473 Y0.8298 I-0.0387 J0.0491
G1 X3.8685 Y0.8298
G2 X3.8321 Y0.8415 I0.0001 J0.0625
G2 X3.8445 Y0.8044 I-0.0501 J-0.0374
G1 X3.8445 Y0.5454
G2 X3.782 Y0.4829 I-0.0625 J0
G1 X3.3157 Y0.4829
G2 X3.2532 Y0.5454 I0 J0.0625
G1 X3.2532 Y0.8065
G2 X3.2646 Y0.8425 I0.0625 J-0.0001
G2 X3.2271 Y0.8298 I-0.0378 J0.0498
G1 X3.0323 Y0.8298
G2 X2.996 Y0.8415 I0.0001 J0.0625
G2 X3.0084 Y0.8044 I-0.0501 J-0.0374
G1 X3.0084 Y0.5454
G2 X2.9459 Y0.4829 I-0.0625 J0
G1 X2.5282 Y0.4829
G2 X2.4657 Y0.5454 I0 J0.0625
G1 X2.4657 Y0.8068
G2 X2.4768 Y0.8424 I0.0625 J-0.0001
G2 X2.4393 Y0.8298 I-0.0377 J0.0498
G1 X2.2448 Y0.8298
G2 X2.2088 Y0.8412 I0 J0.0625
G2 X2.2209 Y0.8044 I-0.0504 J-0.037
G1 X2.2209 Y0.5454
G2 X2.1584 Y0.4829 I-0.0625 J0
G1 X1.6535 Y0.4829
G2 X1.591 Y0.5454 I0 J0.0625
G1 X1.591 Y0.8062
G2 X1.6024 Y0.842 I0.0625 J0
G2 X1.5653 Y0.8298 I-0.0372 J0.0502
G1 X1.3674 Y0.8298
G2 X1.3311 Y0.8414 I0 J0.0625
G2 X1.3431 Y0.8048 I-0.0505 J-0.0368
G1 X1.3431 Y0.5454
G2 X1.2806 Y0.4829 I-0.0625 J0
G1 X0.5226 Y0.4829
G2 X0.4601 Y0.5454 I0 J0.0625
G1 X0.4601 Y0.8577
G1 X0.4601 Y1.1077
G1 X0.4601 Y2.6949
G1 X0.4601 Y2.9449
G1 X0.4601 Y3.4159
G2 X0.5226 Y3.4784 I0.0625 J0
G1 X1.4435 Y3.4784
G2 X1.506 Y3.4159 I0 J-0.0625
G1 X1.506 Y2.6048
G2 X1.4949 Y2.5693 I-0.0625 J0.0001
G2 X1.5327 Y2.5822 I0.0381 J-0.0496
G1 X2.401 Y2.5822
G1 X2.651 Y2.5822
G1 X3.5483 Y2.5822
G2 X3.5842 Y2.5708 I0 J-0.0625
G2 X3.5719 Y2.6079 I0.0502 J0.0372
G1 X3.5719 Y3.4162
G2 X3.6344 Y3.4787 I0.0625 J0
G1 X4.9323 Y3.4787
G2 X4.9948 Y3.4162 I0 J-0.0625
G1 X4.9948 Y3.4162
G1 X4.9948 Y2.9961
G1 X4.9948 Y2.7461
G1 X4.9946 Y1.1199
G1 X4.9945 Y0.8699
G1 X4.9945 Y0.5454
G1 Z-0.66 F10
G2 X4.932 Y0.4829 I-0.0625 J0 F30
G1 X4.2358 Y0.4829
G2 X4.1733 Y0.5454 I0 J0.0625
G1 X4.1733 Y0.8062
G2 X4.1855 Y0.8432 I0.0625 J0
G2 X4.1473 Y0.8298 I-0.0387 J0.0491
G1 X3.8685 Y0.8298
G2 X3.8321 Y0.8415 I0.0001 J0.0625
G2 X3.8445 Y0.8044 I-0.0501 J-0.0374
G1 X3.8445 Y0.5454
G2 X3.782 Y0.4829 I-0.0625 J0
G1 X3.3157 Y0.4829
G2 X3.2532 Y0.5454 I0 J0.0625
G1 X3.2532 Y0.8065
G2 X3.2646 Y0.8425 I0.0625 J-0.0001
G2 X3.2271 Y0.8298 I-0.0378 J0.0498
G1 X3.0323 Y0.8298
G2 X2.996 Y0.8415 I0.0001 J0.0625
G2 X3.0084 Y0.8044 I-0.0501 J-0.0374
G1 X3.0084 Y0.5454
G2 X2.9459 Y0.4829 I-0.0625 J0
G1 X2.5282 Y0.4829
G2 X2.4657 Y0.5454 I0 J0.0625
G1 X2.4657 Y0.8068
G2 X2.4768 Y0.8424 I0.0625 J-0.0001
G2 X2.4393 Y0.8298 I-0.0377 J0.0498
G1 X2.2448 Y0.8298
G2 X2.2088 Y0.8412 I0 J0.0625
G2 X2.2209 Y0.8044 I-0.0504 J-0.037
G1 X2.2209 Y0.5454
G2 X2.1584 Y0.4829 I-0.0625 J0
G1 X1.6535 Y0.4829
G2 X1.591 Y0.5454 I0 J0.0625
G1 X1.591 Y0.8062
G2 X1.6024 Y0.842 I0.0625 J0
G2 X1.5653 Y0.8298 I-0.0372 J0.0502
G1 X1.3674 Y0.8298
G2 X1.3311 Y0.8414 I0 J0.0625
G2 X1.3431 Y0.8048 I-0.0505 J-0.0368
G1 X1.3431 Y0.5454
G2 X1.2806 Y0.4829 I-0.0625 J0
G1 X0.5226 Y0.4829
G2 X0.4601 Y0.5454 I0 J0.0625
G1 X0.4601 Y0.8577
G1 Z-0.65 F10
G1 X0.4601 Y1.1077 F30
G1 Z-0.66 F10
G1 X0.4601 Y2.6949 F30
G1 Z-0.65 F10
G1 X0.4601 Y2.9449 F30
G1 Z-0.66 F10
G1 X0.4601 Y3.4159 F30
G2 X0.5226 Y3.4784 I0.0625 J0
G1 X1.4435 Y3.4784
G2 X1.506 Y3.4159 I0 J-0.0625
G1 X1.506 Y2.6048
G2 X1.4949 Y2.5693 I-0.0625 J0.0001
G2 X1.5327 Y2.5822 I0.0381 J-0.0496
G1 X2.401 Y2.5822
G1 Z-0.65 F10
G1 X2.651 Y2.5822 F30
G1 Z-0.66 F10
G1 X3.5483 Y2.5822 F30
G2 X3.5842 Y2.5708 I0 J-0.0625
G2 X3.5719 Y2.6079 I0.0502 J0.0372
G1 X3.5719 Y3.4162
G2 X3.6344 Y3.4787 I0.0625 J0
G1 X4.9323 Y3.4787
G2 X4.9948 Y3.4162 I0 J-0.0625
G1 X4.9948 Y3.4162
G1 X4.9948 Y2.9961
G1 Z-0.65 F10
G1 X4.9948 Y2.7461 F30
G1 Z-0.66 F10
G1 X4.9946 Y1.1199 F30
G1 Z-0.65 F10
G1 X4.9945 Y0.8699 F30
G1 Z-0.66 F10
G1 X4.9945 Y0.5454 F30
G1 Z-0.69 F10
G2 X4.932 Y0.4829 I-0.0625 J0 F30
G1 X4.2358 Y0.4829
G2 X4.1733 Y0.5454 I0 J0.0625
G1 X4.1733 Y0.8062
G2 X4.1855 Y0.8432 I0.0625 J0
G2 X4.1473 Y0.8298 I-0.0387 J0.0491
G1 X3.8685 Y0.8298
G2 X3.8321 Y0.8415 I0.0001 J0.0625
G2 X3.8445 Y0.8044 I-0.0501 J-0.0374
G1 X3.8445 Y0.5454
G2 X3.782 Y0.4829 I-0.0625 J0
G1 X3.3157 Y0.4829
G2 X3.2532 Y0.5454 I0 J0.0625
G1 X3.2532 Y0.8065
G2 X3.2646 Y0.8425 I0.0625 J-0.0001
G2 X3.2271 Y0.8298 I-0.0378 J0.0498
G1 X3.0323 Y0.8298
G2 X2.996 Y0.8415 I0.0001 J0.0625
G2 X3.0084 Y0.8044 I-0.0501 J-0.0374
G1 X3.0084 Y0.5454
G2 X2.9459 Y0.4829 I-0.0625 J0
G1 X2.5282 Y0.4829
G2 X2.4657 Y0.5454 I0 J0.0625
G1 X2.4657 Y0.8068
G2 X2.4768 Y0.8424 I0.0625 J-0.0001
G2 X2.4393 Y0.8298 I-0.0377 J0.0498
G1 X2.2448 Y0.8298
G2 X2.2088 Y0.8412 I0 J0.0625
G2 X2.2209 Y0.8044 I-0.0504 J-0.037
G1 X2.2209 Y0.5454
G2 X2.1584 Y0.4829 I-0.0625 J0
G1 X1.6535 Y0.4829
G2 X1.591 Y0.5454 I0 J0.0625
G1 X1.591 Y0.8062
G2 X1.6024 Y0.842 I0.0625 J0
G2 X1.5653 Y0.8298 I-0.0372 J0.0502
G1 X1.3674 Y0.8298
G2 X1.3311 Y0.8414 I0 J0.0625
G2 X1.3431 Y0.8048 I-0.0505 J-0.0368
G1 X1.3431 Y0.5454
G2 X1.2806 Y0.4829 I-0.0625 J0
G1 X0.5226 Y0.4829
G2 X0.4601 Y0.5454 I0 J0.0625
G1 X0.4601 Y0.8577
G1 Z-0.65 F10
G1 X0.4601 Y1.1077 F30
G1 Z-0.69 F10
G1 X0.4601 Y2.6949 F30
G1 Z-0.65 F10
G1 X0.4601 Y2.9449 F30
G1 Z-0.69 F10
G1 X0.4601 Y3.4159 F30
G2 X0.5226 Y3.4784 I0.0625 J0
G1 X1.4435 Y3.4784
G2 X1.506 Y3.4159 I0 J-0.0625
G1 X1.506 Y2.6048
G2 X1.4949 Y2.5693 I-0.0625 J0.0001
G2 X1.5327 Y2.5822 I0.0381 J-0.0496
G1 X2.401 Y2.5822
G1 Z-0.65 F10
G1 X2.651 Y2.5822 F30
G1 Z-0.69 F10
G1 X3.5483 Y2.5822 F30
G2 X3.5842 Y2.5708 I0 J-0.0625
G2 X3.5719 Y2.6079 I0.0502 J0.0372
G1 X3.5719 Y3.4162
G2 X3.6344 Y3.4787 I0.0625 J0
G1 X4.9323 Y3.4787
G2 X4.9948 Y3.4162 I0 J-0.0625
G1 X4.9948 Y3.4162
G1 X4.9948 Y2.9961
G1 Z-0.65 F10
G1 X4.9948 Y2.7461 F30
G1 Z-0.69 F10
G1 X4.9946 Y1.1199 F30
G1 Z-0.65 F10
G1 X4.9945 Y0.8699 F30
G1 Z-0.69 F10
G1 X4.9945 Y0.5454 F30
G1 Z-0.72 F10
G2 X4.932 Y0.4829 I-0.0625 J0 F30
G1 X4.2358 Y0.4829
G2 X4.1733 Y0.5454 I0 J0.0625
G1 X4.1733 Y0.8062
G2 X4.1855 Y0.8432 I0.0625 J0
G2 X4.1473 Y0.8298 I-0.0387 J0.0491
G1 X3.8685 Y0.8298
G2 X3.8321 Y0.8415 I0.0001 J0.0625
G2 X3.8445 Y0.8044 I-0.0501 J-0.0374
G1 X3.8445 Y0.5454
G2 X3.782 Y0.4829 I-0.0625 J0
G1 X3.3157 Y0.4829
G2 X3.2532 Y0.5454 I0 J0.0625
G1 X3.2532 Y0.8065
G2 X3.2646 Y0.8425 I0.0625 J-0.0001
G2 X3.2271 Y0.8298 I-0.0378 J0.0498
G1 X3.0323 Y0.8298
G2 X2.996 Y0.8415 I0.0001 J0.0625
G2 X3.0084 Y0.8044 I-0.0501 J-0.0374
G1 X3.0084 Y0.5454
G2 X2.9459 Y0.4829 I-0.0625 J0
G1 X2.5282 Y0.4829
G2 X2.4657 Y0.5454 I0 J0.0625
G1 X2.4657 Y0.8068
G2 X2.4768 Y0.8424 I0.0625 J-0.0001
G2 X2.4393 Y0.8298 I-0.0377 J0.0498
G1 X2.2448 Y0.8298
G2 X2.2088 Y0.8412 I0 J0.0625
G2 X2.2209 Y0.8044 I-0.0504 J-0.037
G1 X2.2209 Y0.5454
G2 X2.1584 Y0.4829 I-0.0625 J0
G1 X1.6535 Y0.4829
G2 X1.591 Y0.5454 I0 J0.0625
G1 X1.591 Y0.8062
G2 X1.6024 Y0.842 I0.0625 J0
G2 X1.5653 Y0.8298 I-0.0372 J0.0502
G1 X1.3674 Y0.8298
G2 X1.3311 Y0.8414 I0 J0.0625
G2 X1.3431 Y0.8048 I-0.0505 J-0.0368
G1 X1.3431 Y0.5454
G2 X1.2806 Y0.4829 I-0.0625 J0
G1 X0.5226 Y0.4829
G2 X0.4601 Y0.5454 I0 J0.0625
G1 X0.4601 Y0.8577
G1 Z-0.65 F10
G1 X0.4601 Y1.1077 F30
G1 Z-0.72 F10
G1 X0.4601 Y2.6949 F30
G1 Z-0.65 F10
G1 X0.4601 Y2.9449 F30
G1 Z-0.72 F10
G1 X0.4601 Y3.4159 F30
G2 X0.5226 Y3.4784 I0.0625 J0
G1 X1.4435 Y3.4784
G2 X1.506 Y3.4159 I0 J-0.0625
G1 X1.506 Y2.6048
G2 X1.4949 Y2.5693 I-0.0625 J0.0001
G2 X1.5327 Y2.5822 I0.0381 J-0.0496
G1 X2.401 Y2.5822
G1 Z-0.65 F10
G1 X2.651 Y2.5822 F30
G1 Z-0.72 F10
G1 X3.5483 Y2.5822 F30
G2 X3.5842 Y2.5708 I0 J-0.0625
G2 X3.5719 Y2.6079 I0.0502 J0.0372
G1 X3.5719 Y3.4162
G2 X3.6344 Y3.4787 I0.0625 J0
G1 X4.9323 Y3.4787
G2 X4.9948 Y3.4162 I0 J-0.0625
G1 X4.9948 Y3.4162
G1 X4.9948 Y2.9961
G1 Z-0.65 F10
G1 X4.9948 Y2.7461 F30
G1 Z-0.72 F10
G1 X4.9946 Y1.1199 F30
G1 Z-0.65 F10
G1 X4.9945 Y0.8699 F30
G1 Z-0.72 F10
G1 X4.9945 Y0.5454 F30
G1 Z-0.75 F10
G2 X4.932 Y0.4829 I-0.0625 J0 F30
G1 X4.2358 Y0.4829
G2 X4.1733 Y0.5454 I0 J0.0625
G1 X4.1733 Y0.8062
G2 X4.1855 Y0.8432 I0.0625 J0
G2 X4.1473 Y0.8298 I-0.0387 J0.0491
G1 X3.8685 Y0.8298
G2 X3.8321 Y0.8415 I0.0001 J0.0625
G2 X3.8445 Y0.8044 I-0.0501 J-0.0374
G1 X3.8445 Y0.5454
G2 X3.782 Y0.4829 I-0.0625 J0
G1 X3.3157 Y0.4829
G2 X3.2532 Y0.5454 I0 J0.0625
G1 X3.2532 Y0.8065
G2 X3.2646 Y0.8425 I0.0625 J-0.0001
G2 X3.2271 Y0.8298 I-0.0378 J0.0498
G1 X3.0323 Y0.8298
G2 X2.996 Y0.8415 I0.0001 J0.0625
G2 X3.0084 Y0.8044 I-0.0501 J-0.0374
G1 X3.0084 Y0.5454
G2 X2.9459 Y0.4829 I-0.0625 J0
G1 X2.5282 Y0.4829
G2 X2.4657 Y0.5454 I0 J0.0625
G1 X2.4657 Y0.8068
G2 X2.4768 Y0.8424 I0.0625 J-0.0001
G2 X2.4393 Y0.8298 I-0.0377 J0.0498
G1 X2.2448 Y0.8298
G2 X2.2088 Y0.8412 I0 J0.0625
G2 X2.2209 Y0.8044 I-0.0504 J-0.037
G1 X2.2209 Y0.5454
G2 X2.1584 Y0.4829 I-0.0625 J0
G1 X1.6535 Y0.4829
G2 X1.591 Y0.5454 I0 J0.0625
G1 X1.591 Y0.8062
G2 X1.6024 Y0.842 I0.0625 J0
G2 X1.5653 Y0.8298 I-0.0372 J0.0502
G1 X1.3674 Y0.8298
G2 X1.3311 Y0.8414 I0 J0.0625
G2 X1.3431 Y0.8048 I-0.0505 J-0.0368
G1 X1.3431 Y0.5454
G2 X1.2806 Y0.4829 I-0.0625 J0
G1 X0.5226 Y0.4829
G2 X0.4601 Y0.5454 I0 J0.0625
G1 X0.4601 Y0.8577
G1 Z-0.65 F10
G1 X0.4601 Y1.1077 F30
G1 Z-0.75 F10
G1 X0.4601 Y2.6949 F30
G1 Z-0.65 F10
G1 X0.4601 Y2.9449 F30
G1 Z-0.75 F10
G1 X0.4601 Y3.4159 F30
G2 X0.5226 Y3.4784 I0.0625 J0
G1 X1.4435 Y3.4784
G2 X1.506 Y3.4159 I0 J-0.0625
G1 X1.506 Y2.6048
G2 X1.4949 Y2.5693 I-0.0625 J0.0001
G2 X1.5327 Y2.5822 I0.0381 J-0.0496
G1 X2.401 Y2.5822
G1 Z-0.65 F10
G1 X2.651 Y2.5822 F30
G1 Z-0.75 F10
G1 X3.5483 Y2.5822 F30
G2 X3.5842 Y2.5708 I0 J-0.0625
G2 X3.5719 Y2.6079 I0.0502 J0.0372
G1 X3.5719 Y3.4162
G2 X3.6344 Y3.4787 I0.0625 J0
G1 X4.9323 Y3.4787
G2 X4.9948 Y3.4162 I0 J-0.0625
G1 X4.9948 Y3.4162
G1 X4.9948 Y2.9961
G1 Z-0.65 F10
G1 X4.9948 Y2.7461 F30
G1 Z-0.75 F10
G1 X4.9946 Y1.1199 F30
G1 Z-0.65 F10
G1 X4.9945 Y0.8699 F30
G1 Z-0.75 F10
G1 X4.9945 Y0.5454 F30
G0 Z0.25
M5
M30
