; generated by Slic3r 0.9.3 on 2013-06-03 at 06:36:56

; layer_height = .25
; perimeters = 3
; solid_layers = 2
; fill_density = 0.3
; perimeter_speed = 30
; infill_speed = 60
; travel_speed = 75
; scale = 1
; nozzle_diameter = 0.35
; filament_diameter = 1.8
; extrusion_multiplier = 1
; single wall width = 0.39mm

M107
G92 E0	;reset extruder location
G1 E5	;Prime extruder
G28	;Go Home
;G1 E20	Prime extruder
G90 ; use absolute coordinates
G21 ; set units to millimeters
G92 E0
M82 ; use absolute distances for extrusion
G1 F1080.000 E-1.00000
G92 E0
G1 Z0.250 F4500.000
G1 X33.206 Y43.740
G1 F1080.000 E1.00000
G1 X33.496 Y43.460 F1200.000 E1.01524
G1 X33.656 Y43.330 E1.02304
G1 X33.996 Y43.100 E1.03856
G1 X34.356 Y42.910 E1.05395
G1 X34.736 Y42.760 E1.06939
G1 X35.136 Y42.650 E1.08508
G1 X35.536 Y42.580 E1.10043
G1 X35.946 Y42.560 E1.11595
G1 X90.446 Y42.580 E3.17652
G1 X90.846 Y42.650 E3.19187
G1 X91.246 Y42.760 E3.20756
G1 X91.626 Y42.910 E3.22301
G1 X91.986 Y43.100 E3.23840
G1 X92.326 Y43.330 E3.25392
G1 X92.486 Y43.460 E3.26171
G1 X92.916 Y43.890 E3.28470
G1 X93.046 Y44.050 E3.29250
G1 X93.276 Y44.390 E3.30802
G1 X93.466 Y44.750 E3.32341
G1 X93.616 Y45.130 E3.33885
G1 X93.726 Y45.530 E3.35454
G1 X93.796 Y45.930 E3.36989
G1 X93.796 Y80.060 E4.66030
G1 X93.726 Y80.460 E4.67565
G1 X93.616 Y80.860 E4.69134
G1 X93.466 Y81.240 E4.70679
G1 X93.276 Y81.600 E4.72218
G1 X93.046 Y81.940 E4.73770
G1 X92.916 Y82.100 E4.74549
G1 X92.486 Y82.530 E4.76848
G1 X92.326 Y82.660 E4.77628
G1 X91.986 Y82.890 E4.79180
G1 X91.626 Y83.080 E4.80719
G1 X91.246 Y83.230 E4.82263
G1 X90.846 Y83.340 E4.83832
G1 X90.446 Y83.410 E4.85367
G1 X90.036 Y83.430 E4.86919
G1 X35.536 Y83.410 E6.92976
G1 X35.136 Y83.340 E6.94512
G1 X34.736 Y83.230 E6.96080
G1 X34.356 Y83.080 E6.97625
G1 X33.996 Y82.890 E6.99164
G1 X33.656 Y82.660 E7.00716
G1 X33.496 Y82.530 E7.01495
G1 X33.066 Y82.100 E7.03794
G1 X32.936 Y81.940 E7.04574
G1 X32.706 Y81.600 E7.06126
G1 X32.516 Y81.240 E7.07665
G1 X32.366 Y80.860 E7.09209
G1 X32.256 Y80.460 E7.10778
G1 X32.186 Y80.060 E7.12313
G1 X32.186 Y45.930 E8.41354
G1 X32.256 Y45.530 E8.42889
G1 X32.366 Y45.130 E8.44458
G1 X32.516 Y44.750 E8.46003
G1 X32.706 Y44.390 E8.47542
G1 X32.936 Y44.050 E8.49094
G1 X32.947 Y44.037 E8.49158
G1 X33.226 Y44.320 F4500.000
G1 X33.346 Y44.160 F1200.000 E8.49914
G1 X33.476 Y44.010 E8.50664
G1 X33.616 Y43.870 E8.51413
G1 X33.766 Y43.740 E8.52163
G1 X34.256 Y43.400 E8.54418
G1 X34.426 Y43.310 E8.55146
G1 X34.786 Y43.150 E8.56635
G1 X35.166 Y43.040 E8.58131
G1 X35.356 Y43.000 E8.58865
G1 X35.556 Y42.970 E8.59630
G1 X35.946 Y42.950 E8.61106
G1 X90.236 Y42.960 E10.66369
G1 X90.426 Y42.970 E10.67089
G1 X90.626 Y43.000 E10.67853
G1 X91.006 Y43.090 E10.69330
G1 X91.196 Y43.150 E10.70083
G1 X91.556 Y43.310 E10.71573
G1 X91.726 Y43.400 E10.72300
G1 X92.056 Y43.620 E10.73799
G1 X92.216 Y43.740 E10.74555
G1 X92.366 Y43.870 E10.75306
G1 X92.506 Y44.010 E10.76055
G1 X92.636 Y44.160 E10.76805
G1 X92.976 Y44.650 E10.79060
G1 X93.066 Y44.820 E10.79787
G1 X93.226 Y45.180 E10.81277
G1 X93.336 Y45.560 E10.82772
G1 X93.376 Y45.750 E10.83507
G1 X93.406 Y45.950 E10.84271
G1 X93.416 Y79.850 E12.12442
G1 X93.406 Y80.040 E12.13162
G1 X93.376 Y80.240 E12.13926
G1 X93.286 Y80.620 E12.15403
G1 X93.226 Y80.810 E12.16156
G1 X93.066 Y81.170 E12.17646
G1 X92.976 Y81.340 E12.18373
G1 X92.756 Y81.670 E12.19873
G1 X92.636 Y81.830 E12.20629
G1 X92.506 Y81.980 E12.21379
G1 X92.366 Y82.120 E12.22128
G1 X92.216 Y82.250 E12.22878
G1 X91.726 Y82.590 E12.25133
G1 X91.556 Y82.680 E12.25860
G1 X91.196 Y82.840 E12.27350
G1 X90.816 Y82.950 E12.28846
G1 X90.626 Y82.990 E12.29580
G1 X90.426 Y83.020 E12.30344
G1 X90.036 Y83.040 E12.31821
G1 X35.746 Y83.030 E14.37084
G1 X35.556 Y83.020 E14.37803
G1 X35.356 Y82.990 E14.38568
G1 X34.976 Y82.900 E14.40044
G1 X34.786 Y82.840 E14.40798
G1 X34.426 Y82.680 E14.42287
G1 X34.256 Y82.590 E14.43015
G1 X33.926 Y82.370 E14.44514
G1 X33.766 Y82.250 E14.45270
G1 X33.616 Y82.120 E14.46021
G1 X33.476 Y81.980 E14.46769
G1 X33.346 Y81.830 E14.47520
G1 X33.006 Y81.340 E14.49775
G1 X32.916 Y81.170 E14.50502
G1 X32.756 Y80.810 E14.51991
G1 X32.646 Y80.430 E14.53487
G1 X32.606 Y80.240 E14.54221
G1 X32.576 Y80.040 E14.54986
G1 X32.566 Y46.140 E15.83157
G1 X32.576 Y45.950 E15.83877
G1 X32.606 Y45.750 E15.84641
G1 X32.696 Y45.370 E15.86118
G1 X32.756 Y45.180 E15.86871
G1 X32.916 Y44.820 E15.88360
G1 X33.006 Y44.650 E15.89088
G1 X33.008 Y44.648 E15.89096
G1 F1080.000 E14.89096
G92 E0
G1 X80.899 Y52.139 F4500.000
G1 F1080.000 E1.00000
G1 X81.057 Y52.139 F1200.000 E1.00729
G1 X81.073 Y51.779 E1.02385
G1 X81.114 Y51.461 E1.03861
G1 X81.114 Y51.461 E1.03861
G1 X81.136 Y51.295 E1.04629
G1 X81.137 Y51.295 E1.04633
G1 X81.267 Y50.876 E1.06648
G1 X81.267 Y50.876 E1.06648
G1 X81.278 Y50.839 E1.06826
G1 X81.400 Y50.542 E1.08302
G1 X81.546 Y50.256 E1.09779
G1 X81.717 Y49.984 E1.11256
G1 X81.910 Y49.727 E1.12734
G1 X82.125 Y49.488 E1.14210
G1 X82.359 Y49.268 E1.15686
G1 X82.612 Y49.069 E1.17164
G1 X82.880 Y48.893 E1.18638
G1 X82.880 Y48.893 E1.18639
G1 X83.463 Y48.510 E1.21846
G1 X83.578 Y48.572 E1.22447
G1 X83.726 Y48.523 E1.23162
G1 X83.726 Y48.523 E1.23162
G1 X83.763 Y48.511 E1.23340
G1 X84.075 Y48.435 E1.24817
G1 X84.393 Y48.387 E1.26293
G1 X84.713 Y48.366 E1.27771
G1 X85.196 Y48.377 E1.29988
G1 X85.669 Y48.470 E1.32206
G1 X85.976 Y48.558 E1.33675
G1 X85.977 Y48.558 E1.33675
G1 X86.110 Y48.596 E1.34315
G1 X86.110 Y48.609 E1.34373
G1 X86.278 Y48.673 E1.35199
G1 X86.567 Y48.814 E1.36677
G1 X86.843 Y48.978 E1.38154
G1 X87.104 Y49.166 E1.39631
G1 X87.348 Y49.375 E1.41108
G1 X87.573 Y49.605 E1.42584
G1 X87.777 Y49.853 E1.44061
G1 X87.959 Y50.118 E1.45538
G1 X88.118 Y50.397 E1.47015
G1 X88.252 Y50.689 E1.48492
G1 X88.579 Y51.603 E1.52950
G1 X88.496 Y51.603 E1.53333
G1 X88.525 Y51.939 E1.54885
G1 X88.525 Y52.422 E1.57103
G1 X88.497 Y52.581 E1.57844
G1 X88.497 Y52.581 E1.57846
G1 X88.442 Y52.897 E1.59322
G1 X88.275 Y53.531 E1.62334
G1 X88.242 Y53.531 E1.62484
G1 X88.118 Y53.803 E1.63857
G1 X87.959 Y54.082 E1.65334
G1 X87.777 Y54.347 E1.66811
G1 X87.573 Y54.595 E1.68288
G1 X87.348 Y54.825 E1.69765
G1 X87.104 Y55.034 E1.71242
G1 X86.843 Y55.222 E1.72718
G1 X86.567 Y55.387 E1.74196
G1 X86.278 Y55.527 E1.75672
G1 X86.057 Y55.612 E1.76762
G1 X86.057 Y55.619 E1.76797
G1 X85.669 Y55.730 E1.78650
G1 X85.354 Y55.792 E1.80127
G1 X85.035 Y55.827 E1.81604
G1 X84.713 Y55.834 E1.83080
G1 X84.393 Y55.813 E1.84557
G1 X84.113 Y55.771 E1.85856
G1 X84.113 Y55.771 E1.85856
G1 X84.075 Y55.765 E1.86035
G1 X83.606 Y55.652 E1.88250
G1 X83.459 Y55.588 E1.88990
G1 X83.458 Y55.588 E1.88993
G1 X83.163 Y55.460 E1.90470
G1 X82.880 Y55.307 E1.91947
G1 X82.426 Y55.009 E1.94446
G1 X82.426 Y54.994 E1.94512
G1 X82.125 Y54.712 E1.96409
G1 X82.089 Y54.673 E1.96652
G1 X82.089 Y54.673 E1.96653
G1 X81.910 Y54.473 E1.97885
G1 X81.290 Y53.649 E2.02624
G1 X81.322 Y53.585 E2.02953
G1 X81.205 Y53.400 E2.03959
G1 X81.291 Y53.400 E2.04350
G1 X81.182 Y53.052 E2.06023
G1 X81.182 Y53.052 E2.06024
G1 X81.016 Y52.516 E2.08606
G1 X81.556 Y52.623 F4500.000
G1 X81.566 Y52.623 F1200.000 E2.08653
G1 X81.543 Y52.100 E2.11059
G1 X81.555 Y51.821 E2.12344
G1 X81.561 Y51.779 E2.12538
G1 X81.561 Y51.779 E2.12538
G1 X81.591 Y51.543 E2.13630
G1 X81.651 Y51.270 E2.14915
G1 X81.734 Y51.003 E2.16200
G1 X81.840 Y50.744 E2.17485
G1 X81.967 Y50.495 E2.18771
G1 X82.116 Y50.258 E2.20056
G1 X82.284 Y50.035 E2.21342
G1 X82.471 Y49.827 E2.22627
G1 X82.675 Y49.635 E2.23912
G1 X82.895 Y49.462 E2.25198
G1 X83.128 Y49.309 E2.26482
G1 X83.128 Y49.309 E2.26482
G1 X83.487 Y49.073 E2.28457
G1 X83.533 Y49.098 E2.28695
G1 X83.896 Y48.976 E2.30456
G1 X84.168 Y48.911 E2.31741
G1 X84.445 Y48.869 E2.33026
G1 X84.724 Y48.851 E2.34312
G1 X85.144 Y48.860 E2.36242
G1 X85.556 Y48.940 E2.38172
G1 X85.626 Y48.961 E2.38510
G1 X85.626 Y48.961 E2.38510
G1 X85.825 Y49.018 E2.39458
G1 X86.086 Y49.118 E2.40743
G1 X86.337 Y49.240 E2.42028
G1 X86.578 Y49.383 E2.43314
G1 X86.804 Y49.546 E2.44599
G1 X87.017 Y49.729 E2.45884
G1 X87.212 Y49.929 E2.47169
G1 X87.390 Y50.145 E2.48455
G1 X87.548 Y50.375 E2.49740
G1 X87.686 Y50.618 E2.51026
G1 X87.803 Y50.872 E2.52311
G1 X87.891 Y51.119 E2.53514
G1 X87.891 Y51.119 E2.53514
G1 X87.898 Y51.136 E2.53596
G1 X87.969 Y51.406 E2.54882
G1 X88.017 Y51.682 E2.56167
G1 X88.041 Y51.960 E2.57452
G1 X88.041 Y52.380 E2.59381
G1 X88.017 Y52.518 E2.60027
G1 X88.017 Y52.519 E2.60028
G1 X87.969 Y52.794 E2.61313
G1 X87.902 Y53.047 E2.62516
G1 X87.902 Y53.047 E2.62516
G1 X87.897 Y53.064 E2.62598
G1 X87.803 Y53.328 E2.63883
G1 X87.686 Y53.582 E2.65169
G1 X87.548 Y53.825 E2.66454
G1 X87.390 Y54.055 E2.67739
G1 X87.212 Y54.271 E2.69025
G1 X87.017 Y54.471 E2.70310
G1 X86.804 Y54.654 E2.71595
G1 X86.578 Y54.817 E2.72881
G1 X86.337 Y54.960 E2.74166
G1 X86.086 Y55.082 E2.75451
G1 X85.825 Y55.182 E2.76737
G1 X85.573 Y55.255 E2.77940
G1 X85.573 Y55.255 E2.77940
G1 X85.556 Y55.260 E2.78022
G1 X85.281 Y55.313 E2.79307
G1 X85.003 Y55.343 E2.80593
G1 X84.724 Y55.349 E2.81878
G1 X84.445 Y55.331 E2.83163
G1 X84.168 Y55.289 E2.84449
G1 X83.760 Y55.191 E2.86377
G1 X83.632 Y55.135 E2.87021
G1 X83.631 Y55.135 E2.87024
G1 X83.374 Y55.024 E2.88309
G1 X83.128 Y54.891 E2.89595
G1 X82.910 Y54.748 E2.90798
G1 X82.910 Y54.748 E2.90798
G1 X82.895 Y54.738 E2.90880
G1 X82.675 Y54.565 E2.92166
G1 X82.471 Y54.373 E2.93451
G1 X82.284 Y54.165 E2.94736
G1 X82.126 Y53.956 E2.95939
G1 X82.126 Y53.956 E2.95939
G1 X82.116 Y53.942 E2.96021
G1 X81.977 Y53.720 E2.97224
G1 X81.977 Y53.720 E2.97224
G1 X81.967 Y53.705 E2.97307
G1 X81.840 Y53.456 E2.98592
G1 X81.734 Y53.197 E2.99877
G1 X81.673 Y53.000 E3.00828
G1 F1080.000 E2.00828
G92 E0
G1 X84.099 Y70.635 F4500.000
G1 F1080.000 E1.00000
G1 X84.099 Y70.706 F1200.000 E1.00327
G1 X84.713 Y70.666 E1.03158
G1 X85.035 Y70.673 E1.04635
G1 X85.316 Y70.704 E1.05935
G1 X85.316 Y70.704 E1.05935
G1 X85.354 Y70.708 E1.06112
G1 X85.669 Y70.770 E1.07588
G1 X85.978 Y70.858 E1.09065
G1 X86.155 Y70.926 E1.09936
G1 X86.205 Y70.897 E1.10202
G1 X86.667 Y71.173 E1.12675
G1 X86.730 Y71.144 E1.12993
G1 X87.348 Y71.675 E1.16736
G1 X87.573 Y71.905 E1.18213
G1 X87.777 Y72.153 E1.19690
G1 X87.959 Y72.418 E1.21166
G1 X88.118 Y72.697 E1.22643
G1 X88.251 Y72.987 E1.24108
G1 X88.251 Y72.987 E1.24109
G1 X88.713 Y73.994 E1.29202
G1 X88.525 Y73.994 E1.30066
G1 X88.525 Y74.592 E1.32816
G1 X88.547 Y74.592 E1.32919
G1 X88.442 Y75.197 E1.35742
G1 X88.360 Y75.508 E1.37218
G1 X88.252 Y75.811 E1.38696
G1 X88.134 Y76.067 E1.39994
G1 X88.134 Y76.067 E1.39994
G1 X88.118 Y76.103 E1.40172
G1 X87.959 Y76.382 E1.41649
G1 X87.777 Y76.647 E1.43125
G1 X87.573 Y76.895 E1.44602
G1 X87.348 Y77.125 E1.46080
G1 X87.133 Y77.309 E1.47378
G1 X87.133 Y77.309 E1.47378
G1 X87.104 Y77.334 E1.47557
G1 X86.843 Y77.522 E1.49033
G1 X86.567 Y77.687 E1.50510
G1 X86.325 Y77.804 E1.51747
G1 X86.325 Y77.809 E1.51769
G1 X85.978 Y77.942 E1.53477
G1 X85.707 Y78.020 E1.54776
G1 X85.707 Y78.020 E1.54776
G1 X85.669 Y78.030 E1.54954
G1 X85.354 Y78.092 E1.56430
G1 X85.073 Y78.123 E1.57730
G1 X85.073 Y78.123 E1.57730
G1 X85.034 Y78.127 E1.57908
G1 X84.713 Y78.134 E1.59385
G1 X84.393 Y78.113 E1.60861
G1 X83.702 Y78.008 E1.64072
G1 X83.702 Y77.969 E1.64251
G1 X83.458 Y77.887 E1.65435
G1 X83.301 Y77.819 E1.66222
G1 X83.247 Y77.848 E1.66501
G1 X82.611 Y77.431 E1.69997
G1 X82.359 Y77.232 E1.71473
G1 X82.125 Y77.012 E1.72950
G1 X81.910 Y76.773 E1.74427
G1 X81.717 Y76.516 E1.75904
G1 X81.546 Y76.244 E1.77381
G1 X81.056 Y75.288 E1.82317
G1 X81.162 Y75.288 E1.82805
G1 X80.899 Y74.439 E1.86891
G1 X81.057 Y74.439 E1.87620
G1 X81.061 Y74.358 E1.87991
G1 X81.061 Y74.358 E1.87991
G1 X81.073 Y74.079 E1.89276
G1 X81.114 Y73.760 E1.90754
G1 X81.114 Y73.760 E1.90755
G1 X81.136 Y73.595 E1.91520
G1 X81.137 Y73.595 E1.91524
G1 X81.278 Y73.139 E1.93716
G1 X81.400 Y72.842 E1.95193
G1 X81.546 Y72.556 E1.96670
G1 X81.717 Y72.284 E1.98147
G1 X81.910 Y72.027 E1.99624
G1 X82.125 Y71.788 E2.01100
G1 X82.359 Y71.568 E2.02578
G1 X82.612 Y71.369 E2.04055
G1 X82.880 Y71.193 E2.05531
G1 X83.163 Y71.040 E2.07008
G1 X83.737 Y70.792 E2.09882
G1 X83.896 Y71.276 F4500.000
G1 X84.168 Y71.211 F1200.000 E2.11167
G1 X84.445 Y71.169 E2.12452
G1 X84.706 Y71.152 E2.13655
G1 X84.706 Y71.152 E2.13655
G1 X84.724 Y71.151 E2.13738
G1 X85.003 Y71.157 E2.15023
G1 X85.281 Y71.187 E2.16309
G1 X85.556 Y71.240 E2.17593
G1 X85.825 Y71.318 E2.18879
G1 X86.086 Y71.418 E2.20164
G1 X86.337 Y71.540 E2.21449
G1 X86.562 Y71.674 E2.22653
G1 X86.562 Y71.674 E2.22653
G1 X86.578 Y71.683 E2.22735
G1 X86.804 Y71.846 E2.24020
G1 X87.003 Y72.017 E2.25223
G1 X87.003 Y72.017 E2.25223
G1 X87.017 Y72.029 E2.25306
G1 X87.212 Y72.229 E2.26591
G1 X87.390 Y72.445 E2.27876
G1 X87.548 Y72.675 E2.29161
G1 X87.686 Y72.918 E2.30447
G1 X87.803 Y73.173 E2.31734
G1 X87.803 Y73.173 E2.31734
G1 X87.958 Y73.510 E2.33441
G1 X87.935 Y73.510 E2.33549
G1 X88.017 Y73.982 E2.35747
G1 X88.041 Y74.260 E2.37032
G1 X88.041 Y74.540 E2.38317
G1 X88.017 Y74.818 E2.39603
G1 X87.972 Y75.076 E2.40806
G1 X87.972 Y75.076 E2.40806
G1 X87.969 Y75.094 E2.40888
G1 X87.898 Y75.364 E2.42173
G1 X87.803 Y75.628 E2.43459
G1 X87.686 Y75.882 E2.44744
G1 X87.548 Y76.125 E2.46029
G1 X87.390 Y76.355 E2.47314
G1 X87.212 Y76.571 E2.48600
G1 X87.017 Y76.771 E2.49885
G1 X86.804 Y76.954 E2.51171
G1 X86.578 Y77.117 E2.52456
G1 X86.337 Y77.260 E2.53741
G1 X86.086 Y77.382 E2.55027
G1 X85.841 Y77.476 E2.56230
G1 X85.841 Y77.476 E2.56230
G1 X85.825 Y77.482 E2.56312
G1 X85.556 Y77.560 E2.57597
G1 X85.281 Y77.613 E2.58882
G1 X85.003 Y77.643 E2.60168
G1 X84.724 Y77.649 E2.61453
G1 X84.445 Y77.631 E2.62739
G1 X84.186 Y77.592 E2.63941
G1 X84.186 Y77.592 E2.63941
G1 X84.168 Y77.589 E2.64024
G1 X83.896 Y77.524 E2.65309
G1 X83.631 Y77.435 E2.66595
G1 X83.374 Y77.324 E2.67880
G1 X83.128 Y77.191 E2.69165
G1 X82.909 Y77.047 E2.70368
G1 X82.909 Y77.047 E2.70368
G1 X82.895 Y77.038 E2.70451
G1 X82.675 Y76.865 E2.71736
G1 X82.471 Y76.673 E2.73021
G1 X82.284 Y76.465 E2.74306
G1 X82.116 Y76.242 E2.75592
G1 X81.967 Y76.005 E2.76877
G1 X81.848 Y75.772 E2.78080
G1 X81.848 Y75.772 E2.78080
G1 X81.840 Y75.756 E2.78163
G1 X81.734 Y75.497 E2.79448
G1 X81.651 Y75.230 E2.80731
G1 X81.651 Y75.230 E2.80731
G1 X81.556 Y74.923 E2.82211
G1 X81.566 Y74.923 E2.82257
G1 X81.543 Y74.400 E2.84663
G1 X81.555 Y74.121 E2.85948
G1 X81.561 Y74.079 E2.86142
G1 X81.561 Y74.079 E2.86142
G1 X81.591 Y73.843 E2.87234
G1 X81.651 Y73.570 E2.88519
G1 X81.734 Y73.303 E2.89805
G1 X81.840 Y73.044 E2.91090
G1 X81.967 Y72.795 E2.92375
G1 X82.116 Y72.558 E2.93661
G1 X82.284 Y72.335 E2.94946
G1 X82.471 Y72.127 E2.96231
G1 X82.675 Y71.935 E2.97517
G1 X82.895 Y71.762 E2.98802
G1 X83.128 Y71.609 E3.00087
G1 X83.374 Y71.476 E3.01373
G1 X83.526 Y71.410 E3.02131
G1 F1080.000 E2.02131
G92 E0
G1 X54.011 Y78.682 F4500.000
G1 F1080.000 E1.00000
G1 X54.011 Y47.318 F1200.000 E2.44149
G1 X84.728 Y47.318 E3.85322
G1 X84.784 Y47.659 E3.86909
G1 X83.624 Y48.047 E3.92533
G1 X83.439 Y47.947 E3.93497
G1 X82.632 Y48.477 E3.97935
G1 X82.631 Y48.477 E3.97937
G1 X82.329 Y48.676 E3.99601
G1 X82.043 Y48.901 E4.01270
G1 X81.779 Y49.149 E4.02939
G1 X81.536 Y49.419 E4.04606
G1 X81.317 Y49.709 E4.06276
G1 X81.125 Y50.017 E4.07944
G1 X80.959 Y50.340 E4.09613
G1 X80.767 Y50.811 E4.11951
G1 X80.711 Y50.811 E4.12211
G1 X80.661 Y51.196 E4.13995
G1 X80.518 Y51.655 E4.16205
G1 X80.242 Y51.655 E4.17474
G1 X80.583 Y52.753 E4.22758
G1 X80.417 Y53.053 E4.24332
G1 X80.767 Y53.612 E4.27367
G1 X80.723 Y53.701 E4.27825
G1 X81.433 Y54.644 E4.33250
G1 X81.423 Y54.655 E4.33318
G1 X81.536 Y54.781 E4.34097
G1 X81.536 Y54.781 E4.34098
G1 X81.778 Y55.051 E4.35764
G1 X81.942 Y55.204 E4.36794
G1 X81.942 Y55.270 E4.37096
G1 X82.632 Y55.723 E4.40892
G1 X82.952 Y55.896 E4.42560
G1 X83.154 Y55.983 E4.43573
G1 X83.154 Y55.983 E4.43573
G1 X83.285 Y56.040 E4.44230
G1 X83.286 Y56.040 E4.44233
G1 X83.452 Y56.112 E4.45069
G1 X83.629 Y56.155 E4.45905
G1 X83.629 Y56.187 E4.46050
G1 X84.341 Y56.295 E4.49356
G1 X84.703 Y56.318 E4.51025
G1 X85.066 Y56.310 E4.52693
G1 X85.427 Y56.271 E4.54361
G1 X85.783 Y56.201 E4.56030
G1 X86.541 Y55.984 E4.59654
G1 X86.541 Y55.937 E4.59867
G1 X86.797 Y55.813 E4.61178
G1 X87.109 Y55.627 E4.62847
