; generated by Slic3r 0.9.3 on 2013-06-15 at 13:40:24

; layer_height = .25
; perimeters = 3
; solid_layers = 2
; fill_density = 0.3
; perimeter_speed = 30
; infill_speed = 60
; travel_speed = 75
; scale = 1
; nozzle_diameter = 0.35
; filament_diameter = 1.8
; extrusion_multiplier = 1
; single wall width = 0.39mm

M107
G92 E0	;reset extruder location
G1 E5	;Prime extruder
G28	;Go Home
;G1 E20	Prime extruder
G90 ; use absolute coordinates
G21 ; set units to millimeters
G92 E0
M82 ; use absolute distances for extrusion
G1 F1080.000 E-1.00000
G92 E0
G1 Z0.250 F4500.000
G1 X30.930 Y37.750
G1 F1080.000 E1.00000
G1 X53.120 Y20.620 F1200.000 E2.05988
G1 X53.310 Y20.490 E2.06858
G1 X53.510 Y20.380 E2.07721
G1 X53.920 Y20.200 E2.09414
G1 X54.350 Y20.070 E2.11113
G1 X54.580 Y20.020 E2.12003
G1 X55.020 Y19.970 E2.13677
G1 X55.250 Y19.960 E2.14547
G1 X70.970 Y19.970 E2.73983
G1 X71.410 Y20.020 E2.75657
G1 X71.640 Y20.070 E2.76547
G1 X72.070 Y20.200 E2.78245
G1 X72.280 Y20.290 E2.79109
G1 X72.680 Y20.500 E2.80817
G1 X72.870 Y20.620 E2.81667
G1 X95.220 Y37.890 E3.88457
G1 X95.380 Y38.030 E3.89261
G1 X95.670 Y38.350 E3.90894
G1 X95.800 Y38.520 E3.91703
G1 X96.030 Y38.880 E3.93318
G1 X96.130 Y39.070 E3.94130
G1 X96.300 Y39.470 E3.95773
G1 X96.370 Y39.680 E3.96610
G1 X96.420 Y39.880 E3.97389
G1 X96.490 Y40.310 E3.99036
G1 X96.520 Y40.740 E4.00666
G1 X96.510 Y85.460 E5.69746
G1 X96.460 Y85.880 E5.71346
G1 X96.420 Y86.100 E5.72191
G1 X96.370 Y86.300 E5.72970
G1 X96.300 Y86.510 E5.73807
G1 X96.130 Y86.910 E5.75451
G1 X96.030 Y87.100 E5.76262
G1 X95.800 Y87.460 E5.77878
G1 X95.670 Y87.630 E5.78687
G1 X95.380 Y87.950 E5.80320
G1 X72.870 Y105.360 E6.87912
G1 X72.680 Y105.480 E6.88762
G1 X72.280 Y105.690 E6.90470
G1 X72.070 Y105.780 E6.91334
G1 X71.640 Y105.910 E6.93032
G1 X71.410 Y105.960 E6.93922
G1 X70.970 Y106.010 E6.95596
G1 X70.740 Y106.020 E6.96467
G1 X55.020 Y106.010 E7.55902
G1 X54.580 Y105.960 E7.57576
G1 X54.350 Y105.910 E7.58466
G1 X53.920 Y105.780 E7.60165
G1 X53.510 Y105.600 E7.61858
G1 X53.310 Y105.490 E7.62721
G1 X30.760 Y88.090 E8.70410
G1 X30.600 Y87.950 E8.71213
G1 X30.310 Y87.630 E8.72846
G1 X30.180 Y87.460 E8.73655
G1 X29.950 Y87.100 E8.75271
G1 X29.850 Y86.910 E8.76082
G1 X29.680 Y86.510 E8.77726
G1 X29.610 Y86.300 E8.78563
G1 X29.560 Y86.100 E8.79342
G1 X29.490 Y85.670 E8.80989
G1 X29.460 Y85.240 E8.82619
G1 X29.470 Y40.520 E10.51699
G1 X29.520 Y40.100 E10.53298
G1 X29.560 Y39.880 E10.54144
G1 X29.610 Y39.680 E10.54923
G1 X29.680 Y39.470 E10.55760
G1 X29.850 Y39.070 E10.57403
G1 X29.950 Y38.880 E10.58215
G1 X30.180 Y38.520 E10.59830
G1 X30.310 Y38.350 E10.60640
G1 X30.600 Y38.030 E10.62272
G1 X30.629 Y38.005 E10.62418
G1 X30.860 Y38.330 F4500.000
G1 X31.010 Y38.190 F1200.000 E10.63194
G1 X53.340 Y20.940 E11.69878
G1 X53.510 Y20.830 E11.70643
G1 X53.870 Y20.640 E11.72182
G1 X54.250 Y20.500 E11.73713
G1 X54.650 Y20.400 E11.75272
G1 X54.850 Y20.370 E11.76037
G1 X55.250 Y20.350 E11.77551
G1 X71.140 Y20.370 E12.37629
G1 X71.340 Y20.400 E12.38394
G1 X71.740 Y20.500 E12.39953
G1 X72.120 Y20.640 E12.41484
G1 X72.480 Y20.830 E12.43023
G1 X72.650 Y20.940 E12.43788
G1 X94.970 Y38.190 E13.50443
G1 X95.270 Y38.480 E13.52020
G1 X95.520 Y38.800 E13.53556
G1 X95.740 Y39.150 E13.55119
G1 X95.910 Y39.530 E13.56692
G1 X96.030 Y39.920 E13.58235
G1 X96.070 Y40.120 E13.59006
G1 X96.120 Y40.530 E13.60568
G1 X96.120 Y85.450 E15.30404
G1 X96.070 Y85.860 E15.31966
G1 X96.030 Y86.060 E15.32737
G1 X95.910 Y86.450 E15.34280
G1 X95.740 Y86.830 E15.35854
G1 X95.520 Y87.180 E15.37417
G1 X95.270 Y87.500 E15.38952
G1 X94.970 Y87.790 E15.40530
G1 X72.650 Y105.040 E16.47184
G1 X72.480 Y105.150 E16.47950
G1 X72.120 Y105.340 E16.49489
G1 X71.740 Y105.480 E16.51020
G1 X71.340 Y105.580 E16.52579
G1 X71.140 Y105.610 E16.53343
G1 X70.740 Y105.630 E16.54858
G1 X54.850 Y105.610 E17.14936
G1 X54.650 Y105.580 E17.15700
G1 X54.250 Y105.480 E17.17259
G1 X53.870 Y105.340 E17.18790
G1 X53.510 Y105.150 E17.20329
G1 X53.340 Y105.040 E17.21095
G1 X31.010 Y87.790 E18.27779
G1 X30.860 Y87.650 E18.28555
G1 X30.580 Y87.340 E18.30134
G1 X30.460 Y87.180 E18.30890
G1 X30.240 Y86.830 E18.32453
G1 X30.070 Y86.450 E18.34027
G1 X29.950 Y86.060 E18.35570
G1 X29.910 Y85.860 E18.36341
G1 X29.860 Y85.450 E18.37903
G1 X29.860 Y40.530 E20.07739
G1 X29.910 Y40.120 E20.09301
G1 X29.950 Y39.920 E20.10072
G1 X30.070 Y39.530 E20.11615
G1 X30.240 Y39.150 E20.13189
G1 X30.460 Y38.800 E20.14752
G1 X30.580 Y38.640 E20.15508
G1 X30.595 Y38.622 E20.15596
G1 F1080.000 E19.15596
G92 E0
G1 X60.789 Y64.606 F4500.000
G1 F1080.000 E1.00000
G1 X59.970 Y63.000 F1200.000 E1.08286
G1 X60.789 Y61.394 E1.16573
G1 X61.394 Y60.789 E1.20502
G1 X62.155 Y60.401 E1.24432
G1 X63.001 Y60.267 E1.28368
G1 X63.001 Y59.971 E1.29727
G1 X64.606 Y60.789 E1.38007
G1 X65.211 Y61.394 E1.41937
G1 X65.599 Y62.155 E1.45867
G1 X65.679 Y62.660 E1.48214
G1 X65.787 Y62.660 E1.48709
G1 X65.599 Y63.845 E1.54221
G1 X65.211 Y64.606 E1.58151
G1 X64.606 Y65.211 E1.62081
G1 X63.001 Y66.029 E1.70361
G1 X63.001 Y65.733 E1.71720
G1 X62.155 Y65.599 E1.75655
G1 X61.394 Y65.211 E1.79585
G1 X61.068 Y64.885 E1.81703
G1 X61.185 Y64.318 F4500.000
G1 X60.761 Y63.485 F1200.000 E1.86001
G1 X60.834 Y63.485 E1.86337
G1 X60.757 Y63.000 E1.88594
G1 X60.834 Y62.515 E1.90852
G1 X60.761 Y62.515 E1.91187
G1 X61.185 Y61.682 E1.95486
G1 X61.682 Y61.185 E1.98711
G1 X62.307 Y60.867 E2.01937
G1 X62.576 Y60.824 E2.03191
G1 X62.576 Y60.824 E2.03191
G1 X63.000 Y60.757 E2.05162
G1 X63.485 Y60.834 E2.07419
G1 X63.485 Y60.761 E2.07755
G1 X64.318 Y61.185 E2.12053
G1 X64.815 Y61.682 E2.15279
G1 X65.133 Y62.307 E2.18504
G1 X65.243 Y63.000 E2.21729
G1 X65.220 Y63.144 E2.22398
G1 X65.220 Y63.144 E2.22398
G1 X65.133 Y63.693 E2.24955
G1 X64.815 Y64.318 E2.28180
G1 X64.318 Y64.815 E2.31405
G1 X63.485 Y65.239 E2.35704
G1 X63.485 Y65.166 E2.36039
G1 X63.000 Y65.243 E2.38297
G1 X62.576 Y65.176 E2.40268
G1 X62.576 Y65.176 E2.40268
G1 X62.307 Y65.133 E2.41522
G1 X61.682 Y64.815 E2.44748
G1 X61.464 Y64.597 E2.46160
G1 X61.970 Y64.418 F4500.000
G1 X61.582 Y64.030 F1200.000 E2.48681
G1 X61.550 Y63.969 E2.48998
G1 X61.550 Y63.969 E2.48998
G1 X61.333 Y63.542 E2.51202
G1 X61.247 Y63.000 E2.53723
G1 X61.333 Y62.458 E2.56244
G1 X61.550 Y62.031 E2.58448
G1 X61.550 Y62.031 E2.58448
G1 X61.582 Y61.970 E2.58765
G1 X61.970 Y61.582 E2.61285
G1 X62.458 Y61.333 E2.63806
G1 X63.000 Y61.247 E2.66327
G1 X63.542 Y61.333 E2.68848
G1 X63.969 Y61.550 E2.71052
G1 X63.969 Y61.550 E2.71052
G1 X64.030 Y61.582 E2.71369
G1 X64.418 Y61.970 E2.73890
G1 X64.667 Y62.458 E2.76411
G1 X64.753 Y63.000 E2.78931
G1 X64.667 Y63.542 E2.81452
G1 X64.418 Y64.030 E2.83973
G1 X64.030 Y64.418 E2.86494
G1 X63.969 Y64.450 E2.86811
G1 X63.969 Y64.450 E2.86811
G1 X63.542 Y64.667 E2.89015
G1 X63.000 Y64.753 E2.91536
G1 X62.458 Y64.667 E2.94057
G1 X62.321 Y64.597 E2.94765
G1 F1080.000 E1.94765
G92 E0
G1 X59.218 Y67.282 F4500.000
G1 F1080.000 E1.00000
G1 X59.218 Y58.718 F1200.000 E1.39361
G1 X66.782 Y58.718 E1.74127
G1 X66.782 Y67.282 E2.13488
G1 X59.612 Y67.282 E2.46441
G1 X58.734 Y66.734 F4500.000
G1 X58.734 Y59.266 F1200.000 E2.80763
G1 X55.734 Y59.266 E2.94551
G1 X55.734 Y58.234 E2.99294
G1 X70.266 Y58.234 E3.66084
G1 X70.266 Y59.266 E3.70827
G1 X67.266 Y59.266 E3.84615
G1 X67.266 Y66.734 E4.18937
G1 X70.266 Y66.734 E4.32725
G1 X70.266 Y67.766 E4.37469
G1 X55.734 Y67.766 E5.04258
G1 X55.734 Y66.734 E5.09002
G1 X58.340 Y66.734 E5.20977
G1 X58.250 Y66.250 F4500.000
G1 X58.250 Y59.750 F1200.000 E5.50850
G1 X55.250 Y59.750 E5.64638
G1 X55.250 Y57.750 E5.73830
G1 X70.750 Y57.750 E6.45067
G1 X70.750 Y59.750 E6.54259
G1 X67.750 Y59.750 E6.68047
G1 X67.750 Y66.250 E6.97921
G1 X70.750 Y66.250 E7.11708
G1 X70.750 Y68.250 E7.20900
G1 X55.250 Y68.250 E7.92137
G1 X55.250 Y66.250 E8.01329
G1 X57.856 Y66.250 E8.13305
G1 F1080.000 E7.13305
G92 E0
G1 X59.702 Y67.193 F4500.000
G1 F1080.000 E1.00000
G1 X59.702 Y63.770 F1200.000 E1.18072
G1 X60.265 Y64.249 F4500.000
G1 X60.265 Y67.193 F1200.000 E1.33617
G1 X60.828 Y67.193 F4500.000
G1 X60.828 Y64.935 F1200.000 E1.45538
G1 X61.391 Y65.358 F4500.000
G1 X61.391 Y67.193 F1200.000 E1.55224
G1 X61.954 Y67.193 F4500.000
G1 X61.954 Y65.645 F1200.000 E1.63396
G1 X62.517 Y65.752 F4500.000
G1 X62.517 Y67.193 F1200.000 E1.71003
G1 X63.115 Y66.909 F4500.000
G1 X63.115 Y66.119 F1200.000 E1.74949
G1 X63.646 Y65.849 F4500.000
G1 X63.646 Y67.193 F1200.000 E1.81665
G1 X64.176 Y67.193 F4500.000
G1 X64.176 Y65.579 F1200.000 E1.89732
G1 X64.707 Y65.309 F4500.000
G1 X64.707 Y67.193 F1200.000 E1.99150
G1 X65.237 Y67.193 F4500.000
G1 X65.237 Y64.870 F1200.000 E2.10761
G1 X65.768 Y64.185 F4500.000
G1 X65.768 Y67.193 F1200.000 E2.25796
G1 X66.298 Y67.193 F4500.000
G1 X66.298 Y63.770 F1200.000 E2.42904
G1 F1080.000 E1.42904
G92 E0
G1 X62.517 Y60.248 F4500.000
G1 F1080.000 E1.00000
G1 X62.517 Y58.807 F1200.000 E1.07608
G1 X61.954 Y58.807 F4500.000
G1 X61.954 Y60.355 F1200.000 E1.15779
G1 X61.391 Y60.642 F4500.000
G1 X61.391 Y58.807 F1200.000 E1.25465
G1 X60.828 Y58.807 F4500.000
G1 X60.828 Y61.065 F1200.000 E1.37386
G1 X60.265 Y61.751 F4500.000
G1 X60.265 Y58.807 F1200.000 E1.52931
G1 X59.702 Y58.807 F4500.000
G1 X59.702 Y62.230 F1200.000 E1.71003
G1 F1080.000 E0.71003
G92 E0
G1 X63.115 Y59.881 F4500.000
G1 F1080.000 E1.00000
G1 X63.115 Y59.091 F1200.000 E1.03945
G1 X63.646 Y58.807 F4500.000
G1 X63.646 Y60.151 F1200.000 E1.10661
G1 X64.176 Y60.421 F4500.000
G1 X64.176 Y58.807 F1200.000 E1.18729
G1 X64.707 Y58.807 F4500.000
G1 X64.707 Y60.691 F1200.000 E1.28147
G1 X65.237 Y61.130 F4500.000
G1 X65.237 Y58.807 F1200.000 E1.39758
G1 X65.768 Y58.807 F4500.000
G1 X65.768 Y61.815 F1200.000 E1.54792
G1 X66.298 Y62.230 F4500.000
G1 X66.298 Y58.807 F1200.000 E1.71900
G1 F1080.000 E0.71900
G92 E0
G1 X64.606 Y77.789 F4500.000
G1 F1080.000 E1.00000
G1 X65.211 Y78.394 F1200.000 E1.03930
G1 X65.599 Y79.155 E1.07860
G1 X65.679 Y79.660 E1.10207
G1 X65.787 Y79.660 E1.10702
G1 X65.599 Y80.845 E1.16214
G1 X65.211 Y81.606 E1.20144
G1 X64.606 Y82.211 E1.24074
G1 X63.001 Y83.029 E1.32354
G1 X63.001 Y82.733 E1.33713
G1 X62.155 Y82.599 E1.37649
G1 X61.394 Y82.211 E1.41579
G1 X60.789 Y81.606 E1.45508
G1 X59.970 Y80.000 E1.53795
G1 X60.789 Y78.394 E1.62081
G1 X61.394 Y77.789 E1.66011
G1 X62.155 Y77.401 E1.69941
G1 X63.001 Y77.267 E1.73876
G1 X63.001 Y76.971 E1.75235
G1 X64.255 Y77.610 E1.81703
G1 X64.318 Y78.185 F4500.000
G1 X64.815 Y78.682 F1200.000 E1.84928
G1 X65.133 Y79.307 E1.88153
G1 X65.243 Y80.000 E1.91379
G1 X65.220 Y80.144 E1.92048
G1 X65.220 Y80.144 E1.92048
G1 X65.133 Y80.693 E1.94604
G1 X64.815 Y81.318 E1.97829
G1 X64.318 Y81.815 E2.01055
G1 X63.485 Y82.239 E2.05353
G1 X63.485 Y82.166 E2.05689
G1 X63.000 Y82.243 E2.07946
G1 X62.576 Y82.176 E2.09917
G1 X62.576 Y82.176 E2.09917
G1 X62.307 Y82.133 E2.11171
G1 X61.682 Y81.815 E2.14397
G1 X61.185 Y81.318 E2.17622
G1 X60.761 Y80.485 E2.21920
G1 X60.834 Y80.485 E2.22256
G1 X60.757 Y80.000 E2.24514
G1 X60.834 Y79.515 E2.26771
G1 X60.761 Y79.515 E2.27107
G1 X61.185 Y78.682 E2.31405
G1 X61.682 Y78.185 E2.34631
G1 X62.307 Y77.867 E2.37856
G1 X62.576 Y77.824 E2.39110
G1 X62.576 Y77.824 E2.39110
G1 X63.000 Y77.757 E2.41081
G1 X63.485 Y77.834 E2.43339
G1 X63.485 Y77.761 E2.43675
G1 X63.967 Y78.006 E2.46160
G1 X63.542 Y78.333 F4500.000
G1 X63.969 Y78.550 F1200.000 E2.48364
G1 X63.969 Y78.550 E2.48364
G1 X64.030 Y78.582 E2.48681
G1 X64.418 Y78.970 E2.51202
G1 X64.667 Y79.458 E2.53723
G1 X64.753 Y80.000 E2.56244
G1 X64.667 Y80.542 E2.58765
G1 X64.418 Y81.030 E2.61285
G1 X64.030 Y81.418 E2.63806
G1 X63.969 Y81.450 E2.64123
G1 X63.969 Y81.450 E2.64123
G1 X63.542 Y81.667 E2.66327
G1 X63.000 Y81.753 E2.68848
G1 X62.458 Y81.667 E2.71369
G1 X61.970 Y81.418 E2.73890
G1 X61.582 Y81.030 E2.76411
G1 X61.550 Y80.969 E2.76727
G1 X61.550 Y80.969 E2.76727
G1 X61.333 Y80.542 E2.78931
G1 X61.247 Y80.000 E2.81452
G1 X61.333 Y79.458 E2.83973
G1 X61.550 Y79.031 E2.86177
G1 X61.550 Y79.031 E2.86177
G1 X61.582 Y78.970 E2.86494
G1 X61.970 Y78.582 E2.89015
G1 X62.458 Y78.333 E2.91536
G1 X63.000 Y78.247 E2.94057
G1 X63.152 Y78.271 E2.94765
G1 F1080.000 E1.94765
G92 E0
G1 X66.782 Y75.718 F4500.000
G1 F1080.000 E1.00000
G1 X66.782 Y84.282 F1200.000 E1.39361
G1 X59.218 Y84.282 E1.74127
G1 X59.218 Y75.718 E2.13488
G1 X66.388 Y75.718 E2.46441
G1 X67.266 Y76.266 F4500.000
G1 X67.266 Y83.734 F1200.000 E2.80763
G1 X70.266 Y83.734 E2.94551
G1 X70.266 Y84.766 E2.99294
G1 X55.734 Y84.766 E3.66084
G1 X55.734 Y83.734 E3.70827
G1 X58.734 Y83.734 E3.84615
G1 X58.734 Y76.266 E4.18937
G1 X55.734 Y76.266 E4.32725
G1 X55.734 Y75.234 E4.37469
G1 X70.266 Y75.234 E5.04258
G1 X70.266 Y76.266 E5.09002
G1 X67.660 Y76.266 E5.20977
G1 X67.750 Y76.750 F4500.000
G1 X67.750 Y83.250 F1200.000 E5.50850
G1 X70.750 Y83.250 E5.64638
G1 X70.750 Y85.250 E5.73830
G1 X55.250 Y85.250 E6.45067
G1 X55.250 Y83.250 E6.54259
G1 X58.250 Y83.250 E6.68047
G1 X58.250 Y76.750 E6.97921
G1 X55.250 Y76.750 E7.11708
G1 X55.250 Y74.750 E7.20900
G1 X70.750 Y74.750 E7.92137
G1 X70.750 Y76.750 E8.01329
G1 X68.144 Y76.750 E8.13305
G1 F1080.000 E7.13305
G92 E0
G1 X62.517 Y82.752 F4500.000
G1 F1080.000 E1.00000
G1 X62.517 Y84.193 F1200.000 E1.07608
G1 X61.954 Y84.193 F4500.000
G1 X61.954 Y82.645 F1200.000 E1.15779
G1 X61.391 Y82.358 F4500.000
G1 X61.391 Y84.193 F1200.000 E1.25465
G1 X60.828 Y84.193 F4500.000
G1 X60.828 Y81.935 F1200.000 E1.37386
G1 X60.265 Y81.249 F4500.000
G1 X60.265 Y84.193 F1200.000 E1.52931
G1 X59.702 Y84.193 F4500.000
G1 X59.702 Y80.770 F1200.000 E1.71003
G1 F1080.000 E0.71003
G92 E0
G1 X63.115 Y83.119 F4500.000
G1 F1080.000 E1.00000
G1 X63.115 Y83.909 F1200.000 E1.03945
G1 X63.646 Y84.193 F4500.000
G1 X63.646 Y82.849 F1200.000 E1.10661
G1 X64.176 Y82.579 F4500.000
G1 X64.176 Y84.193 F1200.000 E1.18729
G1 X64.707 Y84.193 F4500.000
G1 X64.707 Y82.309 F1200.000 E1.28147
G1 X65.237 Y81.870 F4500.000
G1 X65.237 Y84.193 F1200.000 E1.39758
G1 X65.768 Y84.193 F4500.000
G1 X65.768 Y81.185 F1200.000 E1.54792
G1 X66.298 Y80.770 F4500.000
G1 X66.298 Y84.193 F1200.000 E1.71900
G1 F1080.000 E0.71900
G92 E0
G1 X62.517 Y77.248 F4500.000
G1 F1080.000 E1.00000
G1 X62.517 Y75.807 F1200.000 E1.07608
G1 X61.954 Y75.807 F4500.000
G1 X61.954 Y77.355 F1200.000 E1.15779
G1 X61.391 Y77.642 F4500.000
G1 X61.391 Y75.807 F1200.000 E1.25465
G1 X60.828 Y75.807 F4500.000
G1 X60.828 Y78.065 F1200.000 E1.37386
G1 X60.265 Y78.751 F4500.000
G1 X60.265 Y75.807 F1200.000 E1.52931
G1 X59.702 Y75.807 F4500.000
G1 X59.702 Y79.230 F1200.000 E1.71003
G1 F1080.000 E0.71003
G92 E0
G1 X63.115 Y76.881 F4500.000
G1 F1080.000 E1.00000
G1 X63.115 Y76.091 F1200.000 E1.03945
G1 X63.646 Y75.807 F4500.000
G1 X63.646 Y77.151 F1200.000 E1.10661
G1 X64.176 Y77.421 F4500.000
G1 X64.176 Y75.807 F1200.000 E1.18729
G1 X64.707 Y75.807 F4500.000
G1 X64.707 Y77.691 F1200.000 E1.28147
G1 X65.237 Y78.130 F4500.000
G1 X65.237 Y75.807 F1200.000 E1.39758
G1 X65.768 Y75.807 F4500.000
G1 X65.768 Y78.815 F1200.000 E1.54792
G1 X66.298 Y79.230 F4500.000
G1 X66.298 Y75.807 F1200.000 E1.71900
G1 F1080.000 E0.71900
G92 E0
G1 X64.606 Y43.789 F4500.000
G1 F1080.000 E1.00000
G1 X65.211 Y44.394 F1200.000 E1.03930
G1 X65.599 Y45.155 E1.07860
G1 X65.679 Y45.660 E1.10207
G1 X65.787 Y45.660 E1.10702
G1 X65.599 Y46.845 E1.16214
G1 X65.211 Y47.606 E1.20144
G1 X64.606 Y48.211 E1.24074
G1 X63.001 Y49.029 E1.32354
G1 X63.001 Y48.733 E1.33713
G1 X62.155 Y48.599 E1.37649
G1 X61.394 Y48.211 E1.41579
G1 X60.789 Y47.606 E1.45508
G1 X59.970 Y46.000 E1.53795
G1 X60.789 Y44.394 E1.62081
G1 X61.394 Y43.789 E1.66011
G1 X62.155 Y43.401 E1.69941
G1 X63.001 Y43.267 E1.73876
G1 X63.001 Y42.971 E1.75235
G1 X64.255 Y43.610 E1.81703
G1 X64.318 Y44.185 F4500.000
G1 X64.815 Y44.682 F1200.000 E1.84928
G1 X65.133 Y45.307 E1.88153
G1 X65.243 Y46.000 E1.91379
G1 X65.220 Y46.144 E1.92048
G1 X65.220 Y46.144 E1.92048
G1 X65.133 Y46.693 E1.94604
G1 X64.815 Y47.318 E1.97829
G1 X64.318 Y47.815 E2.01055
G1 X63.485 Y48.239 E2.05353
G1 X63.485 Y48.166 E2.05689
G1 X63.000 Y48.243 E2.07946
G1 X62.576 Y48.176 E2.09917
G1 X62.576 Y48.176 E2.09917
G1 X62.307 Y48.133 E2.11171
G1 X61.682 Y47.815 E2.14397
G1 X61.185 Y47.318 E2.17622
G1 X60.761 Y46.485 E2.21920
