; generated by Slic3r 0.9.10b on 2013-07-04 at 13:56:58

; layer_height = .25
; perimeters = 1
; top_solid_layers = 2
; bottom_solid_layers = 2
; fill_density = 0.3
; perimeter_speed = 30
; infill_speed = 60
; travel_speed = 75
; nozzle_diameter = 0.35
; filament_diameter = 1.8
; extrusion_multiplier = 1
; perimeters extrusion width = 0.39mm
; infill extrusion width = 0.39mm
; solid infill extrusion width = 0.39mm
; top infill extrusion width = 0.39mm

G21 ; set units to millimeters
M107
G92 E0	;reset extruder location
G1 E5	;Prime extruder
G28	;Go Home
;G1 E20	Prime extruder
G90 ; use absolute coordinates
G92 E0
M82 ; use absolute distances for extrusion
G1 F1080.000 E-1.00000
G92 E0
G1 Z0.250 F4500.000
G1 X37.614 Y37.614
G1 F1080.000 E1.00000
G1 X37.984 Y37.294 F1800.000 E1.01850
G1 X44.634 Y32.184 E1.33558
G1 X45.054 Y31.904 E1.35467
G1 X45.494 Y31.684 E1.37326
G1 X53.284 Y28.474 E1.69182
G1 X53.754 Y28.324 E1.71047
G1 X54.234 Y28.224 E1.72901
G1 X62.504 Y27.134 E2.04439
G1 X62.994 Y27.104 E2.06295
G1 X63.484 Y27.134 E2.08151
G1 X71.804 Y28.224 E2.39877
G1 X72.284 Y28.324 E2.41731
G1 X72.754 Y28.484 E2.43608
G1 X80.504 Y31.694 E2.75324
G1 X80.954 Y31.914 E2.77217
G1 X81.364 Y32.184 E2.79074
G1 X88.014 Y37.294 E3.10782
G1 X88.384 Y37.624 E3.12657
G1 X88.704 Y37.994 E3.14506
G1 X93.804 Y44.644 E3.46192
G1 X94.074 Y45.054 E3.48048
G1 X94.294 Y45.494 E3.49908
G1 X97.504 Y53.244 E3.81623
G1 X97.664 Y53.704 E3.83465
G1 X97.764 Y54.194 E3.85355
G1 X98.864 Y62.504 E4.17049
G1 X98.894 Y62.994 E4.18905
G1 X98.864 Y63.484 E4.20761
G1 X97.764 Y71.804 E4.52491
G1 X97.664 Y72.294 E4.54382
G1 X97.504 Y72.754 E4.56223
G1 X94.294 Y80.504 E4.87939
G1 X94.074 Y80.944 E4.89799
G1 X93.804 Y81.354 E4.91655
G1 X88.704 Y88.004 E5.23341
G1 X88.384 Y88.384 E5.25219
G1 X88.004 Y88.704 E5.27097
G1 X81.354 Y93.804 E5.58783
G1 X80.944 Y94.074 E5.60639
G1 X80.504 Y94.294 E5.62499
G1 X72.754 Y97.504 E5.94214
G1 X72.294 Y97.664 E5.96056
G1 X71.804 Y97.764 E5.97947
G1 X63.484 Y98.864 E6.29677
G1 X62.994 Y98.894 E6.31533
G1 X62.504 Y98.864 E6.33389
G1 X54.194 Y97.764 E6.65082
G1 X53.704 Y97.664 E6.66973
G1 X53.244 Y97.504 E6.68815
G1 X45.494 Y94.294 E7.00530
G1 X45.054 Y94.074 E7.02390
G1 X44.644 Y93.804 E7.04246
G1 X37.994 Y88.704 E7.35932
G1 X37.624 Y88.384 E7.37781
G1 X37.294 Y88.014 E7.39656
G1 X32.184 Y81.364 E7.71364
G1 X31.914 Y80.954 E7.73220
G1 X31.694 Y80.504 E7.75114
G1 X28.484 Y72.754 E8.06830
G1 X28.324 Y72.284 E8.08707
G1 X28.224 Y71.804 E8.10561
G1 X27.134 Y63.484 E8.42287
G1 X27.104 Y62.994 E8.44143
G1 X27.134 Y62.504 E8.45999
G1 X28.224 Y54.194 E8.77687
G1 X28.324 Y53.714 E8.79541
G1 X28.484 Y53.244 E8.81418
G1 X31.694 Y45.494 E9.13133
G1 X31.914 Y45.044 E9.15027
G1 X32.184 Y44.634 E9.16883
G1 X37.294 Y37.984 E9.48592
G1 X37.576 Y37.658 E9.50223
G1 X37.894 Y37.894 F4500.000
G1 X38.224 Y37.604 F1800.000 E9.51884
G1 X44.874 Y32.494 E9.83593
G1 X45.244 Y32.244 E9.85281
G1 X45.644 Y32.044 E9.86972
G1 X53.434 Y28.834 E10.18827
G1 X53.854 Y28.694 E10.20501
G1 X54.284 Y28.604 E10.22162
G1 X62.554 Y27.514 E10.53700
G1 X62.994 Y27.494 E10.55366
G1 X63.434 Y27.514 E10.57031
G1 X71.754 Y28.604 E10.88757
G1 X72.194 Y28.694 E10.90455
G1 X72.614 Y28.834 E10.92128
G1 X80.364 Y32.044 E11.23844
G1 X80.754 Y32.244 E11.25501
G1 X81.124 Y32.494 E11.27190
G1 X87.774 Y37.604 E11.58898
G1 X88.104 Y37.894 E11.60559
G1 X88.404 Y38.224 E11.62245
G1 X93.504 Y44.874 E11.93931
G1 X93.744 Y45.244 E11.95598
G1 X93.944 Y45.634 E11.97255
G1 X97.154 Y53.384 E12.28971
G1 X97.294 Y53.804 E12.30645
G1 X97.384 Y54.244 E12.32343
G1 X98.484 Y62.554 E12.64036
G1 X98.504 Y62.994 E12.65701
G1 X98.484 Y63.434 E12.67366
G1 X97.384 Y71.754 E12.99097
G1 X97.294 Y72.194 E13.00795
G1 X97.154 Y72.614 E13.02469
G1 X93.944 Y80.364 E13.34185
G1 X93.744 Y80.754 E13.35842
G1 X93.504 Y81.124 E13.37509
G1 X88.404 Y87.774 E13.69195
G1 X88.104 Y88.104 E13.70881
G1 X87.774 Y88.404 E13.72567
G1 X81.124 Y93.504 E14.04253
G1 X80.754 Y93.744 E14.05920
G1 X80.364 Y93.944 E14.07577
G1 X72.614 Y97.154 E14.39293
G1 X72.194 Y97.294 E14.40967
G1 X71.754 Y97.384 E14.42665
G1 X63.434 Y98.484 E14.74395
G1 X62.994 Y98.504 E14.76060
G1 X62.554 Y98.484 E14.77726
G1 X54.244 Y97.384 E15.09419
G1 X53.804 Y97.294 E15.11117
G1 X53.384 Y97.154 E15.12791
G1 X45.634 Y93.944 E15.44506
G1 X45.244 Y93.744 E15.46164
G1 X44.874 Y93.504 E15.47831
G1 X38.224 Y88.404 E15.79516
G1 X37.894 Y88.104 E15.81203
G1 X37.604 Y87.774 E15.82864
G1 X32.494 Y81.124 E16.14572
G1 X32.244 Y80.754 E16.16260
G1 X32.044 Y80.364 E16.17918
G1 X28.834 Y72.614 E16.49633
G1 X28.694 Y72.194 E16.51307
G1 X28.604 Y71.754 E16.53005
G1 X27.514 Y63.434 E16.84731
G1 X27.494 Y62.994 E16.86396
G1 X27.514 Y62.554 E16.88061
G1 X28.604 Y54.244 E17.19749
G1 X28.694 Y53.804 E17.21448
G1 X28.834 Y53.384 E17.23121
G1 X32.044 Y45.634 E17.54837
G1 X32.244 Y45.244 E17.56494
G1 X32.494 Y44.874 E17.58183
G1 X37.604 Y38.224 E17.89891
G1 X37.856 Y37.937 E17.91334
G1 F1080.000 E16.91334
G92 E0
G1 X42.012 Y42.012 F4500.000
G1 F1080.000 E1.00000
G1 X48.161 Y37.296 F1800.000 E1.29299
G1 X55.319 Y34.330 E1.58595
G1 X63.000 Y33.320 E1.87885
G1 X70.683 Y34.330 E2.17182
G1 X77.841 Y37.296 E2.46479
G1 X83.990 Y42.012 E2.75777
G1 X88.706 Y48.161 E3.05076
G1 X91.672 Y55.319 E3.34373
G1 X92.682 Y63.002 E3.63670
G1 X91.672 Y70.683 E3.92959
G1 X88.706 Y77.841 E4.22256
G1 X83.990 Y83.990 E4.51555
G1 X77.841 Y88.706 E4.80854
G1 X70.683 Y91.672 E5.10150
G1 X63.000 Y92.682 E5.39447
G1 X55.319 Y91.672 E5.68737
G1 X48.161 Y88.706 E5.98033
G1 X42.012 Y83.990 E6.27332
G1 X37.296 Y77.841 E6.56631
G1 X34.330 Y70.683 E6.85928
G1 X33.320 Y63.002 E7.15217
G1 X34.330 Y55.319 E7.44514
G1 X37.296 Y48.161 E7.73811
G1 X41.977 Y42.058 E8.02891
G1 X42.287 Y42.287 F4500.000
G1 X48.355 Y37.632 F1800.000 E8.31807
G1 X55.420 Y34.705 E8.60720
G1 X63.000 Y33.708 E8.89627
G1 X70.582 Y34.705 E9.18541
G1 X77.647 Y37.632 E9.47454
G1 X83.715 Y42.287 E9.76370
G1 X88.370 Y48.355 E10.05286
G1 X91.297 Y55.420 E10.34199
G1 X92.294 Y63.002 E10.63113
G1 X91.297 Y70.582 E10.92020
G1 X88.370 Y77.647 E11.20933
G1 X83.715 Y83.715 E11.49849
G1 X77.647 Y88.370 E11.78764
G1 X70.582 Y91.297 E12.07678
G1 X63.000 Y92.294 E12.36592
G1 X55.420 Y91.297 E12.65498
G1 X48.355 Y88.370 E12.94412
G1 X42.287 Y83.715 E13.23327
G1 X37.632 Y77.647 E13.52243
G1 X34.705 Y70.582 E13.81156
G1 X33.708 Y63.002 E14.10063
G1 X34.705 Y55.420 E14.38977
G1 X37.632 Y48.355 E14.67890
G1 X42.252 Y42.333 E14.96588
G1 F1080.000 E13.96588
G92 E0
G1 X93.470 Y71.165 F4500.000
G1 F1080.000 E1.00000
G1 X90.318 Y78.773 F1800.000 E1.31134
G1 X85.306 Y85.306 E1.62266
G1 X78.773 Y90.318 E1.93398
G1 X71.165 Y93.470 E2.24532
G1 X63.000 Y94.544 E2.55670
G1 X54.837 Y93.470 E2.86800
G1 X47.229 Y90.318 E3.17935
G1 X40.696 Y85.306 E3.49066
G1 X35.684 Y78.773 E3.80198
G1 X32.532 Y71.165 E4.11333
G1 X31.456 Y63.000 E4.42471
G1 X32.532 Y54.837 E4.73602
G1 X35.684 Y47.229 E5.04737
G1 X40.696 Y40.696 E5.35869
G1 X47.229 Y35.684 E5.67001
G1 X54.837 Y32.532 E5.98135
G1 X63.000 Y31.456 E6.29266
G1 X71.165 Y32.532 E6.60405
G1 X78.773 Y35.684 E6.91539
G1 X85.306 Y40.696 E7.22671
G1 X90.318 Y47.229 E7.53803
G1 X93.470 Y54.837 E7.84937
G1 X94.544 Y63.000 E8.16067
G1 X93.477 Y71.108 E8.46987
G1 X93.845 Y71.266 F4500.000
G1 X90.654 Y78.967 F1800.000 E8.78504
G1 X85.581 Y85.581 E9.10019
G1 X78.967 Y90.654 E9.41534
G1 X71.266 Y93.845 E9.73052
G1 X63.000 Y94.932 E10.04573
G1 X54.736 Y93.845 E10.36086
G1 X47.035 Y90.654 E10.67603
G1 X40.421 Y85.581 E10.99118
G1 X35.348 Y78.967 E11.30634
G1 X32.157 Y71.266 E11.62151
G1 X31.068 Y63.000 E11.93673
G1 X32.157 Y54.736 E12.25187
G1 X35.348 Y47.035 E12.56704
G1 X40.421 Y40.421 E12.88219
G1 X47.035 Y35.348 E13.19735
G1 X54.736 Y32.157 E13.51252
G1 X63.000 Y31.068 E13.82766
G1 X71.266 Y32.157 E14.14288
G1 X78.967 Y35.348 E14.45805
G1 X85.581 Y40.421 E14.77321
G1 X90.654 Y47.035 E15.08836
G1 X93.845 Y54.736 E15.40353
G1 X94.932 Y63.000 E15.71866
G1 X93.852 Y71.209 E16.03169
G1 X93.248 Y70.710 F4500.000
G1 X93.248 Y55.292 F1800.000 E16.61491
G1 X92.093 Y56.380 F4500.000
G1 X92.093 Y52.243 F1800.000 E16.77139
G1 X91.708 Y51.314 E16.80944
G1 X91.708 Y54.677 E16.93666
G1 X91.323 Y53.748 E16.97471
G1 X91.323 Y50.384 E17.10193
G1 X90.938 Y49.455 E17.13998
G1 X90.938 Y52.818 E17.26721
G1 X90.553 Y51.889 E17.30526
G1 X90.553 Y48.526 E17.43249
G1 X90.168 Y47.596 E17.47054
G1 X90.168 Y50.960 E17.59778
G1 X89.783 Y50.031 E17.63583
G1 X89.783 Y46.990 E17.75084
G1 X89.398 Y46.488 E17.77477
G1 X89.398 Y49.102 E17.87363
G1 X89.013 Y48.172 E17.91167
G1 X89.013 Y45.986 E17.99437
G1 X88.628 Y45.484 E18.01830
G1 X88.628 Y47.600 E18.09835
G1 X88.243 Y47.099 E18.12228
G1 X88.243 Y44.982 E18.20233
G1 X87.858 Y44.480 E18.22626
G1 X87.858 Y46.597 E18.30631
G1 X87.473 Y46.095 E18.33024
G1 X87.473 Y43.978 E18.41029
G1 X87.088 Y43.476 E18.43422
G1 X87.088 Y45.593 E18.51427
G1 X86.703 Y45.091 E18.53820
G1 X86.703 Y42.974 E18.61826
G1 X86.318 Y42.473 E18.64219
G1 X86.318 Y44.589 E18.72224
G1 X85.933 Y44.087 E18.74617
G1 X85.933 Y41.971 E18.82622
G1 X85.548 Y41.469 E18.85015
G1 X85.548 Y43.585 E18.93021
G1 X85.163 Y43.083 E18.95414
G1 X85.163 Y40.967 E19.03419
G1 X84.778 Y40.642 E19.05325
G1 X84.778 Y42.581 E19.12662
G1 X84.393 Y42.079 E19.15055
G1 X84.393 Y40.346 E19.21610
G1 X84.008 Y40.051 E19.23445
G1 X84.008 Y41.674 E19.29586
G1 X83.623 Y41.379 E19.31422
G1 X83.623 Y39.756 E19.37562
G1 X83.237 Y39.460 E19.39398
G1 X83.237 Y41.084 E19.45539
G1 X82.852 Y40.788 E19.47374
G1 X82.852 Y39.165 E19.53515
G1 X82.467 Y38.870 E19.55351
G1 X82.467 Y40.493 E19.61491
G1 X82.082 Y40.198 E19.63327
G1 X82.082 Y38.574 E19.69468
G1 X81.697 Y38.279 E19.71303
G1 X81.697 Y39.902 E19.77444
G1 X81.312 Y39.607 E19.79279
G1 X81.312 Y37.984 E19.85420
G1 X80.927 Y37.688 E19.87255
G1 X80.927 Y39.312 E19.93396
G1 X80.542 Y39.016 E19.95232
G1 X80.542 Y37.393 E20.01372
G1 X80.157 Y37.098 E20.03208
G1 X80.157 Y38.721 E20.09348
G1 X79.772 Y38.426 E20.11184
G1 X79.772 Y36.802 E20.17324
G1 X79.387 Y36.507 E20.19160
G1 X79.387 Y38.130 E20.25300
G1 X79.002 Y37.835 E20.27136
G1 X79.002 Y36.212 E20.33276
G1 X78.617 Y35.922 E20.35099
G1 X78.617 Y37.540 E20.41219
G1 X78.232 Y37.244 E20.43055
G1 X78.232 Y35.762 E20.48661
G1 X77.847 Y35.603 E20.50238
G1 X77.847 Y36.996 E20.55510
G1 X77.462 Y36.837 E20.57087
G1 X77.462 Y35.443 E20.62359
G1 X77.077 Y35.284 E20.63935
G1 X77.077 Y36.677 E20.69207
G1 X76.692 Y36.518 E20.70784
G1 X76.692 Y35.124 E20.76056
G1 X76.307 Y34.965 E20.77632
G1 X76.307 Y36.358 E20.82904
G1 X75.922 Y36.199 E20.84480
G1 X75.922 Y34.805 E20.89752
G1 X75.537 Y34.645 E20.91329
G1 X75.537 Y36.039 E20.96600
G1 X75.152 Y35.880 E20.98177
G1 X75.152 Y34.486 E21.03448
G1 X74.767 Y34.326 E21.05025
G1 X74.767 Y35.720 E21.10296
G1 X74.382 Y35.561 E21.11873
G1 X74.382 Y34.167 E21.17144
G1 X73.997 Y34.007 E21.18721
G1 X73.997 Y35.401 E21.23992
G1 X73.612 Y35.241 E21.25568
G1 X73.612 Y33.848 E21.30840
G1 X73.227 Y33.688 E21.32416
G1 X73.227 Y35.082 E21.37687
G1 X72.842 Y34.922 E21.39264
G1 X72.842 Y33.529 E21.44535
G1 X72.457 Y33.369 E21.46111
G1 X72.457 Y34.763 E21.51382
G1 X72.072 Y34.603 E21.52958
G1 X72.072 Y33.210 E21.58229
G1 X71.687 Y33.050 E21.59806
G1 X71.687 Y34.444 E21.65077
G1 X71.302 Y34.284 E21.66653
G1 X71.302 Y32.891 E21.71924
G1 X70.917 Y32.781 E21.73438
G1 X70.917 Y34.125 E21.78521
G1 X70.532 Y34.028 E21.80022
G1 X70.532 Y32.730 E21.84933
G1 X70.147 Y32.679 E21.86402
G1 X70.147 Y33.978 E21.91313
G1 X69.762 Y33.927 E21.92782
G1 X69.762 Y32.629 E21.97694
G1 X69.377 Y32.578 E21.99163
G1 X69.377 Y33.877 E22.04075
G1 X68.992 Y33.826 E22.05544
G1 X68.992 Y32.527 E22.10457
G1 X68.607 Y32.476 E22.11926
G1 X68.607 Y33.775 E22.16840
G1 X68.221 Y33.725 E22.18308
G1 X68.221 Y32.426 E22.23222
G1 X67.836 Y32.375 E22.24691
G1 X67.836 Y33.674 E22.29606
G1 X67.451 Y33.624 E22.31075
G1 X67.451 Y32.324 E22.35990
G1 X67.066 Y32.273 E22.37459
G1 X67.066 Y33.573 E22.42374
G1 X66.681 Y33.522 E22.43843
G1 X66.681 Y32.223 E22.48759
G1 X66.296 Y32.172 E22.50228
G1 X66.296 Y33.472 E22.55144
G1 X65.911 Y33.421 E22.56613
G1 X65.911 Y32.121 E22.61530
G1 X65.526 Y32.071 E22.62999
G1 X65.526 Y33.371 E22.67917
G1 X65.141 Y33.320 E22.69386
G1 X65.141 Y32.020 E22.74304
G1 X64.756 Y31.969 E22.75773
G1 X64.756 Y33.269 E22.80691
G1 X64.371 Y33.219 E22.82160
G1 X64.371 Y31.918 E22.87079
G1 X63.986 Y31.868 E22.88548
G1 X63.986 Y33.168 E22.93468
G1 X63.601 Y33.117 E22.94937
G1 X63.601 Y31.817 E22.99857
G1 X63.216 Y31.766 E23.01326
G1 X63.216 Y33.067 E23.06246
G1 X62.831 Y33.061 E23.07703
G1 X62.831 Y31.760 E23.12624
G1 X62.446 Y31.811 E23.14093
G1 X62.446 Y33.111 E23.19013
G1 X62.061 Y33.162 E23.20482
G1 X62.061 Y31.861 E23.25401
G1 X61.676 Y31.912 E23.26870
G1 X61.676 Y33.213 E23.31789
G1 X61.291 Y33.263 E23.33258
G1 X61.291 Y31.963 E23.38177
G1 X60.906 Y32.014 E23.39646
G1 X60.906 Y33.314 E23.44564
G1 X60.521 Y33.364 E23.46033
G1 X60.521 Y32.064 E23.50951
G1 X60.136 Y32.115 E23.52420
G1 X60.136 Y33.415 E23.57337
G1 X59.751 Y33.466 E23.58806
G1 X59.751 Y32.166 E23.63722
G1 X59.366 Y32.217 E23.65191
G1 X59.366 Y33.516 E23.70107
G1 X58.981 Y33.567 E23.71576
G1 X58.981 Y32.267 E23.76492
G1 X58.596 Y32.318 E23.77961
G1 X58.596 Y33.617 E23.82876
G1 X58.211 Y33.668 E23.84345
G1 X58.211 Y32.369 E23.89259
G1 X57.826 Y32.420 E23.90728
G1 X57.826 Y33.719 E23.95642
G1 X57.441 Y33.769 E23.97111
G1 X57.441 Y32.470 E24.02024
G1 X57.056 Y32.521 E24.03493
G1 X57.056 Y33.820 E24.08406
G1 X56.671 Y33.871 E24.09875
G1 X56.671 Y32.572 E24.14788
G1 X56.286 Y32.623 E24.16257
G1 X56.286 Y33.921 E24.21169
G1 X55.901 Y33.972 E24.22638
G1 X55.901 Y32.673 E24.27549
G1 X55.516 Y32.724 E24.29018
G1 X55.516 Y34.022 E24.33929
G1 X55.131 Y34.106 E24.35419
G1 X55.131 Y32.775 E24.40453
G1 X54.746 Y32.872 E24.41955
G1 X54.746 Y34.265 E24.47226
G1 X54.361 Y34.425 E24.48803
G1 X54.361 Y33.032 E24.54073
G1 X53.976 Y33.191 E24.55650
G1 X53.976 Y34.584 E24.60921
G1 X53.591 Y34.744 E24.62497
G1 X53.591 Y33.351 E24.67768
G1 X53.205 Y33.510 E24.69344
G1 X53.205 Y34.904 E24.74615
G1 X52.820 Y35.063 E24.76192
G1 X52.820 Y33.670 E24.81463
G1 X52.435 Y33.829 E24.83040
G1 X52.435 Y35.223 E24.88311
G1 X52.050 Y35.382 E24.89887
G1 X52.050 Y33.989 E24.95158
G1 X51.665 Y34.148 E24.96735
G1 X51.665 Y35.542 E25.02006
G1 X51.280 Y35.701 E25.03583
G1 X51.280 Y34.308 E25.08854
G1 X50.895 Y34.467 E25.10431
G1 X50.895 Y35.861 E25.15702
G1 X50.510 Y36.020 E25.17279
G1 X50.510 Y34.627 E25.22550
G1 X50.125 Y34.786 E25.24127
G1 X50.125 Y36.180 E25.29399
G1 X49.740 Y36.339 E25.30975
G1 X49.740 Y34.946 E25.36247
G1 X49.355 Y35.105 E25.37823
G1 X49.355 Y36.499 E25.43095
G1 X48.970 Y36.659 E25.44672
G1 X48.970 Y35.265 E25.49944
G1 X48.585 Y35.424 E25.51520
G1 X48.585 Y36.818 E25.56792
G1 X48.200 Y36.978 E25.58369
G1 X48.200 Y35.584 E25.63641
G1 X47.815 Y35.743 E25.65217
G1 X47.815 Y37.209 E25.70763
G1 X47.430 Y37.505 E25.72599
G1 X47.430 Y35.903 E25.78659
G1 X47.045 Y36.177 E25.80446
G1 X47.045 Y37.800 E25.86587
G1 X46.660 Y38.096 E25.88422
G1 X46.660 Y36.472 E25.94563
G1 X46.275 Y36.768 E25.96398
G1 X46.275 Y38.391 E26.02539
G1 X45.890 Y38.686 E26.04374
G1 X45.890 Y37.063 E26.10515
G1 X45.505 Y37.358 E26.12350
G1 X45.505 Y38.982 E26.18491
G1 X45.120 Y39.277 E26.20326
G1 X45.120 Y37.654 E26.26467
G1 X44.735 Y37.949 E26.28302
G1 X44.735 Y39.572 E26.34443
G1 X44.350 Y39.868 E26.36279
G1 X44.350 Y38.244 E26.42419
G1 X43.965 Y38.540 E26.44255
G1 X43.965 Y40.163 E26.50395
G1 X43.580 Y40.458 E26.52231
G1 X43.580 Y38.835 E26.58372
G1 X43.195 Y39.130 E26.60207
G1 X43.195 Y40.754 E26.66348
G1 X42.810 Y41.049 E26.68184
G1 X42.810 Y39.426 E26.74324
G1 X42.425 Y39.721 E26.76160
G1 X42.425 Y41.344 E26.82301
G1 X42.040 Y41.640 E26.84136
G1 X42.040 Y40.016 E26.90277
G1 X41.655 Y40.312 E26.92113
G1 X41.655 Y42.020 E26.98576
G1 X41.270 Y42.522 E27.00969
G1 X41.270 Y40.607 E27.08213
G1 X40.885 Y40.908 E27.10061
G1 X40.885 Y43.024 E27.18067
G1 X40.500 Y43.526 E27.20460
G1 X40.500 Y41.410 E27.28465
G1 X40.115 Y41.912 E27.30858
G1 X40.115 Y44.028 E27.38864
G1 X39.730 Y44.530 E27.41256
G1 X39.730 Y42.413 E27.49262
G1 X39.345 Y42.915 E27.51655
G1 X39.345 Y45.032 E27.59660
