(Generated by PartKam Version 0.05)

G20 G90 G40

(pocket 1-0)
G0 Z0.25
T0 M6
G17
M3
G0 X1.4476 Y1.7706
G1 Z-0.05 F30
G3 X1.427 Y1.9014 I-0.4269 J0 F30
G3 X1.3828 Y1.979 I-0.2072 J-0.0667
G3 X1.3157 Y2.027 I-0.1386 J-0.1227
G3 X1.2172 Y2.0468 I-0.0985 J-0.2353
G3 X1.1475 Y2.0374 I0 J-0.2633
G3 X1.1082 Y2.0186 I0.0326 J-0.1188
G3 X1.0782 Y1.9875 I0.07 J-0.0973
G3 X1.049 Y1.9263 I0.2033 J-0.1346
G2 X0.9581 Y1.891 I-0.0596 J0.0188
G2 X0.9678 Y1.8731 I-0.1232 J-0.078
G2 X0.9796 Y1.8403 I-0.1991 J-0.09
G2 X0.9849 Y1.8166 I-0.2802 J-0.076
G2 X0.9906 Y1.7809 I-0.7617 J-0.1395
G2 X0.9914 Y1.7753 I-0.4824 J-0.0726
G2 X0.9928 Y1.7651 I-1.4967 J-0.2075
G3 X0.9936 Y1.7592 I0.4775 J0.0629
G3 X0.9968 Y1.7591 I0.0032 J0.0699
G3 X1.0084 Y1.7599 I0 J0.0864
G3 X1.0097 Y1.7752 I-0.121 J0.0185
G2 X1.0098 Y1.7763 I0.0625 J-0.0016
G2 X1.0134 Y1.8208 I0.5973 J-0.0267
G2 X1.0192 Y1.8531 I0.2785 J-0.0334
G2 X1.0327 Y1.892 I0.2062 J-0.0497
G2 X1.0529 Y1.9243 I0.1356 J-0.0624
G2 X1.084 Y1.9524 I0.1096 J-0.0898
G2 X1.1226 Y1.9714 I0.0924 J-0.1388
G2 X1.1618 Y1.9807 I0.0666 J-0.1954
G2 X1.2113 Y1.984 I0.0495 J-0.3694
G2 X1.2945 Y1.9699 I0 J-0.2543
G2 X1.3587 Y1.9301 I-0.0561 J-0.162
G2 X1.3998 Y1.8654 I-0.1196 J-0.1215
G2 X1.4143 Y1.7809 I-0.2391 J-0.0845
G2 X1.4102 Y1.7313 I-0.3033 J0
G2 X1.3976 Y1.6792 I-0.362 J0.06
G2 X1.387 Y1.6501 I-0.382 J0.1226
G2 X1.3672 Y1.6046 I-1.0667 J0.4357
G3 X1.3558 Y1.5789 I1.0335 J-0.4751
G3 X1.3525 Y1.5705 I0.1443 J-0.0621
G3 X1.3492 Y1.5591 I0.0817 J-0.0297
G1 X1.3492 Y1.5591
G3 X1.3516 Y1.5455 I0.0387 J0
G3 X1.3536 Y1.5424 I0.0081 J0.003
G3 X1.3564 Y1.5406 I0.0057 J0.0057
G3 X1.3666 Y1.5387 I0.0102 J0.0264
G3 X1.3757 Y1.5419 I0 J0.0147
G3 X1.4107 Y1.5842 I-0.0822 J0.1036
G3 X1.4359 Y1.6549 I-0.2376 J0.1244
G3 X1.4476 Y1.7706 I-0.5662 J0.1157
G0 Z0.25
G0 X0.6126 Y1.812
G1 Z-0.05 F30
G3 X0.6244 Y1.7004 I0.5326 J0 F30
G3 X0.651 Y1.6275 I0.2727 J0.0584
G3 X0.6887 Y1.5824 I0.127 J0.0678
G3 X0.6995 Y1.5787 I0.0107 J0.0136
G3 X0.702 Y1.5789 I0 J0.0161
G3 X0.7015 Y1.5831 I-0.0233 J-0.0006
G3 X0.6979 Y1.5956 I-0.0804 J-0.0168
G3 X0.6942 Y1.6043 I-0.1197 J-0.0457
G3 X0.6815 Y1.6301 I-0.7712 J-0.362
G2 X0.6621 Y1.6704 I0.8222 J0.4203
G2 X0.6517 Y1.6966 I0.2907 J0.1313
G2 X0.6395 Y1.7434 I0.2809 J0.098
G2 X0.6355 Y1.7898 I0.2656 J0.0465
G2 X0.6481 Y1.8605 I0.2048 J0
G2 X0.6852 Y1.9158 I0.1321 J-0.0486
G2 X0.7412 Y1.9479 I0.0996 J-0.109
G2 X0.8134 Y1.9588 I0.0722 J-0.2331
G2 X0.8559 Y1.9555 I0 J-0.2769
G2 X0.8915 Y1.9459 I-0.0257 J-0.1652
G2 X0.9248 Y1.9273 I-0.0523 J-0.1327
G2 X0.9311 Y1.9222 I-0.0802 J-0.107
G3 X0.8995 Y1.9744 I-0.2579 J-0.1208
G3 X0.8711 Y2.0016 I-0.1029 J-0.0787
G3 X0.8379 Y2.0176 I-0.0643 J-0.0913
G3 X0.7882 Y2.0246 I-0.0497 J-0.1717
G3 X0.7144 Y2.0097 I0 J-0.1894
G3 X0.6631 Y1.9729 I0.0559 J-0.1322
G3 X0.6287 Y1.9131 I0.1264 J-0.1125
G3 X0.6126 Y1.812 I0.3084 J-0.1011
G0 Z0.25
G0 X1.4476 Y1.7706
G1 Z-0.1 F30
G3 X1.427 Y1.9014 I-0.4269 J0 F30
G3 X1.3828 Y1.979 I-0.2072 J-0.0667
G3 X1.3157 Y2.027 I-0.1386 J-0.1227
G3 X1.2172 Y2.0468 I-0.0985 J-0.2353
G3 X1.1475 Y2.0374 I0 J-0.2633
G3 X1.1082 Y2.0186 I0.0326 J-0.1188
G3 X1.0782 Y1.9875 I0.07 J-0.0973
G3 X1.049 Y1.9263 I0.2033 J-0.1346
G2 X0.9581 Y1.891 I-0.0596 J0.0188
G2 X0.9678 Y1.8731 I-0.1232 J-0.078
G2 X0.9796 Y1.8403 I-0.1991 J-0.09
G2 X0.9849 Y1.8166 I-0.2802 J-0.076
G2 X0.9906 Y1.7809 I-0.7617 J-0.1395
G2 X0.9914 Y1.7753 I-0.4824 J-0.0726
G2 X0.9928 Y1.7651 I-1.4967 J-0.2075
G3 X0.9936 Y1.7592 I0.4775 J0.0629
G3 X0.9968 Y1.7591 I0.0032 J0.0699
G3 X1.0084 Y1.7599 I0 J0.0864
G3 X1.0097 Y1.7752 I-0.121 J0.0185
G2 X1.0098 Y1.7763 I0.0625 J-0.0016
G2 X1.0134 Y1.8208 I0.5973 J-0.0267
G2 X1.0192 Y1.8531 I0.2785 J-0.0334
G2 X1.0327 Y1.892 I0.2062 J-0.0497
G2 X1.0529 Y1.9243 I0.1356 J-0.0624
G2 X1.084 Y1.9524 I0.1096 J-0.0898
G2 X1.1226 Y1.9714 I0.0924 J-0.1388
G2 X1.1618 Y1.9807 I0.0666 J-0.1954
G2 X1.2113 Y1.984 I0.0495 J-0.3694
G2 X1.2945 Y1.9699 I0 J-0.2543
G2 X1.3587 Y1.9301 I-0.0561 J-0.162
G2 X1.3998 Y1.8654 I-0.1196 J-0.1215
G2 X1.4143 Y1.7809 I-0.2391 J-0.0845
G2 X1.4102 Y1.7313 I-0.3033 J0
G2 X1.3976 Y1.6792 I-0.362 J0.06
G2 X1.387 Y1.6501 I-0.382 J0.1226
G2 X1.3672 Y1.6046 I-1.0667 J0.4357
G3 X1.3558 Y1.5789 I1.0335 J-0.4751
G3 X1.3525 Y1.5705 I0.1443 J-0.0621
G3 X1.3492 Y1.5591 I0.0817 J-0.0297
G1 X1.3492 Y1.5591
G3 X1.3516 Y1.5455 I0.0387 J0
G3 X1.3536 Y1.5424 I0.0081 J0.003
G3 X1.3564 Y1.5406 I0.0057 J0.0057
G3 X1.3666 Y1.5387 I0.0102 J0.0264
G3 X1.3757 Y1.5419 I0 J0.0147
G3 X1.4107 Y1.5842 I-0.0822 J0.1036
G3 X1.4359 Y1.6549 I-0.2376 J0.1244
G3 X1.4476 Y1.7706 I-0.5662 J0.1157
G0 Z0.25
G0 X0.6126 Y1.812
G1 Z-0.1 F30
G3 X0.6244 Y1.7004 I0.5326 J0 F30
G3 X0.651 Y1.6275 I0.2727 J0.0584
G3 X0.6887 Y1.5824 I0.127 J0.0678
G3 X0.6995 Y1.5787 I0.0107 J0.0136
G3 X0.702 Y1.5789 I0 J0.0161
G3 X0.7015 Y1.5831 I-0.0233 J-0.0006
G3 X0.6979 Y1.5956 I-0.0804 J-0.0168
G3 X0.6942 Y1.6043 I-0.1197 J-0.0457
G3 X0.6815 Y1.6301 I-0.7712 J-0.362
G2 X0.6621 Y1.6704 I0.8222 J0.4203
G2 X0.6517 Y1.6966 I0.2907 J0.1313
G2 X0.6395 Y1.7434 I0.2809 J0.098
G2 X0.6355 Y1.7898 I0.2656 J0.0465
G2 X0.6481 Y1.8605 I0.2048 J0
G2 X0.6852 Y1.9158 I0.1321 J-0.0486
G2 X0.7412 Y1.9479 I0.0996 J-0.109
G2 X0.8134 Y1.9588 I0.0722 J-0.2331
G2 X0.8559 Y1.9555 I0 J-0.2769
G2 X0.8915 Y1.9459 I-0.0257 J-0.1652
G2 X0.9248 Y1.9273 I-0.0523 J-0.1327
G2 X0.9311 Y1.9222 I-0.0802 J-0.107
G3 X0.8995 Y1.9744 I-0.2579 J-0.1208
G3 X0.8711 Y2.0016 I-0.1029 J-0.0787
G3 X0.8379 Y2.0176 I-0.0643 J-0.0913
G3 X0.7882 Y2.0246 I-0.0497 J-0.1717
G3 X0.7144 Y2.0097 I0 J-0.1894
G3 X0.6631 Y1.9729 I0.0559 J-0.1322
G3 X0.6287 Y1.9131 I0.1264 J-0.1125
G3 X0.6126 Y1.812 I0.3084 J-0.1011

(pocket 1-1)
G0 Z0.25
G0 X1.4476 Y2.6604
G1 Z-0.05 F30
G3 X1.427 Y2.7912 I-0.4269 J0 F30
G3 X1.3828 Y2.8688 I-0.2072 J-0.0667
G3 X1.3157 Y2.9169 I-0.1386 J-0.1227
G3 X1.2172 Y2.9366 I-0.0985 J-0.2353
G3 X1.1475 Y2.9273 I0 J-0.2633
G3 X1.1082 Y2.9085 I0.0326 J-0.1188
G3 X1.0782 Y2.8773 I0.07 J-0.0973
G3 X1.049 Y2.8161 I0.2033 J-0.1346
G2 X0.9581 Y2.7808 I-0.0596 J0.0188
G2 X0.9678 Y2.7629 I-0.1232 J-0.078
G2 X0.9796 Y2.7301 I-0.1991 J-0.09
G2 X0.9849 Y2.7064 I-0.2802 J-0.076
G2 X0.9906 Y2.6707 I-0.7617 J-0.1395
G2 X0.9914 Y2.6652 I-0.4824 J-0.0726
G2 X0.9928 Y2.6549 I-1.4967 J-0.2075
G3 X0.9936 Y2.649 I0.4775 J0.0629
G3 X0.9968 Y2.6489 I0.0032 J0.0699
G3 X1.0084 Y2.6497 I0 J0.0864
G3 X1.0097 Y2.665 I-0.121 J0.0185
G2 X1.0098 Y2.6662 I0.0625 J-0.0016
G2 X1.0134 Y2.7106 I0.5973 J-0.0267
G2 X1.0192 Y2.7429 I0.2785 J-0.0334
G2 X1.0327 Y2.7818 I0.2062 J-0.0497
G2 X1.0529 Y2.8141 I0.1356 J-0.0624
G2 X1.084 Y2.8423 I0.1096 J-0.0898
G2 X1.1226 Y2.8613 I0.0924 J-0.1388
G2 X1.1618 Y2.8705 I0.0666 J-0.1954
G2 X1.2113 Y2.8738 I0.0495 J-0.3694
G2 X1.2945 Y2.8598 I0 J-0.2543
G2 X1.3587 Y2.82 I-0.0561 J-0.162
G2 X1.3998 Y2.7553 I-0.1196 J-0.1215
G2 X1.4143 Y2.6708 I-0.2391 J-0.0845
G2 X1.4102 Y2.6211 I-0.3033 J0
G2 X1.3976 Y2.5691 I-0.362 J0.06
G2 X1.387 Y2.5399 I-0.382 J0.1226
G2 X1.3672 Y2.4944 I-1.0667 J0.4357
G3 X1.3558 Y2.4687 I1.0335 J-0.4751
G3 X1.3525 Y2.4603 I0.1443 J-0.0621
G3 X1.3492 Y2.4489 I0.0817 J-0.0297
G1 X1.3492 Y2.4489
G3 X1.3516 Y2.4353 I0.0387 J0
G3 X1.3536 Y2.4322 I0.0081 J0.003
G3 X1.3564 Y2.4304 I0.0057 J0.0057
G3 X1.3666 Y2.4285 I0.0102 J0.0264
G3 X1.3757 Y2.4317 I0 J0.0147
G3 X1.4107 Y2.474 I-0.0822 J0.1036
G3 X1.4359 Y2.5447 I-0.2376 J0.1244
G3 X1.4476 Y2.6604 I-0.5662 J0.1157
G0 Z0.25
G0 X0.6126 Y2.7018
G1 Z-0.05 F30
G3 X0.6244 Y2.5902 I0.5326 J0 F30
G3 X0.651 Y2.5173 I0.2727 J0.0584
G3 X0.6887 Y2.4722 I0.127 J0.0678
G3 X0.6995 Y2.4685 I0.0107 J0.0136
G3 X0.702 Y2.4687 I0 J0.0161
G3 X0.7015 Y2.4729 I-0.0233 J-0.0006
G3 X0.6979 Y2.4854 I-0.0804 J-0.0168
G3 X0.6942 Y2.4941 I-0.1197 J-0.0457
G3 X0.6815 Y2.52 I-0.7712 J-0.362
G2 X0.6621 Y2.5602 I0.8222 J0.4203
G2 X0.6517 Y2.5864 I0.2907 J0.1313
G2 X0.6395 Y2.6332 I0.2809 J0.098
G2 X0.6355 Y2.6796 I0.2656 J0.0465
G2 X0.6481 Y2.7504 I0.2048 J0
G2 X0.6852 Y2.8056 I0.1321 J-0.0486
G2 X0.7412 Y2.8377 I0.0996 J-0.109
G2 X0.8134 Y2.8486 I0.0722 J-0.2331
G2 X0.8559 Y2.8453 I0 J-0.2769
G2 X0.8915 Y2.8357 I-0.0257 J-0.1652
G2 X0.9248 Y2.8171 I-0.0523 J-0.1327
G2 X0.9311 Y2.8121 I-0.0802 J-0.107
G3 X0.8995 Y2.8642 I-0.2579 J-0.1208
G3 X0.8711 Y2.8915 I-0.1029 J-0.0787
G3 X0.8379 Y2.9074 I-0.0643 J-0.0913
G3 X0.7882 Y2.9145 I-0.0497 J-0.1717
G3 X0.7144 Y2.8995 I0 J-0.1894
G3 X0.6631 Y2.8627 I0.0559 J-0.1322
G3 X0.6287 Y2.8029 I0.1264 J-0.1125
G3 X0.6126 Y2.7018 I0.3084 J-0.1011
G0 Z0.25
G0 X1.4476 Y2.6604
G1 Z-0.1 F30
G3 X1.427 Y2.7912 I-0.4269 J0 F30
G3 X1.3828 Y2.8688 I-0.2072 J-0.0667
G3 X1.3157 Y2.9169 I-0.1386 J-0.1227
G3 X1.2172 Y2.9366 I-0.0985 J-0.2353
G3 X1.1475 Y2.9273 I0 J-0.2633
G3 X1.1082 Y2.9085 I0.0326 J-0.1188
G3 X1.0782 Y2.8773 I0.07 J-0.0973
G3 X1.049 Y2.8161 I0.2033 J-0.1346
G2 X0.9581 Y2.7808 I-0.0596 J0.0188
G2 X0.9678 Y2.7629 I-0.1232 J-0.078
G2 X0.9796 Y2.7301 I-0.1991 J-0.09
G2 X0.9849 Y2.7064 I-0.2802 J-0.076
G2 X0.9906 Y2.6707 I-0.7617 J-0.1395
G2 X0.9914 Y2.6652 I-0.4824 J-0.0726
G2 X0.9928 Y2.6549 I-1.4967 J-0.2075
G3 X0.9936 Y2.649 I0.4775 J0.0629
G3 X0.9968 Y2.6489 I0.0032 J0.0699
G3 X1.0084 Y2.6497 I0 J0.0864
G3 X1.0097 Y2.665 I-0.121 J0.0185
G2 X1.0098 Y2.6662 I0.0625 J-0.0016
G2 X1.0134 Y2.7106 I0.5973 J-0.0267
G2 X1.0192 Y2.7429 I0.2785 J-0.0334
G2 X1.0327 Y2.7818 I0.2062 J-0.0497
G2 X1.0529 Y2.8141 I0.1356 J-0.0624
G2 X1.084 Y2.8423 I0.1096 J-0.0898
G2 X1.1226 Y2.8613 I0.0924 J-0.1388
G2 X1.1618 Y2.8705 I0.0666 J-0.1954
G2 X1.2113 Y2.8738 I0.0495 J-0.3694
G2 X1.2945 Y2.8598 I0 J-0.2543
G2 X1.3587 Y2.82 I-0.0561 J-0.162
G2 X1.3998 Y2.7553 I-0.1196 J-0.1215
G2 X1.4143 Y2.6708 I-0.2391 J-0.0845
G2 X1.4102 Y2.6211 I-0.3033 J0
G2 X1.3976 Y2.5691 I-0.362 J0.06
G2 X1.387 Y2.5399 I-0.382 J0.1226
G2 X1.3672 Y2.4944 I-1.0667 J0.4357
G3 X1.3558 Y2.4687 I1.0335 J-0.4751
G3 X1.3525 Y2.4603 I0.1443 J-0.0621
G3 X1.3492 Y2.4489 I0.0817 J-0.0297
G1 X1.3492 Y2.4489
G3 X1.3516 Y2.4353 I0.0387 J0
G3 X1.3536 Y2.4322 I0.0081 J0.003
G3 X1.3564 Y2.4304 I0.0057 J0.0057
G3 X1.3666 Y2.4285 I0.0102 J0.0264
G3 X1.3757 Y2.4317 I0 J0.0147
G3 X1.4107 Y2.474 I-0.0822 J0.1036
G3 X1.4359 Y2.5447 I-0.2376 J0.1244
G3 X1.4476 Y2.6604 I-0.5662 J0.1157
G0 Z0.25
G0 X0.6126 Y2.7018
G1 Z-0.1 F30
G3 X0.6244 Y2.5902 I0.5326 J0 F30
G3 X0.651 Y2.5173 I0.2727 J0.0584
G3 X0.6887 Y2.4722 I0.127 J0.0678
G3 X0.6995 Y2.4685 I0.0107 J0.0136
G3 X0.702 Y2.4687 I0 J0.0161
G3 X0.7015 Y2.4729 I-0.0233 J-0.0006
G3 X0.6979 Y2.4854 I-0.0804 J-0.0168
G3 X0.6942 Y2.4941 I-0.1197 J-0.0457
G3 X0.6815 Y2.52 I-0.7712 J-0.362
G2 X0.6621 Y2.5602 I0.8222 J0.4203
G2 X0.6517 Y2.5864 I0.2907 J0.1313
G2 X0.6395 Y2.6332 I0.2809 J0.098
G2 X0.6355 Y2.6796 I0.2656 J0.0465
G2 X0.6481 Y2.7504 I0.2048 J0
G2 X0.6852 Y2.8056 I0.1321 J-0.0486
G2 X0.7412 Y2.8377 I0.0996 J-0.109
G2 X0.8134 Y2.8486 I0.0722 J-0.2331
G2 X0.8559 Y2.8453 I0 J-0.2769
G2 X0.8915 Y2.8357 I-0.0257 J-0.1652
G2 X0.9248 Y2.8171 I-0.0523 J-0.1327
G2 X0.9311 Y2.8121 I-0.0802 J-0.107
G3 X0.8995 Y2.8642 I-0.2579 J-0.1208
G3 X0.8711 Y2.8915 I-0.1029 J-0.0787
G3 X0.8379 Y2.9074 I-0.0643 J-0.0913
G3 X0.7882 Y2.9145 I-0.0497 J-0.1717
G3 X0.7144 Y2.8995 I0 J-0.1894
G3 X0.6631 Y2.8627 I0.0559 J-0.1322
G3 X0.6287 Y2.8029 I0.1264 J-0.1125
G3 X0.6126 Y2.7018 I0.3084 J-0.1011

(pocket 1-2)
G0 Z0.25
G0 X1.3828 Y3.5931
G1 Z-0.05 F30
G3 X1.3782 Y3.6203 I-0.0829 J0 F30
G3 X1.3742 Y3.627 I-0.0182 J-0.0063
G3 X1.3712 Y3.6291 I-0.0062 J-0.0057
G3 X1.3592 Y3.6315 I-0.012 J-0.0288
G3 X1.3471 Y3.6291 I0 J-0.0312
G3 X1.3442 Y3.627 I0.0033 J-0.0078
G3 X1.3402 Y3.6203 I0.0142 J-0.013
G3 X1.3356 Y3.5931 I0.0783 J-0.0272
G3 X1.34 Y3.5677 I0.0761 J0
G3 X1.3447 Y3.5599 I0.0218 J0.0077
G3 X1.3489 Y3.5569 I0.0091 J0.0083
G3 X1.3592 Y3.5548 I0.0103 J0.024
G3 X1.3694 Y3.5569 I0 J0.0261
G3 X1.3737 Y3.5599 I-0.0048 J0.0113
G3 X1.3784 Y3.5677 I-0.017 J0.0156
G3 X1.3828 Y3.5931 I-0.0718 J0.0254
G1 X1.4328 Y3.5931 F30
G3 X1.4254 Y3.6367 I-0.1329 J0 F30
G3 X1.4111 Y3.6608 I-0.0654 J-0.0227
G3 X1.3905 Y3.6752 I-0.0431 J-0.0395
G3 X1.3592 Y3.6815 I-0.0314 J-0.0749
G3 X1.3278 Y3.6752 I0 J-0.0812
G3 X1.3073 Y3.6608 I0.0226 J-0.0539
G3 X1.2929 Y3.6367 I0.0511 J-0.0468
G3 X1.2856 Y3.5931 I0.1256 J-0.0436
G3 X1.2928 Y3.5511 I0.1261 J0
G3 X1.3078 Y3.5261 I0.0689 J0.0244
G3 X1.3293 Y3.5109 I0.0459 J0.0421
G3 X1.3592 Y3.5048 I0.0299 J0.07
G3 X1.3891 Y3.5109 I0 J0.0761
G3 X1.4105 Y3.5261 I-0.0245 J0.0573
G3 X1.4255 Y3.5511 I-0.0539 J0.0494
G3 X1.4328 Y3.5931 I-0.1189 J0.0421
G0 Z0.25
G0 X1.3828 Y3.5931
G1 Z-0.1 F30
G3 X1.3782 Y3.6203 I-0.0829 J0 F30
G3 X1.3742 Y3.627 I-0.0182 J-0.0063
G3 X1.3712 Y3.6291 I-0.0062 J-0.0057
G3 X1.3592 Y3.6315 I-0.012 J-0.0288
G3 X1.3471 Y3.6291 I0 J-0.0312
G3 X1.3442 Y3.627 I0.0033 J-0.0078
G3 X1.3402 Y3.6203 I0.0142 J-0.013
G3 X1.3356 Y3.5931 I0.0783 J-0.0272
G3 X1.34 Y3.5677 I0.0761 J0
G3 X1.3447 Y3.5599 I0.0218 J0.0077
G3 X1.3489 Y3.5569 I0.0091 J0.0083
G3 X1.3592 Y3.5548 I0.0103 J0.024
G3 X1.3694 Y3.5569 I0 J0.0261
G3 X1.3737 Y3.5599 I-0.0048 J0.0113
G3 X1.3784 Y3.5677 I-0.017 J0.0156
G3 X1.3828 Y3.5931 I-0.0718 J0.0254
G1 X1.4328 Y3.5931 F30
G3 X1.4254 Y3.6367 I-0.1329 J0 F30
G3 X1.4111 Y3.6608 I-0.0654 J-0.0227
G3 X1.3905 Y3.6752 I-0.0431 J-0.0395
G3 X1.3592 Y3.6815 I-0.0314 J-0.0749
G3 X1.3278 Y3.6752 I0 J-0.0812
G3 X1.3073 Y3.6608 I0.0226 J-0.0539
G3 X1.2929 Y3.6367 I0.0511 J-0.0468
G3 X1.2856 Y3.5931 I0.1256 J-0.0436
G3 X1.2928 Y3.5511 I0.1261 J0
G3 X1.3078 Y3.5261 I0.0689 J0.0244
G3 X1.3293 Y3.5109 I0.0459 J0.0421
G3 X1.3592 Y3.5048 I0.0299 J0.07
G3 X1.3891 Y3.5109 I0 J0.0761
G3 X1.4105 Y3.5261 I-0.0245 J0.0573
G3 X1.4255 Y3.5511 I-0.0539 J0.0494
G3 X1.4328 Y3.5931 I-0.1189 J0.0421

(pocket 1-3)
G0 Z0.25
G0 X1.0278 Y4.7111
G1 Z-0.05 F30
G3 X0.868 Y4.6956 I0 J-0.8289 F30
G3 X0.7624 Y4.6571 I0.07 J-0.3563
G3 X0.7153 Y4.624 I0.1298 J-0.235
G3 X0.6808 Y4.5846 I0.1307 J-0.1492
G3 X0.6581 Y4.5362 I0.1516 J-0.1007
G3 X0.6503 Y4.483 I0.1774 J-0.0532
G3 X0.6582 Y4.4297 I0.1838 J0
G3 X0.6812 Y4.3811 I0.1743 J0.0528
G3 X0.7158 Y4.3418 I0.1654 J0.1109
G3 X0.7631 Y4.3088 I0.1778 J0.2041
G3 X0.8688 Y4.2703 I0.1764 J0.3205
G3 X1.0278 Y4.2548 I0.1591 J0.8074
G3 X1.1884 Y4.2701 I0 J0.8474
G3 X1.2943 Y4.308 I-0.07 J0.3627
G3 X1.3421 Y4.341 I-0.1292 J0.2387
G3 X1.3771 Y4.3803 I-0.1295 J0.1505
G3 X1.4004 Y4.4292 I-0.1504 J0.1017
G3 X1.4084 Y4.483 I-0.1771 J0.0538
G3 X1.4004 Y4.5363 I-0.1837 J0
G3 X1.3774 Y4.5849 I-0.1738 J-0.0528
G3 X1.3426 Y4.6242 I-0.165 J-0.1109
G3 X1.295 Y4.6573 I-0.1777 J-0.2051
G3 X1.1888 Y4.6956 I-0.1767 J-0.3232
G3 X1.0278 Y4.7111 I-0.161 J-0.826
G0 Z0.25
G0 X0.8315 Y4.2131
G1 Z-0.05 F30
G3 X1.0293 Y4.186 I0.1978 J0.7093 F30
G3 X1.2263 Y4.213 I0 J0.7322
G3 X1.3442 Y4.2717 I-0.0939 J0.3361
G3 X1.3891 Y4.3148 I-0.1683 J0.2205
G3 X1.42 Y4.3626 I-0.1837 J0.1529
G3 X1.439 Y4.4168 I-0.2183 J0.1069
G3 X1.4461 Y4.4815 I-0.2917 J0.0646
G3 X1.439 Y4.5468 I-0.304 J0
G3 X1.4199 Y4.6017 I-0.2413 J-0.0531
G3 X1.3889 Y4.65 I-0.2179 J-0.1059
G3 X1.344 Y4.6934 I-0.215 J-0.1774
G3 X1.2259 Y4.7527 I-0.2126 J-0.2759
G3 X1.0293 Y4.7799 I-0.1966 J-0.6973
G3 X0.8327 Y4.7527 I0 J-0.7245
G3 X0.7147 Y4.6934 I0.0945 J-0.3352
G3 X0.6698 Y4.65 I0.1701 J-0.2208
G3 X0.6387 Y4.6017 I0.1869 J-0.1542
G3 X0.6197 Y4.5468 I0.2223 J-0.108
G3 X0.6126 Y4.4815 I0.2969 J-0.0653
G3 X0.6196 Y4.4167 I0.3014 J0
G3 X0.6385 Y4.3624 I0.2378 J0.0524
G3 X0.6693 Y4.3147 I0.2144 J0.1044
G3 X0.714 Y4.2717 I0.2121 J0.1758
G3 X0.8315 Y4.2131 I0.2107 J0.2753
G0 Z0.25
G0 X1.0278 Y4.7111
G1 Z-0.1 F30
G3 X0.868 Y4.6956 I0 J-0.8289 F30
G3 X0.7624 Y4.6571 I0.07 J-0.3563
G3 X0.7153 Y4.624 I0.1298 J-0.235
G3 X0.6808 Y4.5846 I0.1307 J-0.1492
G3 X0.6581 Y4.5362 I0.1516 J-0.1007
G3 X0.6503 Y4.483 I0.1774 J-0.0532
G3 X0.6582 Y4.4297 I0.1838 J0
G3 X0.6812 Y4.3811 I0.1743 J0.0528
G3 X0.7158 Y4.3418 I0.1654 J0.1109
G3 X0.7631 Y4.3088 I0.1778 J0.2041
G3 X0.8688 Y4.2703 I0.1764 J0.3205
G3 X1.0278 Y4.2548 I0.1591 J0.8074
G3 X1.1884 Y4.2701 I0 J0.8474
G3 X1.2943 Y4.308 I-0.07 J0.3627
G3 X1.3421 Y4.341 I-0.1292 J0.2387
G3 X1.3771 Y4.3803 I-0.1295 J0.1505
G3 X1.4004 Y4.4292 I-0.1504 J0.1017
G3 X1.4084 Y4.483 I-0.1771 J0.0538
G3 X1.4004 Y4.5363 I-0.1837 J0
G3 X1.3774 Y4.5849 I-0.1738 J-0.0528
G3 X1.3426 Y4.6242 I-0.165 J-0.1109
G3 X1.295 Y4.6573 I-0.1777 J-0.2051
G3 X1.1888 Y4.6956 I-0.1767 J-0.3232
G3 X1.0278 Y4.7111 I-0.161 J-0.826
G0 Z0.25
G0 X0.8315 Y4.2131
G1 Z-0.1 F30
G3 X1.0293 Y4.186 I0.1978 J0.7093 F30
G3 X1.2263 Y4.213 I0 J0.7322
G3 X1.3442 Y4.2717 I-0.0939 J0.3361
G3 X1.3891 Y4.3148 I-0.1683 J0.2205
G3 X1.42 Y4.3626 I-0.1837 J0.1529
G3 X1.439 Y4.4168 I-0.2183 J0.1069
G3 X1.4461 Y4.4815 I-0.2917 J0.0646
G3 X1.439 Y4.5468 I-0.304 J0
G3 X1.4199 Y4.6017 I-0.2413 J-0.0531
G3 X1.3889 Y4.65 I-0.2179 J-0.1059
G3 X1.344 Y4.6934 I-0.215 J-0.1774
G3 X1.2259 Y4.7527 I-0.2126 J-0.2759
G3 X1.0293 Y4.7799 I-0.1966 J-0.6973
G3 X0.8327 Y4.7527 I0 J-0.7245
G3 X0.7147 Y4.6934 I0.0945 J-0.3352
G3 X0.6698 Y4.65 I0.1701 J-0.2208
G3 X0.6387 Y4.6017 I0.1869 J-0.1542
G3 X0.6197 Y4.5468 I0.2223 J-0.108
G3 X0.6126 Y4.4815 I0.2969 J-0.0653
G3 X0.6196 Y4.4167 I0.3014 J0
G3 X0.6385 Y4.3624 I0.2378 J0.0524
G3 X0.6693 Y4.3147 I0.2144 J0.1044
G3 X0.714 Y4.2717 I0.2121 J0.1758
G3 X0.8315 Y4.2131 I0.2107 J0.2753

(pocket 1-4)
G0 Z0.25
G0 X0.8978 Y5.2382
G1 Z-0.05 F30
G1 X0.691 Y5.2553 F30
G1 X0.691 Y5.2211
G1 X0.8978 Y5.2382
G0 Z0.25
G0 X0.8978 Y5.2382
G1 Z-0.1 F30
G1 X0.691 Y5.2553 F30
G1 X0.691 Y5.2211
G1 X0.8978 Y5.2382

(pocket 1-5)
G0 Z0.25
G0 X0.691 Y5.4903
G1 Z-0.05 F30
G1 X0.8978 Y5.5074 F30
G1 X0.691 Y5.5245
G1 X0.691 Y5.4903
G0 Z0.25
G0 X0.691 Y5.4903
G1 Z-0.1 F30
G1 X0.8978 Y5.5074 F30
G1 X0.691 Y5.5245
G1 X0.691 Y5.4903

(pocket 1-6)
G0 Z0.25
G0 X1.8345 Y0.6124
G1 Z-0.05 F30
G3 X1.9651 Y0.6329 I0 J0.4261 F30
G3 X2.0425 Y0.677 I-0.0666 J0.2068
G3 X2.0905 Y0.744 I-0.1224 J0.1383
G3 X2.1102 Y0.8423 I-0.2349 J0.0983
G3 X2.1009 Y0.9119 I-0.2628 J0
G3 X2.0821 Y0.9511 I-0.1185 J-0.0325
G3 X2.0511 Y0.981 I-0.0971 J-0.0698
G3 X1.99 Y1.0101 I-0.1343 J-0.2029
G2 X1.9463 Y1.0697 I0.0188 J0.0596
G2 X1.9545 Y1.1007 I0.0625 J0
G2 X1.9369 Y1.0912 I-0.0776 J0.1233
G2 X1.9041 Y1.0795 I-0.0899 J0.1989
G2 X1.8805 Y1.0741 I-0.0759 J0.2798
G2 X1.8448 Y1.0684 I-0.1393 J0.7606
G2 X1.8393 Y1.0676 I-0.0725 J0.4817
G2 X1.829 Y1.0662 I-0.2072 J1.4945
G3 X1.8232 Y1.0654 I0.0628 J-0.4767
G3 X1.8232 Y1.0624 I0.0697 J-0.0031
G3 X1.8239 Y1.0509 I0.0862 J0
G3 X1.8391 Y1.0495 I0.0184 J0.1207
G2 X1.8403 Y1.0495 I-0.0016 J-0.0625
G2 X1.8847 Y1.0458 I-0.0267 J-0.5965
G2 X1.9169 Y1.04 I-0.0334 J-0.2782
G2 X1.9558 Y1.0265 I-0.0496 J-0.206
G2 X1.988 Y1.0064 I-0.0623 J-0.1355
G2 X2.0162 Y0.9753 I-0.0898 J-0.1095
G2 X2.0352 Y0.9368 I-0.1386 J-0.0923
G2 X2.0444 Y0.8976 I-0.1952 J-0.0666
G2 X2.0477 Y0.8482 I-0.3689 J-0.0494
G2 X2.0337 Y0.7651 I-0.254 J0
G2 X1.9939 Y0.701 I-0.1618 J0.0561
G2 X1.9293 Y0.6599 I-0.1214 J0.1195
G2 X1.8449 Y0.6454 I-0.0844 J0.2388
G2 X1.7953 Y0.6495 I0 J0.3029
G2 X1.7433 Y0.6621 I0.06 J0.3616
G2 X1.7142 Y0.6727 I0.1224 J0.3815
G2 X1.6687 Y0.6924 I0.4351 J1.0651
G3 X1.6431 Y0.7038 I-0.4743 J-1.0318
G3 X1.6347 Y0.7071 I-0.0619 J-0.144
G3 X1.6233 Y0.7104 I-0.0296 J-0.0815
G3 X1.6098 Y0.7079 I0 J-0.0385
G3 X1.6068 Y0.706 I0.003 J-0.008
G3 X1.605 Y0.7032 I0.0056 J-0.0056
G3 X1.6031 Y0.6931 I0.0262 J-0.0101
G3 X1.6063 Y0.684 I0.0146 J0
G3 X1.6484 Y0.6492 I0.1034 J0.0821
G3 X1.7191 Y0.624 I0.1242 J0.2372
G3 X1.8345 Y0.6124 I0.1155 J0.5652
G0 Z0.25
G0 X1.8759 Y1.4459
G1 Z-0.05 F30
G3 X1.7644 Y1.4341 I0 J-0.5317 F30
G3 X1.6917 Y1.4075 I0.0583 J-0.2722
G3 X1.6467 Y1.3699 I0.0676 J-0.1267
G3 X1.643 Y1.3592 I0.0135 J-0.0106
G3 X1.6432 Y1.3567 I0.016 J0
G3 X1.6473 Y1.3572 I-0.0007 J0.0232
G3 X1.6597 Y1.3609 I-0.0168 J0.0802
G3 X1.6685 Y1.3646 I-0.0456 J0.1194
G3 X1.6943 Y1.3772 I-0.3614 J0.77
G2 X1.7344 Y1.3966 I0.4197 J-0.821
G2 X1.7606 Y1.407 I0.1312 J-0.2904
G2 X1.8073 Y1.4192 I0.0979 J-0.2806
G2 X1.8537 Y1.4232 I0.0464 J-0.2653
G2 X1.9244 Y1.4106 I0 J-0.2045
G2 X1.9796 Y1.3735 I-0.0486 J-0.132
G2 X2.0117 Y1.3176 I-0.1089 J-0.0996
G2 X2.0226 Y1.2455 I-0.2328 J-0.0721
G2 X2.0193 Y1.203 I-0.2766 J0
G2 X2.0096 Y1.1674 I-0.165 J0.0257
G2 X1.9911 Y1.1342 I-0.1326 J0.0523
G2 X1.9863 Y1.1282 I-0.1069 J0.0801
G3 X2.038 Y1.1596 I-0.121 J0.2572
G3 X2.0651 Y1.1879 I-0.0785 J0.1026
G3 X2.0811 Y1.221 I-0.0911 J0.0641
G3 X2.0881 Y1.2706 I-0.1713 J0.0496
G3 X2.0731 Y1.3443 I-0.189 J0
G3 X2.0365 Y1.3954 I-0.1319 J-0.0558
G3 X1.9768 Y1.4298 I-0.1123 J-0.1262
G3 X1.8759 Y1.4459 I-0.1009 J-0.3078
G0 Z0.25
G0 X1.8345 Y0.6124
G1 Z-0.1 F30
G3 X1.9651 Y0.6329 I0 J0.4261 F30
G3 X2.0425 Y0.677 I-0.0666 J0.2068
G3 X2.0905 Y0.744 I-0.1224 J0.1383
G3 X2.1102 Y0.8423 I-0.2349 J0.0983
G3 X2.1009 Y0.9119 I-0.2628 J0
G3 X2.0821 Y0.9511 I-0.1185 J-0.0325
G3 X2.0511 Y0.981 I-0.0971 J-0.0698
G3 X1.99 Y1.0101 I-0.1343 J-0.2029
G2 X1.9463 Y1.0697 I0.0188 J0.0596
G2 X1.9545 Y1.1007 I0.0625 J0
G2 X1.9369 Y1.0912 I-0.0776 J0.1233
G2 X1.9041 Y1.0795 I-0.0899 J0.1989
G2 X1.8805 Y1.0741 I-0.0759 J0.2798
G2 X1.8448 Y1.0684 I-0.1393 J0.7606
G2 X1.8393 Y1.0676 I-0.0725 J0.4817
G2 X1.829 Y1.0662 I-0.2072 J1.4945
G3 X1.8232 Y1.0654 I0.0628 J-0.4767
G3 X1.8232 Y1.0624 I0.0697 J-0.0031
G3 X1.8239 Y1.0509 I0.0862 J0
G3 X1.8391 Y1.0495 I0.0184 J0.1207
G2 X1.8403 Y1.0495 I-0.0016 J-0.0625
G2 X1.8847 Y1.0458 I-0.0267 J-0.5965
G2 X1.9169 Y1.04 I-0.0334 J-0.2782
G2 X1.9558 Y1.0265 I-0.0496 J-0.206
G2 X1.988 Y1.0064 I-0.0623 J-0.1355
G2 X2.0162 Y0.9753 I-0.0898 J-0.1095
G2 X2.0352 Y0.9368 I-0.1386 J-0.0923
G2 X2.0444 Y0.8976 I-0.1952 J-0.0666
G2 X2.0477 Y0.8482 I-0.3689 J-0.0494
G2 X2.0337 Y0.7651 I-0.254 J0
G2 X1.9939 Y0.701 I-0.1618 J0.0561
G2 X1.9293 Y0.6599 I-0.1214 J0.1195
G2 X1.8449 Y0.6454 I-0.0844 J0.2388
G2 X1.7953 Y0.6495 I0 J0.3029
G2 X1.7433 Y0.6621 I0.06 J0.3616
G2 X1.7142 Y0.6727 I0.1224 J0.3815
G2 X1.6687 Y0.6924 I0.4351 J1.0651
G3 X1.6431 Y0.7038 I-0.4743 J-1.0318
G3 X1.6347 Y0.7071 I-0.0619 J-0.144
G3 X1.6233 Y0.7104 I-0.0296 J-0.0815
G3 X1.6098 Y0.7079 I0 J-0.0385
G3 X1.6068 Y0.706 I0.003 J-0.008
G3 X1.605 Y0.7032 I0.0056 J-0.0056
G3 X1.6031 Y0.6931 I0.0262 J-0.0101
G3 X1.6063 Y0.684 I0.0146 J0
G3 X1.6484 Y0.6492 I0.1034 J0.0821
G3 X1.7191 Y0.624 I0.1242 J0.2372
G3 X1.8345 Y0.6124 I0.1155 J0.5652
G0 Z0.25
G0 X1.8759 Y1.4459
G1 Z-0.1 F30
G3 X1.7644 Y1.4341 I0 J-0.5317 F30
G3 X1.6917 Y1.4075 I0.0583 J-0.2722
G3 X1.6467 Y1.3699 I0.0676 J-0.1267
G3 X1.643 Y1.3592 I0.0135 J-0.0106
G3 X1.6432 Y1.3567 I0.016 J0
G3 X1.6473 Y1.3572 I-0.0007 J0.0232
G3 X1.6597 Y1.3609 I-0.0168 J0.0802
G3 X1.6685 Y1.3646 I-0.0456 J0.1194
G3 X1.6943 Y1.3772 I-0.3614 J0.77
G2 X1.7344 Y1.3966 I0.4197 J-0.821
G2 X1.7606 Y1.407 I0.1312 J-0.2904
G2 X1.8073 Y1.4192 I0.0979 J-0.2806
G2 X1.8537 Y1.4232 I0.0464 J-0.2653
G2 X1.9244 Y1.4106 I0 J-0.2045
G2 X1.9796 Y1.3735 I-0.0486 J-0.132
G2 X2.0117 Y1.3176 I-0.1089 J-0.0996
G2 X2.0226 Y1.2455 I-0.2328 J-0.0721
G2 X2.0193 Y1.203 I-0.2766 J0
G2 X2.0096 Y1.1674 I-0.165 J0.0257
G2 X1.9911 Y1.1342 I-0.1326 J0.0523
G2 X1.9863 Y1.1282 I-0.1069 J0.0801
G3 X2.038 Y1.1596 I-0.121 J0.2572
G3 X2.0651 Y1.1879 I-0.0785 J0.1026
G3 X2.0811 Y1.221 I-0.0911 J0.0641
G3 X2.0881 Y1.2706 I-0.1713 J0.0496
G3 X2.0731 Y1.3443 I-0.189 J0
G3 X2.0365 Y1.3954 I-0.1319 J-0.0558
G3 X1.9768 Y1.4298 I-0.1123 J-0.1262
G3 X1.8759 Y1.4459 I-0.1009 J-0.3078

(pocket 1-7)
G0 Z0.25
G0 X2.8126 Y0.7286
G1 Z-0.05 F30
G1 X2.8126 Y1.4405 F30
G3 X2.8125 Y1.4463 I-0.1099 J0
G3 X2.8078 Y1.4454 I0.0227 J-0.1375
G3 X2.7965 Y1.4429 I0.0443 J-0.2214
G3 X2.779 Y1.4381 I0.1197 J-0.471
G2 X2.7778 Y1.4378 I-0.0176 J0.06
G1 X2.5987 Y1.3889
G3 X2.574 Y1.3798 I0.0352 J-0.1328
G3 X2.5714 Y1.3782 I0.0075 J-0.0156
G3 X2.5722 Y1.3703 I0.0509 J0.0017
G3 X2.5782 Y1.3713 I-0.0231 J0.1643
G3 X2.5892 Y1.3735 I-0.0504 J0.2835
G3 X2.6042 Y1.377 I-0.1108 J0.5077
G1 X2.6854 Y1.3976
G2 X2.7633 Y1.3371 I0.0154 J-0.0606
G1 X2.7633 Y0.7286
G2 X2.7008 Y0.6661 I-0.0625 J0
G1 X2.5664 Y0.6661
G3 X2.5388 Y0.6631 I-0.0002 J-0.1271
G3 X2.5374 Y0.6518 I0.0432 J-0.0113
G3 X2.5388 Y0.6403 I0.0476 J0
G3 X2.5664 Y0.6375 I0.0277 J0.1322
G1 X2.9918 Y0.6375
G3 X3.0195 Y0.6403 I0 J0.1351
G3 X3.0209 Y0.6518 I-0.0462 J0.0114
G3 X3.0194 Y0.6631 I-0.0446 J0
G3 X2.9918 Y0.6661 I-0.0275 J-0.1241
G1 X2.8751 Y0.6661
G2 X2.8126 Y0.7286 I0 J0.0625
G0 Z0.25
G0 X2.8126 Y0.7286
G1 Z-0.1 F30
G1 X2.8126 Y1.4405 F30
G3 X2.8125 Y1.4463 I-0.1099 J0
G3 X2.8078 Y1.4454 I0.0227 J-0.1375
G3 X2.7965 Y1.4429 I0.0443 J-0.2214
G3 X2.779 Y1.4381 I0.1197 J-0.471
G2 X2.7778 Y1.4378 I-0.0176 J0.06
G1 X2.5987 Y1.3889
G3 X2.574 Y1.3798 I0.0352 J-0.1328
G3 X2.5714 Y1.3782 I0.0075 J-0.0156
G3 X2.5722 Y1.3703 I0.0509 J0.0017
G3 X2.5782 Y1.3713 I-0.0231 J0.1643
G3 X2.5892 Y1.3735 I-0.0504 J0.2835
G3 X2.6042 Y1.377 I-0.1108 J0.5077
G1 X2.6854 Y1.3976
G2 X2.7633 Y1.3371 I0.0154 J-0.0606
G1 X2.7633 Y0.7286
G2 X2.7008 Y0.6661 I-0.0625 J0
G1 X2.5664 Y0.6661
G3 X2.5388 Y0.6631 I-0.0002 J-0.1271
G3 X2.5374 Y0.6518 I0.0432 J-0.0113
G3 X2.5388 Y0.6403 I0.0476 J0
G3 X2.5664 Y0.6375 I0.0277 J0.1322
G1 X2.9918 Y0.6375
G3 X3.0195 Y0.6403 I0 J0.1351
G3 X3.0209 Y0.6518 I-0.0462 J0.0114
G3 X3.0194 Y0.6631 I-0.0446 J0
G3 X2.9918 Y0.6661 I-0.0275 J-0.1241
G1 X2.8751 Y0.6661
G2 X2.8126 Y0.7286 I0 J0.0625

(pocket 1-8)
G0 Z0.25
G0 X3.6814 Y0.7193
G1 Z-0.05 F30
G3 X3.6543 Y0.7239 I-0.0271 J-0.0781 F30
G3 X3.629 Y0.7195 I0 J-0.0759
G3 X3.6212 Y0.7149 I0.0076 J-0.0216
G3 X3.6182 Y0.7107 I0.0082 J-0.0089
G3 X3.6161 Y0.7005 I0.0238 J-0.0102
G3 X3.6182 Y0.6903 I0.0259 J0
G3 X3.6212 Y0.6862 I0.0111 J0.0047
G3 X3.629 Y0.6815 I0.0155 J0.0169
G3 X3.6543 Y0.6771 I0.0253 J0.0715
G3 X3.6814 Y0.6817 I0 J0.0826
G3 X3.688 Y0.6856 I-0.0062 J0.018
G3 X3.69 Y0.6886 I-0.0056 J0.0061
G3 X3.6924 Y0.7005 I-0.0285 J0.012
G3 X3.69 Y0.7125 I-0.0309 J0
G3 X3.688 Y0.7154 I-0.0076 J-0.0032
G3 X3.6814 Y0.7193 I-0.0129 J-0.0141
G1 X3.6977 Y0.7666 F30
G3 X3.6543 Y0.7739 I-0.0435 J-0.1253 F30
G3 X3.6123 Y0.7667 I0 J-0.1259
G3 X3.5874 Y0.7517 I0.0243 J-0.0687
G3 X3.5722 Y0.7303 I0.0419 J-0.0458
G3 X3.5661 Y0.7005 I0.0698 J-0.0298
G3 X3.5722 Y0.6707 I0.0759 J0
G3 X3.5874 Y0.6493 I0.0571 J0.0244
G3 X3.6123 Y0.6343 I0.0492 J0.0537
G3 X3.6543 Y0.6271 I0.042 J0.1187
G3 X3.6977 Y0.6345 I0 J0.1326
G3 X3.7217 Y0.6488 I-0.0226 J0.0652
G3 X3.7361 Y0.6692 I-0.0394 J0.043
G3 X3.7424 Y0.7005 I-0.0747 J0.0313
G3 X3.7361 Y0.7318 I-0.0809 J0
G3 X3.7217 Y0.7523 I-0.0538 J-0.0225
G3 X3.6977 Y0.7666 I-0.0466 J-0.0509
G0 Z0.25
G0 X3.6814 Y0.7193
G1 Z-0.1 F30
G3 X3.6543 Y0.7239 I-0.0271 J-0.0781 F30
G3 X3.629 Y0.7195 I0 J-0.0759
G3 X3.6212 Y0.7149 I0.0076 J-0.0216
G3 X3.6182 Y0.7107 I0.0082 J-0.0089
G3 X3.6161 Y0.7005 I0.0238 J-0.0102
G3 X3.6182 Y0.6903 I0.0259 J0
G3 X3.6212 Y0.6862 I0.0111 J0.0047
G3 X3.629 Y0.6815 I0.0155 J0.0169
G3 X3.6543 Y0.6771 I0.0253 J0.0715
G3 X3.6814 Y0.6817 I0 J0.0826
G3 X3.688 Y0.6856 I-0.0062 J0.018
G3 X3.69 Y0.6886 I-0.0056 J0.0061
G3 X3.6924 Y0.7005 I-0.0285 J0.012
G3 X3.69 Y0.7125 I-0.0309 J0
G3 X3.688 Y0.7154 I-0.0076 J-0.0032
G3 X3.6814 Y0.7193 I-0.0129 J-0.0141
G1 X3.6977 Y0.7666 F30
G3 X3.6543 Y0.7739 I-0.0435 J-0.1253 F30
G3 X3.6123 Y0.7667 I0 J-0.1259
G3 X3.5874 Y0.7517 I0.0243 J-0.0687
G3 X3.5722 Y0.7303 I0.0419 J-0.0458
G3 X3.5661 Y0.7005 I0.0698 J-0.0298
G3 X3.5722 Y0.6707 I0.0759 J0
G3 X3.5874 Y0.6493 I0.0571 J0.0244
G3 X3.6123 Y0.6343 I0.0492 J0.0537
G3 X3.6543 Y0.6271 I0.042 J0.1187
G3 X3.6977 Y0.6345 I0 J0.1326
G3 X3.7217 Y0.6488 I-0.0226 J0.0652
G3 X3.7361 Y0.6692 I-0.0394 J0.043
G3 X3.7424 Y0.7005 I-0.0747 J0.0313
G3 X3.7361 Y0.7318 I-0.0809 J0
G3 X3.7217 Y0.7523 I-0.0538 J-0.0225
G3 X3.6977 Y0.7666 I-0.0466 J-0.0509

(pocket 1-9)
G0 Z0.25
G0 X4.7554 Y1.4223
G1 Z-0.05 F30
G1 X4.2995 Y1.4223 F30
G1 X4.2995 Y1.0771
G3 X4.3032 Y1.0403 I0.1841 J0
G3 X4.3123 Y1.0392 I0.0091 J0.0376
G3 X4.316 Y1.0396 I0 J0.0183
G3 X4.3281 Y1.0429 I-0.017 J0.0843
G3 X4.3366 Y1.0463 I-0.0464 J0.129
G3 X4.3617 Y1.0578 I-0.3635 J0.8305
G2 X4.3997 Y1.0748 I0.4186 J-0.8825
G2 X4.4239 Y1.0839 I0.1266 J-0.2991
G2 X4.4671 Y1.0947 I0.0929 J-0.2798
G2 X4.5088 Y1.0983 I0.0417 J-0.2437
G2 X4.5979 Y1.0814 I0 J-0.244
G2 X4.6684 Y1.0339 I-0.0715 J-0.1821
G2 X4.7122 Y0.9625 I-0.1467 J-0.1391
G2 X4.7278 Y0.8718 I-0.2552 J-0.0906
G2 X4.7109 Y0.7788 I-0.2641 J0
G2 X4.6635 Y0.7077 I-0.1775 J0.0668
G2 X4.5906 Y0.6641 I-0.1353 J0.1435
G2 X4.494 Y0.6484 I-0.0966 J0.2895
G2 X4.4538 Y0.6506 I0 J0.3541
G2 X4.41 Y0.6578 I0.051 J0.4463
G2 X4.385 Y0.6639 I0.1046 J0.4848
G2 X4.3435 Y0.6758 I0.3979 J1.4685
G3 X4.3162 Y0.6838 I-0.4333 J-1.4366
G3 X4.306 Y0.6864 I-0.0678 J-0.241
G3 X4.2906 Y0.6893 I-0.0379 J-0.1607
G3 X4.2843 Y0.6897 I-0.0063 J-0.046
G3 X4.2773 Y0.6883 I0 J-0.0179
G3 X4.2705 Y0.6836 I0.0082 J-0.0193
G3 X4.2657 Y0.6763 I0.0163 J-0.0159
G3 X4.2641 Y0.668 I0.0204 J-0.0083
G3 X4.2652 Y0.6614 I0.0202 J0
G3 X4.2679 Y0.6565 I0.0156 J0.0054
G3 X4.2749 Y0.6499 I0.0265 J0.0212
G3 X4.2957 Y0.6384 I0.0653 J0.0931
G3 X4.3515 Y0.6227 I0.0881 J0.207
G3 X4.4748 Y0.6138 I0.1233 J0.8502
G3 X4.5593 Y0.6192 I0 J0.6687
G3 X4.6223 Y0.6324 I-0.0516 J0.4048
G3 X4.6791 Y0.6551 I-0.0895 J0.3058
G3 X4.7193 Y0.682 I-0.099 J0.1916
G3 X4.7512 Y0.7163 I-0.1249 J0.1478
G3 X4.7748 Y0.7588 I-0.1663 J0.1203
G3 X4.789 Y0.8077 I-0.2225 J0.0911
G3 X4.7948 Y0.8733 I-0.3675 J0.0656
G3 X4.7759 Y0.9829 I-0.3271 J0
G3 X4.7317 Y1.0555 I-0.1965 J-0.0698
G3 X4.6639 Y1.1022 I-0.1403 J-0.1312
G3 X4.5678 Y1.121 I-0.096 J-0.2359
G3 X4.5406 Y1.1197 I0 J-0.2975
G3 X4.5062 Y1.1152 I0.0415 J-0.4503
G3 X4.4715 Y1.1082 I0.0935 J-0.5494
G3 X4.4288 Y1.0969 I0.1926 J-0.8152
G2 X4.3488 Y1.1569 I-0.0176 J0.06
G1 X4.3488 Y1.3238
G2 X4.4113 Y1.3863 I0.0625 J0
G1 X4.7554 Y1.3863
G3 X4.7714 Y1.3876 I0 J0.0981
G3 X4.7727 Y1.4035 I-0.101 J0.0159
G3 X4.7712 Y1.4209 I-0.1053 J0
G3 X4.7554 Y1.4223 I-0.0158 J-0.0896
G0 Z0.25
G0 X4.7554 Y1.4223
G1 Z-0.1 F30
G1 X4.2995 Y1.4223 F30
G1 X4.2995 Y1.0771
G3 X4.3032 Y1.0403 I0.1841 J0
G3 X4.3123 Y1.0392 I0.0091 J0.0376
G3 X4.316 Y1.0396 I0 J0.0183
G3 X4.3281 Y1.0429 I-0.017 J0.0843
G3 X4.3366 Y1.0463 I-0.0464 J0.129
G3 X4.3617 Y1.0578 I-0.3635 J0.8305
G2 X4.3997 Y1.0748 I0.4186 J-0.8825
G2 X4.4239 Y1.0839 I0.1266 J-0.2991
G2 X4.4671 Y1.0947 I0.0929 J-0.2798
G2 X4.5088 Y1.0983 I0.0417 J-0.2437
G2 X4.5979 Y1.0814 I0 J-0.244
G2 X4.6684 Y1.0339 I-0.0715 J-0.1821
G2 X4.7122 Y0.9625 I-0.1467 J-0.1391
G2 X4.7278 Y0.8718 I-0.2552 J-0.0906
G2 X4.7109 Y0.7788 I-0.2641 J0
G2 X4.6635 Y0.7077 I-0.1775 J0.0668
G2 X4.5906 Y0.6641 I-0.1353 J0.1435
G2 X4.494 Y0.6484 I-0.0966 J0.2895
G2 X4.4538 Y0.6506 I0 J0.3541
G2 X4.41 Y0.6578 I0.051 J0.4463
G2 X4.385 Y0.6639 I0.1046 J0.4848
G2 X4.3435 Y0.6758 I0.3979 J1.4685
G3 X4.3162 Y0.6838 I-0.4333 J-1.4366
G3 X4.306 Y0.6864 I-0.0678 J-0.241
G3 X4.2906 Y0.6893 I-0.0379 J-0.1607
G3 X4.2843 Y0.6897 I-0.0063 J-0.046
G3 X4.2773 Y0.6883 I0 J-0.0179
G3 X4.2705 Y0.6836 I0.0082 J-0.0193
G3 X4.2657 Y0.6763 I0.0163 J-0.0159
G3 X4.2641 Y0.668 I0.0204 J-0.0083
G3 X4.2652 Y0.6614 I0.0202 J0
G3 X4.2679 Y0.6565 I0.0156 J0.0054
G3 X4.2749 Y0.6499 I0.0265 J0.0212
G3 X4.2957 Y0.6384 I0.0653 J0.0931
G3 X4.3515 Y0.6227 I0.0881 J0.207
G3 X4.4748 Y0.6138 I0.1233 J0.8502
G3 X4.5593 Y0.6192 I0 J0.6687
G3 X4.6223 Y0.6324 I-0.0516 J0.4048
G3 X4.6791 Y0.6551 I-0.0895 J0.3058
G3 X4.7193 Y0.682 I-0.099 J0.1916
G3 X4.7512 Y0.7163 I-0.1249 J0.1478
G3 X4.7748 Y0.7588 I-0.1663 J0.1203
G3 X4.789 Y0.8077 I-0.2225 J0.0911
G3 X4.7948 Y0.8733 I-0.3675 J0.0656
G3 X4.7759 Y0.9829 I-0.3271 J0
G3 X4.7317 Y1.0555 I-0.1965 J-0.0698
G3 X4.6639 Y1.1022 I-0.1403 J-0.1312
G3 X4.5678 Y1.121 I-0.096 J-0.2359
G3 X4.5406 Y1.1197 I0 J-0.2975
G3 X4.5062 Y1.1152 I0.0415 J-0.4503
G3 X4.4715 Y1.1082 I0.0935 J-0.5494
G3 X4.4288 Y1.0969 I0.1926 J-0.8152
G2 X4.3488 Y1.1569 I-0.0176 J0.06
G1 X4.3488 Y1.3238
G2 X4.4113 Y1.3863 I0.0625 J0
G1 X4.7554 Y1.3863
G3 X4.7714 Y1.3876 I0 J0.0981
G3 X4.7727 Y1.4035 I-0.101 J0.0159
G3 X4.7712 Y1.4209 I-0.1053 J0
G3 X4.7554 Y1.4223 I-0.0158 J-0.0896

(pocket 1-10)
G0 Z0.25
G0 X5.2798 Y1.3676
G1 Z-0.05 F30
G1 X5.2968 Y1.1624 F30
G1 X5.3138 Y1.3676
G1 X5.2798 Y1.3676
G0 Z0.25
G0 X5.2798 Y1.3676
G1 Z-0.1 F30
G1 X5.2968 Y1.1624 F30
G1 X5.3138 Y1.3676
G1 X5.2798 Y1.3676

(pocket 1-11)
G0 Z0.25
G0 X5.5486 Y1.3676
G1 Z-0.05 F30
G1 X5.5656 Y1.1624 F30
G1 X5.5826 Y1.3676
G1 X5.5486 Y1.3676
G0 Z0.25
G0 X5.5486 Y1.3676
G1 Z-0.1 F30
G1 X5.5656 Y1.1624 F30
G1 X5.5826 Y1.3676
G1 X5.5486 Y1.3676

(profile 13-0)
G0 Z0.25
G0 X1.999 Y-0.0618
G1 Z-0.05 F30
G1 X1.749 Y-0.0618 F30
G1 X0.0007 Y-0.0618
G2 X-0.0618 Y0.0007 I0 J0.0625
G1 X-0.0618 Y1.9043
G1 X-0.0618 Y1.9993
G1 X-0.0618 Y2.1543
G1 X-0.0618 Y3.8675
G1 X-0.0618 Y4.1543
G1 X-0.0618 Y5.5069
G2 X-0.0513 Y5.5416 I0.0625 J0
G1 X0.948 Y7.0409
G2 X1.052 Y7.0409 I0.052 J-0.0347
G1 X2.051 Y5.5416
G2 X2.0615 Y5.5069 I-0.052 J-0.0347
G1 X2.0615 Y5.5069
G1 X2.0613 Y4.2254
G1 X2.0613 Y3.9227
G1 X2.0611 Y2.2483
G2 X1.9986 Y2.1858 I-0.0625 J0
G3 X1.9887 Y2.1855 I0 J-0.2095
G3 X1.9793 Y2.1848 I0.0091 J-0.1927
G3 X1.9699 Y2.1837 I0.0178 J-0.1844
G3 X1.961 Y2.1821 I0.0252 J-0.1695
G3 X1.9527 Y2.1802 I0.0308 J-0.152
G3 X1.9437 Y2.1776 I0.0451 J-0.173
G3 X1.9353 Y2.1748 I0.0583 J-0.1838
G3 X1.9262 Y2.1712 I0.0781 J-0.2119
G3 X1.918 Y2.1675 I0.0722 J-0.1724
G3 X1.9101 Y2.1635 I0.0791 J-0.1659
G3 X1.9024 Y2.1591 I0.0869 J-0.1617
G3 X1.8948 Y2.1543 I0.0958 J-0.1593
G3 X1.8872 Y2.1489 I0.1165 J-0.1742
G3 X1.8802 Y2.1436 I0.113 J-0.1536
G3 X1.8734 Y2.1378 I0.1144 J-0.1414
G3 X1.8672 Y2.132 I0.1106 J-0.1237
G3 X1.8613 Y2.1258 I0.1183 J-0.1195
G3 X1.8555 Y2.1191 I0.1344 J-0.1227
G3 X1.85 Y2.1122 I0.1457 J-0.1204
G3 X1.8447 Y2.1047 I0.1623 J-0.1218
G3 X1.8398 Y2.0971 I0.1585 J-0.1082
G3 X1.8353 Y2.0895 I0.1563 J-0.0962
G3 X1.8312 Y2.0816 I0.1572 J-0.0867
G3 X1.8276 Y2.0737 I0.155 J-0.0757
G3 X1.8242 Y2.0652 I0.1769 J-0.0756
G3 X1.8213 Y2.0567 I0.1722 J-0.064
G3 X1.8188 Y2.048 I0.1701 J-0.054
G3 X1.8168 Y2.0394 I0.1617 J-0.0424
G3 X1.8152 Y2.0308 I0.1592 J-0.0329
G3 X1.8141 Y2.0217 I0.1726 J-0.0261
G3 X1.8134 Y2.0126 I0.1824 J-0.0178
G3 X1.8132 Y2.0028 I0.2064 J-0.0098
G3 X1.8134 Y1.9929 I0.2094 J0
G3 X1.8141 Y1.9836 I0.1891 J0.0089
G3 X1.8152 Y1.9743 I0.1779 J0.0172
G3 X1.8168 Y1.9658 I0.1558 J0.0234
G3 X1.8187 Y1.9575 I0.1541 J0.0318
G3 X1.8212 Y1.9488 I0.1652 J0.0436
G3 X1.8241 Y1.9407 I0.1724 J0.0554
G3 X1.8276 Y1.9318 I0.1966 J0.0737
G3 X1.8314 Y1.9236 I0.1772 J0.0757
G3 X1.8355 Y1.9156 I0.1699 J0.0823
G3 X1.84 Y1.9077 I0.1614 J0.0879
G3 X1.8447 Y1.9005 I0.144 J0.0879
G3 X1.8497 Y1.8935 I0.1432 J0.0977
G3 X1.8552 Y1.8866 I0.1425 J0.108
G3 X1.8609 Y1.8801 I0.141 J0.1182
G3 X1.8672 Y1.8736 I0.1467 J0.1353
G3 X1.8739 Y1.8673 I0.1413 J0.1427
G3 X1.8806 Y1.8615 I0.1293 J0.1431
G3 X1.8878 Y1.8559 I0.1185 J0.1441
G3 X1.8948 Y1.8509 I0.102 J0.137
G3 X1.9024 Y1.8461 I0.1034 J0.1545
G3 X1.9101 Y1.8417 I0.0946 J0.1574
G3 X1.918 Y1.8377 I0.087 J0.1619
G3 X1.9262 Y1.834 I0.0804 J0.1687
G3 X1.9345 Y1.8308 I0.0687 J0.1641
G3 X1.9431 Y1.8279 I0.0622 J0.1722
G3 X1.9519 Y1.8255 I0.0545 J0.1782
G3 X1.961 Y1.8234 I0.0477 J0.1882
G3 X1.9699 Y1.8219 I0.034 J0.1679
G3 X1.9793 Y1.8207 I0.0272 J0.1833
G3 X1.9887 Y1.82 I0.0186 J0.1921
G3 X1.9986 Y1.8198 I0.0099 J0.2093
G3 X2.0085 Y1.82 I0 J0.2095
G3 X2.018 Y1.8207 I-0.0091 J0.1927
G3 X2.0273 Y1.8219 I-0.0178 J0.1844
G3 X2.0362 Y1.8234 I-0.0252 J0.1695
G3 X2.0453 Y1.8255 I-0.0386 J0.1903
G3 X2.0541 Y1.8279 I-0.0457 J0.1807
G3 X2.0627 Y1.8308 I-0.0536 J0.1751
G3 X2.071 Y1.834 I-0.0604 J0.1673
G3 X2.0792 Y1.8377 I-0.0722 J0.1724
G3 X2.0872 Y1.8417 I-0.0791 J0.1659
G3 X2.0949 Y1.8461 I-0.0869 J0.1617
G3 X2.1024 Y1.8509 I-0.0958 J0.1593
G3 X2.1094 Y1.8559 I-0.0949 J0.142
G3 X2.1166 Y1.8615 I-0.1114 J0.1497
G3 X2.1233 Y1.8673 I-0.1225 J0.1489
G3 X2.13 Y1.8736 I-0.1346 J0.149
G3 X2.1363 Y1.8801 I-0.1404 J0.1418
G3 X2.142 Y1.8866 I-0.1352 J0.1247
G3 X2.1475 Y1.8935 I-0.137 J0.1149
G3 X2.1525 Y1.9005 I-0.1382 J0.1047
G3 X2.1572 Y1.9077 I-0.1393 J0.0951
G3 X2.1617 Y1.9156 I-0.1569 J0.0957
G3 X2.1658 Y1.9236 I-0.1658 J0.0903
G3 X2.1696 Y1.9318 I-0.1735 J0.084
G3 X2.1731 Y1.9407 I-0.1931 J0.0825
G3 X2.176 Y1.9488 I-0.1695 J0.0635
G3 X2.1785 Y1.9575 I-0.1627 J0.0522
G3 X2.1805 Y1.9658 I-0.1521 J0.0402
G3 X2.1817 Y1.9728 I-0.1194 J0.0247
G3 X2.1828 Y1.9817 I-0.1676 J0.0245
G3 X2.1834 Y1.99 I-0.1987 J0.0184
G3 X2.1837 Y2.0002 I-0.2809 J0.0143
G2 X2.2462 Y2.0618 I0.0625 J-0.0009
G1 X3.7672 Y2.0618
G1 X4.0172 Y2.0618
G1 X5.5396 Y2.0618
G2 X5.5743 Y2.0513 I0 J-0.0625
G1 X7.0732 Y1.052
G2 X7.101 Y1 I-0.0347 J-0.052
G2 X7.0732 Y0.948 I-0.0625 J0
G1 X5.5743 Y-0.0513
G2 X5.5396 Y-0.0618 I-0.0347 J0.052
G1 X4.127 Y-0.0618
G1 X3.877 Y-0.0618
G1 X1.999 Y-0.0618
G1 Z-0.1 F30
G1 X1.749 Y-0.0618 F30
G1 X0.0007 Y-0.0618
G2 X-0.0618 Y0.0007 I0 J0.0625
G1 X-0.0618 Y1.9043
G1 X-0.0618 Y1.9993
G1 X-0.0618 Y2.1543
G1 X-0.0618 Y3.8675
G1 X-0.0618 Y4.1543
G1 X-0.0618 Y5.5069
G2 X-0.0513 Y5.5416 I0.0625 J0
G1 X0.948 Y7.0409
G2 X1.052 Y7.0409 I0.052 J-0.0347
G1 X2.051 Y5.5416
G2 X2.0615 Y5.5069 I-0.052 J-0.0347
G1 X2.0615 Y5.5069
G1 X2.0613 Y4.2254
G1 X2.0613 Y3.9227
G1 X2.0611 Y2.2483
G2 X1.9986 Y2.1858 I-0.0625 J0
G3 X1.9887 Y2.1855 I0 J-0.2095
G3 X1.9793 Y2.1848 I0.0091 J-0.1927
G3 X1.9699 Y2.1837 I0.0178 J-0.1844
G3 X1.961 Y2.1821 I0.0252 J-0.1695
G3 X1.9527 Y2.1802 I0.0308 J-0.152
G3 X1.9437 Y2.1776 I0.0451 J-0.173
G3 X1.9353 Y2.1748 I0.0583 J-0.1838
G3 X1.9262 Y2.1712 I0.0781 J-0.2119
G3 X1.918 Y2.1675 I0.0722 J-0.1724
G3 X1.9101 Y2.1635 I0.0791 J-0.1659
G3 X1.9024 Y2.1591 I0.0869 J-0.1617
G3 X1.8948 Y2.1543 I0.0958 J-0.1593
G3 X1.8872 Y2.1489 I0.1165 J-0.1742
G3 X1.8802 Y2.1436 I0.113 J-0.1536
G3 X1.8734 Y2.1378 I0.1144 J-0.1414
G3 X1.8672 Y2.132 I0.1106 J-0.1237
G3 X1.8613 Y2.1258 I0.1183 J-0.1195
G3 X1.8555 Y2.1191 I0.1344 J-0.1227
G3 X1.85 Y2.1122 I0.1457 J-0.1204
G3 X1.8447 Y2.1047 I0.1623 J-0.1218
G3 X1.8398 Y2.0971 I0.1585 J-0.1082
G3 X1.8353 Y2.0895 I0.1563 J-0.0962
G3 X1.8312 Y2.0816 I0.1572 J-0.0867
G3 X1.8276 Y2.0737 I0.155 J-0.0757
G3 X1.8242 Y2.0652 I0.1769 J-0.0756
G3 X1.8213 Y2.0567 I0.1722 J-0.064
G3 X1.8188 Y2.048 I0.1701 J-0.054
G3 X1.8168 Y2.0394 I0.1617 J-0.0424
G3 X1.8152 Y2.0308 I0.1592 J-0.0329
G3 X1.8141 Y2.0217 I0.1726 J-0.0261
G3 X1.8134 Y2.0126 I0.1824 J-0.0178
G3 X1.8132 Y2.0028 I0.2064 J-0.0098
G3 X1.8134 Y1.9929 I0.2094 J0
G3 X1.8141 Y1.9836 I0.1891 J0.0089
G3 X1.8152 Y1.9743 I0.1779 J0.0172
G3 X1.8168 Y1.9658 I0.1558 J0.0234
G3 X1.8187 Y1.9575 I0.1541 J0.0318
G3 X1.8212 Y1.9488 I0.1652 J0.0436
G3 X1.8241 Y1.9407 I0.1724 J0.0554
G3 X1.8276 Y1.9318 I0.1966 J0.0737
G3 X1.8314 Y1.9236 I0.1772 J0.0757
G3 X1.8355 Y1.9156 I0.1699 J0.0823
G3 X1.84 Y1.9077 I0.1614 J0.0879
G3 X1.8447 Y1.9005 I0.144 J0.0879
G3 X1.8497 Y1.8935 I0.1432 J0.0977
G3 X1.8552 Y1.8866 I0.1425 J0.108
G3 X1.8609 Y1.8801 I0.141 J0.1182
G3 X1.8672 Y1.8736 I0.1467 J0.1353
G3 X1.8739 Y1.8673 I0.1413 J0.1427
G3 X1.8806 Y1.8615 I0.1293 J0.1431
G3 X1.8878 Y1.8559 I0.1185 J0.1441
G3 X1.8948 Y1.8509 I0.102 J0.137
G3 X1.9024 Y1.8461 I0.1034 J0.1545
G3 X1.9101 Y1.8417 I0.0946 J0.1574
G3 X1.918 Y1.8377 I0.087 J0.1619
G3 X1.9262 Y1.834 I0.0804 J0.1687
G3 X1.9345 Y1.8308 I0.0687 J0.1641
G3 X1.9431 Y1.8279 I0.0622 J0.1722
G3 X1.9519 Y1.8255 I0.0545 J0.1782
G3 X1.961 Y1.8234 I0.0477 J0.1882
G3 X1.9699 Y1.8219 I0.034 J0.1679
G3 X1.9793 Y1.8207 I0.0272 J0.1833
G3 X1.9887 Y1.82 I0.0186 J0.1921
G3 X1.9986 Y1.8198 I0.0099 J0.2093
G3 X2.0085 Y1.82 I0 J0.2095
G3 X2.018 Y1.8207 I-0.0091 J0.1927
G3 X2.0273 Y1.8219 I-0.0178 J0.1844
G3 X2.0362 Y1.8234 I-0.0252 J0.1695
G3 X2.0453 Y1.8255 I-0.0386 J0.1903
G3 X2.0541 Y1.8279 I-0.0457 J0.1807
G3 X2.0627 Y1.8308 I-0.0536 J0.1751
G3 X2.071 Y1.834 I-0.0604 J0.1673
G3 X2.0792 Y1.8377 I-0.0722 J0.1724
G3 X2.0872 Y1.8417 I-0.0791 J0.1659
G3 X2.0949 Y1.8461 I-0.0869 J0.1617
G3 X2.1024 Y1.8509 I-0.0958 J0.1593
G3 X2.1094 Y1.8559 I-0.0949 J0.142
G3 X2.1166 Y1.8615 I-0.1114 J0.1497
G3 X2.1233 Y1.8673 I-0.1225 J0.1489
G3 X2.13 Y1.8736 I-0.1346 J0.149
G3 X2.1363 Y1.8801 I-0.1404 J0.1418
G3 X2.142 Y1.8866 I-0.1352 J0.1247
G3 X2.1475 Y1.8935 I-0.137 J0.1149
G3 X2.1525 Y1.9005 I-0.1382 J0.1047
G3 X2.1572 Y1.9077 I-0.1393 J0.0951
G3 X2.1617 Y1.9156 I-0.1569 J0.0957
G3 X2.1658 Y1.9236 I-0.1658 J0.0903
G3 X2.1696 Y1.9318 I-0.1735 J0.084
G3 X2.1731 Y1.9407 I-0.1931 J0.0825
G3 X2.176 Y1.9488 I-0.1695 J0.0635
G3 X2.1785 Y1.9575 I-0.1627 J0.0522
G3 X2.1805 Y1.9658 I-0.1521 J0.0402
G3 X2.1817 Y1.9728 I-0.1194 J0.0247
G3 X2.1828 Y1.9817 I-0.1676 J0.0245
G3 X2.1834 Y1.99 I-0.1987 J0.0184
G3 X2.1837 Y2.0002 I-0.2809 J0.0143
G2 X2.2462 Y2.0618 I0.0625 J-0.0009
G1 X3.7672 Y2.0618
G1 X4.0172 Y2.0618
G1 X5.5396 Y2.0618
G2 X5.5743 Y2.0513 I0 J-0.0625
G1 X7.0732 Y1.052
G2 X7.101 Y1 I-0.0347 J-0.052
G2 X7.0732 Y0.948 I-0.0625 J0
G1 X5.5743 Y-0.0513
G2 X5.5396 Y-0.0618 I-0.0347 J0.052
G1 X4.127 Y-0.0618
G1 X3.877 Y-0.0618
G1 X1.999 Y-0.0618
G1 Z-0.15 F30
G1 X1.749 Y-0.0618 F30
G1 X0.0007 Y-0.0618
G2 X-0.0618 Y0.0007 I0 J0.0625
G1 X-0.0618 Y1.9043
G1 X-0.0618 Y1.9993
G1 X-0.0618 Y2.1543
G1 X-0.0618 Y3.8675
G1 X-0.0618 Y4.1543
G1 X-0.0618 Y5.5069
G2 X-0.0513 Y5.5416 I0.0625 J0
G1 X0.948 Y7.0409
G2 X1.052 Y7.0409 I0.052 J-0.0347
G1 X2.051 Y5.5416
G2 X2.0615 Y5.5069 I-0.052 J-0.0347
G1 X2.0615 Y5.5069
G1 X2.0613 Y4.2254
G1 X2.0613 Y3.9227
G1 X2.0611 Y2.2483
G2 X1.9986 Y2.1858 I-0.0625 J0
G3 X1.9887 Y2.1855 I0 J-0.2095
G3 X1.9793 Y2.1848 I0.0091 J-0.1927
G3 X1.9699 Y2.1837 I0.0178 J-0.1844
G3 X1.961 Y2.1821 I0.0252 J-0.1695
G3 X1.9527 Y2.1802 I0.0308 J-0.152
G3 X1.9437 Y2.1776 I0.0451 J-0.173
G3 X1.9353 Y2.1748 I0.0583 J-0.1838
G3 X1.9262 Y2.1712 I0.0781 J-0.2119
G3 X1.918 Y2.1675 I0.0722 J-0.1724
G3 X1.9101 Y2.1635 I0.0791 J-0.1659
G3 X1.9024 Y2.1591 I0.0869 J-0.1617
G3 X1.8948 Y2.1543 I0.0958 J-0.1593
G3 X1.8872 Y2.1489 I0.1165 J-0.1742
G3 X1.8802 Y2.1436 I0.113 J-0.1536
G3 X1.8734 Y2.1378 I0.1144 J-0.1414
G3 X1.8672 Y2.132 I0.1106 J-0.1237
G3 X1.8613 Y2.1258 I0.1183 J-0.1195
G3 X1.8555 Y2.1191 I0.1344 J-0.1227
G3 X1.85 Y2.1122 I0.1457 J-0.1204
G3 X1.8447 Y2.1047 I0.1623 J-0.1218
G3 X1.8398 Y2.0971 I0.1585 J-0.1082
G3 X1.8353 Y2.0895 I0.1563 J-0.0962
G3 X1.8312 Y2.0816 I0.1572 J-0.0867
G3 X1.8276 Y2.0737 I0.155 J-0.0757
G3 X1.8242 Y2.0652 I0.1769 J-0.0756
G3 X1.8213 Y2.0567 I0.1722 J-0.064
G3 X1.8188 Y2.048 I0.1701 J-0.054
G3 X1.8168 Y2.0394 I0.1617 J-0.0424
G3 X1.8152 Y2.0308 I0.1592 J-0.0329
G3 X1.8141 Y2.0217 I0.1726 J-0.0261
G3 X1.8134 Y2.0126 I0.1824 J-0.0178
G3 X1.8132 Y2.0028 I0.2064 J-0.0098
G3 X1.8134 Y1.9929 I0.2094 J0
G3 X1.8141 Y1.9836 I0.1891 J0.0089
G3 X1.8152 Y1.9743 I0.1779 J0.0172
G3 X1.8168 Y1.9658 I0.1558 J0.0234
G3 X1.8187 Y1.9575 I0.1541 J0.0318
G3 X1.8212 Y1.9488 I0.1652 J0.0436
G3 X1.8241 Y1.9407 I0.1724 J0.0554
G3 X1.8276 Y1.9318 I0.1966 J0.0737
G3 X1.8314 Y1.9236 I0.1772 J0.0757
G3 X1.8355 Y1.9156 I0.1699 J0.0823
G3 X1.84 Y1.9077 I0.1614 J0.0879
G3 X1.8447 Y1.9005 I0.144 J0.0879
G3 X1.8497 Y1.8935 I0.1432 J0.0977
G3 X1.8552 Y1.8866 I0.1425 J0.108
G3 X1.8609 Y1.8801 I0.141 J0.1182
G3 X1.8672 Y1.8736 I0.1467 J0.1353
G3 X1.8739 Y1.8673 I0.1413 J0.1427
G3 X1.8806 Y1.8615 I0.1293 J0.1431
G3 X1.8878 Y1.8559 I0.1185 J0.1441
G3 X1.8948 Y1.8509 I0.102 J0.137
G3 X1.9024 Y1.8461 I0.1034 J0.1545
G3 X1.9101 Y1.8417 I0.0946 J0.1574
G3 X1.918 Y1.8377 I0.087 J0.1619
G3 X1.9262 Y1.834 I0.0804 J0.1687
G3 X1.9345 Y1.8308 I0.0687 J0.1641
G3 X1.9431 Y1.8279 I0.0622 J0.1722
G3 X1.9519 Y1.8255 I0.0545 J0.1782
G3 X1.961 Y1.8234 I0.0477 J0.1882
G3 X1.9699 Y1.8219 I0.034 J0.1679
G3 X1.9793 Y1.8207 I0.0272 J0.1833
G3 X1.9887 Y1.82 I0.0186 J0.1921
G3 X1.9986 Y1.8198 I0.0099 J0.2093
G3 X2.0085 Y1.82 I0 J0.2095
G3 X2.018 Y1.8207 I-0.0091 J0.1927
G3 X2.0273 Y1.8219 I-0.0178 J0.1844
G3 X2.0362 Y1.8234 I-0.0252 J0.1695
G3 X2.0453 Y1.8255 I-0.0386 J0.1903
G3 X2.0541 Y1.8279 I-0.0457 J0.1807
G3 X2.0627 Y1.8308 I-0.0536 J0.1751
G3 X2.071 Y1.834 I-0.0604 J0.1673
G3 X2.0792 Y1.8377 I-0.0722 J0.1724
G3 X2.0872 Y1.8417 I-0.0791 J0.1659
G3 X2.0949 Y1.8461 I-0.0869 J0.1617
G3 X2.1024 Y1.8509 I-0.0958 J0.1593
G3 X2.1094 Y1.8559 I-0.0949 J0.142
G3 X2.1166 Y1.8615 I-0.1114 J0.1497
G3 X2.1233 Y1.8673 I-0.1225 J0.1489
G3 X2.13 Y1.8736 I-0.1346 J0.149
G3 X2.1363 Y1.8801 I-0.1404 J0.1418
G3 X2.142 Y1.8866 I-0.1352 J0.1247
G3 X2.1475 Y1.8935 I-0.137 J0.1149
G3 X2.1525 Y1.9005 I-0.1382 J0.1047
G3 X2.1572 Y1.9077 I-0.1393 J0.0951
G3 X2.1617 Y1.9156 I-0.1569 J0.0957
G3 X2.1658 Y1.9236 I-0.1658 J0.0903
G3 X2.1696 Y1.9318 I-0.1735 J0.084
G3 X2.1731 Y1.9407 I-0.1931 J0.0825
G3 X2.176 Y1.9488 I-0.1695 J0.0635
G3 X2.1785 Y1.9575 I-0.1627 J0.0522
G3 X2.1805 Y1.9658 I-0.1521 J0.0402
G3 X2.1817 Y1.9728 I-0.1194 J0.0247
G3 X2.1828 Y1.9817 I-0.1676 J0.0245
G3 X2.1834 Y1.99 I-0.1987 J0.0184
G3 X2.1837 Y2.0002 I-0.2809 J0.0143
G2 X2.2462 Y2.0618 I0.0625 J-0.0009
G1 X3.7672 Y2.0618
G1 X4.0172 Y2.0618
G1 X5.5396 Y2.0618
G2 X5.5743 Y2.0513 I0 J-0.0625
G1 X7.0732 Y1.052
G2 X7.101 Y1 I-0.0347 J-0.052
G2 X7.0732 Y0.948 I-0.0625 J0
G1 X5.5743 Y-0.0513
G2 X5.5396 Y-0.0618 I-0.0347 J0.052
G1 X4.127 Y-0.0618
G1 X3.877 Y-0.0618
G1 X1.999 Y-0.0618
G1 Z-0.2 F30
G1 Z-0.15 F30
G1 X1.749 Y-0.0618 F30
G1 Z-0.2 F30
G1 X0.0007 Y-0.0618 F30
G2 X-0.0618 Y0.0007 I0 J0.0625
G1 X-0.0618 Y1.9043
G1 Z-0.15 F30
G1 X-0.0618 Y1.9993 F30
G1 X-0.0618 Y2.1543
G1 Z-0.2 F30
G1 X-0.0618 Y3.8675 F30
G1 Z-0.15 F30
G1 X-0.0618 Y4.1543 F30
G1 Z-0.2 F30
G1 X-0.0618 Y5.5069 F30
G2 X-0.0513 Y5.5416 I0.0625 J0
G1 X0.948 Y7.0409
G2 X1.052 Y7.0409 I0.052 J-0.0347
G1 X2.051 Y5.5416
G2 X2.0615 Y5.5069 I-0.052 J-0.0347
G1 X2.0615 Y5.5069
G1 X2.0613 Y4.2254
G1 Z-0.15 F30
G1 X2.0613 Y3.9227 F30
G1 Z-0.2 F30
G1 X2.0611 Y2.2483 F30
G2 X1.9986 Y2.1858 I-0.0625 J0
G3 X1.9887 Y2.1855 I0 J-0.2095
G3 X1.9793 Y2.1848 I0.0091 J-0.1927
G3 X1.9699 Y2.1837 I0.0178 J-0.1844
G3 X1.961 Y2.1821 I0.0252 J-0.1695
G3 X1.9527 Y2.1802 I0.0308 J-0.152
G3 X1.9437 Y2.1776 I0.0451 J-0.173
G3 X1.9353 Y2.1748 I0.0583 J-0.1838
G3 X1.9262 Y2.1712 I0.0781 J-0.2119
G3 X1.918 Y2.1675 I0.0722 J-0.1724
G3 X1.9101 Y2.1635 I0.0791 J-0.1659
G3 X1.9024 Y2.1591 I0.0869 J-0.1617
G3 X1.8948 Y2.1543 I0.0958 J-0.1593
G3 X1.8872 Y2.1489 I0.1165 J-0.1742
G3 X1.8802 Y2.1436 I0.113 J-0.1536
G3 X1.8734 Y2.1378 I0.1144 J-0.1414
G3 X1.8672 Y2.132 I0.1106 J-0.1237
G3 X1.8613 Y2.1258 I0.1183 J-0.1195
G3 X1.8555 Y2.1191 I0.1344 J-0.1227
G3 X1.85 Y2.1122 I0.1457 J-0.1204
G3 X1.8447 Y2.1047 I0.1623 J-0.1218
G3 X1.8398 Y2.0971 I0.1585 J-0.1082
G3 X1.8353 Y2.0895 I0.1563 J-0.0962
G3 X1.8312 Y2.0816 I0.1572 J-0.0867
G3 X1.8276 Y2.0737 I0.155 J-0.0757
G3 X1.8242 Y2.0652 I0.1769 J-0.0756
G3 X1.8213 Y2.0567 I0.1722 J-0.064
G3 X1.8188 Y2.048 I0.1701 J-0.054
G3 X1.8168 Y2.0394 I0.1617 J-0.0424
G3 X1.8152 Y2.0308 I0.1592 J-0.0329
G3 X1.8141 Y2.0217 I0.1726 J-0.0261
G3 X1.8134 Y2.0126 I0.1824 J-0.0178
G3 X1.8132 Y2.0028 I0.2064 J-0.0098
G3 X1.8134 Y1.9929 I0.2094 J0
G3 X1.8141 Y1.9836 I0.1891 J0.0089
G3 X1.8152 Y1.9743 I0.1779 J0.0172
G3 X1.8168 Y1.9658 I0.1558 J0.0234
G3 X1.8187 Y1.9575 I0.1541 J0.0318
G3 X1.8212 Y1.9488 I0.1652 J0.0436
G3 X1.8241 Y1.9407 I0.1724 J0.0554
G3 X1.8276 Y1.9318 I0.1966 J0.0737
G3 X1.8314 Y1.9236 I0.1772 J0.0757
G3 X1.8355 Y1.9156 I0.1699 J0.0823
G3 X1.84 Y1.9077 I0.1614 J0.0879
G3 X1.8447 Y1.9005 I0.144 J0.0879
G3 X1.8497 Y1.8935 I0.1432 J0.0977
G3 X1.8552 Y1.8866 I0.1425 J0.108
G3 X1.8609 Y1.8801 I0.141 J0.1182
G3 X1.8672 Y1.8736 I0.1467 J0.1353
G3 X1.8739 Y1.8673 I0.1413 J0.1427
G3 X1.8806 Y1.8615 I0.1293 J0.1431
G3 X1.8878 Y1.8559 I0.1185 J0.1441
G3 X1.8948 Y1.8509 I0.102 J0.137
G3 X1.9024 Y1.8461 I0.1034 J0.1545
G3 X1.9101 Y1.8417 I0.0946 J0.1574
G3 X1.918 Y1.8377 I0.087 J0.1619
G3 X1.9262 Y1.834 I0.0804 J0.1687
G3 X1.9345 Y1.8308 I0.0687 J0.1641
G3 X1.9431 Y1.8279 I0.0622 J0.1722
G3 X1.9519 Y1.8255 I0.0545 J0.1782
G3 X1.961 Y1.8234 I0.0477 J0.1882
G3 X1.9699 Y1.8219 I0.034 J0.1679
G3 X1.9793 Y1.8207 I0.0272 J0.1833
G3 X1.9887 Y1.82 I0.0186 J0.1921
G3 X1.9986 Y1.8198 I0.0099 J0.2093
G3 X2.0085 Y1.82 I0 J0.2095
G3 X2.018 Y1.8207 I-0.0091 J0.1927
G3 X2.0273 Y1.8219 I-0.0178 J0.1844
G3 X2.0362 Y1.8234 I-0.0252 J0.1695
G3 X2.0453 Y1.8255 I-0.0386 J0.1903
G3 X2.0541 Y1.8279 I-0.0457 J0.1807
G3 X2.0627 Y1.8308 I-0.0536 J0.1751
G3 X2.071 Y1.834 I-0.0604 J0.1673
G3 X2.0792 Y1.8377 I-0.0722 J0.1724
G3 X2.0872 Y1.8417 I-0.0791 J0.1659
G3 X2.0949 Y1.8461 I-0.0869 J0.1617
G3 X2.1024 Y1.8509 I-0.0958 J0.1593
G3 X2.1094 Y1.8559 I-0.0949 J0.142
G3 X2.1166 Y1.8615 I-0.1114 J0.1497
G3 X2.1233 Y1.8673 I-0.1225 J0.1489
G3 X2.13 Y1.8736 I-0.1346 J0.149
G3 X2.1363 Y1.8801 I-0.1404 J0.1418
G3 X2.142 Y1.8866 I-0.1352 J0.1247
G3 X2.1475 Y1.8935 I-0.137 J0.1149
G3 X2.1525 Y1.9005 I-0.1382 J0.1047
G3 X2.1572 Y1.9077 I-0.1393 J0.0951
G3 X2.1617 Y1.9156 I-0.1569 J0.0957
G3 X2.1658 Y1.9236 I-0.1658 J0.0903
G3 X2.1696 Y1.9318 I-0.1735 J0.084
G3 X2.1731 Y1.9407 I-0.1931 J0.0825
G3 X2.176 Y1.9488 I-0.1695 J0.0635
G3 X2.1785 Y1.9575 I-0.1627 J0.0522
G3 X2.1805 Y1.9658 I-0.1521 J0.0402
G3 X2.1817 Y1.9728 I-0.1194 J0.0247
G3 X2.1828 Y1.9817 I-0.1676 J0.0245
G3 X2.1834 Y1.99 I-0.1987 J0.0184
G3 X2.1837 Y2.0002 I-0.2809 J0.0143
G2 X2.2462 Y2.0618 I0.0625 J-0.0009
G1 X3.7672 Y2.0618
G1 Z-0.15 F30
G1 X4.0172 Y2.0618 F30
G1 Z-0.2 F30
G1 X5.5396 Y2.0618 F30
G2 X5.5743 Y2.0513 I0 J-0.0625
G1 X7.0732 Y1.052
G2 X7.101 Y1 I-0.0347 J-0.052
G2 X7.0732 Y0.948 I-0.0625 J0
G1 X5.5743 Y-0.0513
G2 X5.5396 Y-0.0618 I-0.0347 J0.052
G1 X4.127 Y-0.0618
G1 Z-0.15 F30
G1 X3.877 Y-0.0618 F30
G1 Z-0.2 F30
G1 X1.999 Y-0.0618 F30
G1 Z-0.25 F30
G1 Z-0.15 F30
G1 X1.749 Y-0.0618 F30
G1 Z-0.25 F30
G1 X0.0007 Y-0.0618 F30
G2 X-0.0618 Y0.0007 I0 J0.0625
G1 X-0.0618 Y1.9043
G1 Z-0.15 F30
G1 X-0.0618 Y1.9993 F30
G1 X-0.0618 Y2.1543
G1 Z-0.25 F30
G1 X-0.0618 Y3.8675 F30
G1 Z-0.15 F30
G1 X-0.0618 Y4.1543 F30
G1 Z-0.25 F30
G1 X-0.0618 Y5.5069 F30
G2 X-0.0513 Y5.5416 I0.0625 J0
G1 X0.948 Y7.0409
G2 X1.052 Y7.0409 I0.052 J-0.0347
G1 X2.051 Y5.5416
G2 X2.0615 Y5.5069 I-0.052 J-0.0347
G1 X2.0615 Y5.5069
G1 X2.0613 Y4.2254
G1 Z-0.15 F30
G1 X2.0613 Y3.9227 F30
G1 Z-0.25 F30
G1 X2.0611 Y2.2483 F30
G2 X1.9986 Y2.1858 I-0.0625 J0
G3 X1.9887 Y2.1855 I0 J-0.2095
G3 X1.9793 Y2.1848 I0.0091 J-0.1927
G3 X1.9699 Y2.1837 I0.0178 J-0.1844
G3 X1.961 Y2.1821 I0.0252 J-0.1695
G3 X1.9527 Y2.1802 I0.0308 J-0.152
G3 X1.9437 Y2.1776 I0.0451 J-0.173
G3 X1.9353 Y2.1748 I0.0583 J-0.1838
G3 X1.9262 Y2.1712 I0.0781 J-0.2119
G3 X1.918 Y2.1675 I0.0722 J-0.1724
G3 X1.9101 Y2.1635 I0.0791 J-0.1659
G3 X1.9024 Y2.1591 I0.0869 J-0.1617
G3 X1.8948 Y2.1543 I0.0958 J-0.1593
G3 X1.8872 Y2.1489 I0.1165 J-0.1742
G3 X1.8802 Y2.1436 I0.113 J-0.1536
G3 X1.8734 Y2.1378 I0.1144 J-0.1414
G3 X1.8672 Y2.132 I0.1106 J-0.1237
G3 X1.8613 Y2.1258 I0.1183 J-0.1195
G3 X1.8555 Y2.1191 I0.1344 J-0.1227
G3 X1.85 Y2.1122 I0.1457 J-0.1204
G3 X1.8447 Y2.1047 I0.1623 J-0.1218
G3 X1.8398 Y2.0971 I0.1585 J-0.1082
G3 X1.8353 Y2.0895 I0.1563 J-0.0962
G3 X1.8312 Y2.0816 I0.1572 J-0.0867
G3 X1.8276 Y2.0737 I0.155 J-0.0757
G3 X1.8242 Y2.0652 I0.1769 J-0.0756
G3 X1.8213 Y2.0567 I0.1722 J-0.064
G3 X1.8188 Y2.048 I0.1701 J-0.054
G3 X1.8168 Y2.0394 I0.1617 J-0.0424
G3 X1.8152 Y2.0308 I0.1592 J-0.0329
G3 X1.8141 Y2.0217 I0.1726 J-0.0261
G3 X1.8134 Y2.0126 I0.1824 J-0.0178
G3 X1.8132 Y2.0028 I0.2064 J-0.0098
G3 X1.8134 Y1.9929 I0.2094 J0
G3 X1.8141 Y1.9836 I0.1891 J0.0089
G3 X1.8152 Y1.9743 I0.1779 J0.0172
G3 X1.8168 Y1.9658 I0.1558 J0.0234
G3 X1.8187 Y1.9575 I0.1541 J0.0318
G3 X1.8212 Y1.9488 I0.1652 J0.0436
G3 X1.8241 Y1.9407 I0.1724 J0.0554
G3 X1.8276 Y1.9318 I0.1966 J0.0737
G3 X1.8314 Y1.9236 I0.1772 J0.0757
G3 X1.8355 Y1.9156 I0.1699 J0.0823
G3 X1.84 Y1.9077 I0.1614 J0.0879
G3 X1.8447 Y1.9005 I0.144 J0.0879
G3 X1.8497 Y1.8935 I0.1432 J0.0977
G3 X1.8552 Y1.8866 I0.1425 J0.108
G3 X1.8609 Y1.8801 I0.141 J0.1182
G3 X1.8672 Y1.8736 I0.1467 J0.1353
G3 X1.8739 Y1.8673 I0.1413 J0.1427
G3 X1.8806 Y1.8615 I0.1293 J0.1431
G3 X1.8878 Y1.8559 I0.1185 J0.1441
G3 X1.8948 Y1.8509 I0.102 J0.137
G3 X1.9024 Y1.8461 I0.1034 J0.1545
G3 X1.9101 Y1.8417 I0.0946 J0.1574
G3 X1.918 Y1.8377 I0.087 J0.1619
G3 X1.9262 Y1.834 I0.0804 J0.1687
G3 X1.9345 Y1.8308 I0.0687 J0.1641
G3 X1.9431 Y1.8279 I0.0622 J0.1722
G3 X1.9519 Y1.8255 I0.0545 J0.1782
G3 X1.961 Y1.8234 I0.0477 J0.1882
G3 X1.9699 Y1.8219 I0.034 J0.1679
G3 X1.9793 Y1.8207 I0.0272 J0.1833
G3 X1.9887 Y1.82 I0.0186 J0.1921
G3 X1.9986 Y1.8198 I0.0099 J0.2093
G3 X2.0085 Y1.82 I0 J0.2095
G3 X2.018 Y1.8207 I-0.0091 J0.1927
G3 X2.0273 Y1.8219 I-0.0178 J0.1844
G3 X2.0362 Y1.8234 I-0.0252 J0.1695
G3 X2.0453 Y1.8255 I-0.0386 J0.1903
G3 X2.0541 Y1.8279 I-0.0457 J0.1807
G3 X2.0627 Y1.8308 I-0.0536 J0.1751
G3 X2.071 Y1.834 I-0.0604 J0.1673
G3 X2.0792 Y1.8377 I-0.0722 J0.1724
G3 X2.0872 Y1.8417 I-0.0791 J0.1659
G3 X2.0949 Y1.8461 I-0.0869 J0.1617
G3 X2.1024 Y1.8509 I-0.0958 J0.1593
G3 X2.1094 Y1.8559 I-0.0949 J0.142
G3 X2.1166 Y1.8615 I-0.1114 J0.1497
G3 X2.1233 Y1.8673 I-0.1225 J0.1489
G3 X2.13 Y1.8736 I-0.1346 J0.149
G3 X2.1363 Y1.8801 I-0.1404 J0.1418
G3 X2.142 Y1.8866 I-0.1352 J0.1247
G3 X2.1475 Y1.8935 I-0.137 J0.1149
G3 X2.1525 Y1.9005 I-0.1382 J0.1047
G3 X2.1572 Y1.9077 I-0.1393 J0.0951
G3 X2.1617 Y1.9156 I-0.1569 J0.0957
G3 X2.1658 Y1.9236 I-0.1658 J0.0903
G3 X2.1696 Y1.9318 I-0.1735 J0.084
G3 X2.1731 Y1.9407 I-0.1931 J0.0825
G3 X2.176 Y1.9488 I-0.1695 J0.0635
G3 X2.1785 Y1.9575 I-0.1627 J0.0522
G3 X2.1805 Y1.9658 I-0.1521 J0.0402
G3 X2.1817 Y1.9728 I-0.1194 J0.0247
G3 X2.1828 Y1.9817 I-0.1676 J0.0245
G3 X2.1834 Y1.99 I-0.1987 J0.0184
G3 X2.1837 Y2.0002 I-0.2809 J0.0143
G2 X2.2462 Y2.0618 I0.0625 J-0.0009
G1 X3.7672 Y2.0618
G1 Z-0.15 F30
G1 X4.0172 Y2.0618 F30
G1 Z-0.25 F30
G1 X5.5396 Y2.0618 F30
G2 X5.5743 Y2.0513 I0 J-0.0625
G1 X7.0732 Y1.052
G2 X7.101 Y1 I-0.0347 J-0.052
G2 X7.0732 Y0.948 I-0.0625 J0
G1 X5.5743 Y-0.0513
G2 X5.5396 Y-0.0618 I-0.0347 J0.052
G1 X4.127 Y-0.0618
G1 Z-0.15 F30
G1 X3.877 Y-0.0618 F30
G1 Z-0.25 F30
G1 X1.999 Y-0.0618 F30
G0 Z0.25
M5
M30
